; G-Code originally generated by Simplify3D(R) Version 4.1.2
; This calibration test gcode modified by the Teaching Tech Calibration website: https://teachingtechyt.github.io/calibration.html
;M80 ; power supply on
G90
M82
M106 S0
M140 S60 ; custom bed temp
M190 S60 ; custom bed temp
M104 S210 T0 ; custom hot end temp
M109 S210 T0 ; custom hot end temp
G28 ; home all axes
;G29 ; probe ABL
;M420 S1 ; restore ABL mesh 
; custom start gcode
G28 ;Home
G1 Z15.0 F6000 ;Move the platform down 15mm
;Prime the extruder
M117 Purging extruder...
G92 E0     ; reset extruder
G1 Z1.0 F3000    ; move z up little to prevent scratching of surface
G1 X0.0 Y20 Z0.3 F5000.0  ; move to start-line position
G1 X0.0 Y100.0 Z0.3 F500.0 E15  ; draw 1st line
G1 X0.4 Y100.0 Z0.3 F5000.0  ; move to side a little
G1 X0.4 Y20 Z0.3 F500.0 E30  ; draw 2nd line
G92 E0     ; reset extruder
G1 Z1.0 F3000    ; move z up little to prevent scratching of surface
M117 Printing...
G0 Z3; fix for delta printers that home at max
; square 1
;process Process
;layer 1, Z = 0.200
T0
G92 E0.0000
G1 E-5 F3000 ; custom retraction
;fan1;
G1 Z0.200 F1200
G1 X14.6360 Y16.3140 F3000 ; custom feedrate
G1 E0 F3000 ; custom un-retraction/prime
G92 E0.0000
G1 X16.3140 Y14.6360 E0.1023 F900 ; custom feedrate
G1 X43.6860 Y14.6360 E1.2822
G1 X45.3640 Y16.3140 E1.3844
G1 X45.3640 Y43.6860 E2.5643
G1 X43.6860 Y45.3640 E2.6666
G1 X16.3140 Y45.3640 E3.8465
G1 X14.6360 Y43.6860 E3.9487
G1 X14.6360 Y16.3140 E5.1286
G92 E0.0000
G1 E-5 F3000 ; custom retraction
;zhop1
G1 X15.2120 Y16.5520 F3000 ; custom feedrate
G1 Z0.200 F1200
G1 E0 F3000 ; custom un-retraction/prime
G92 E0.0000
G1 X16.5520 Y15.2120 E0.0817 F900 ; custom feedrate
G1 X43.4480 Y15.2120 E1.2410
G1 X44.7880 Y16.5520 E1.3227
G1 X44.7880 Y43.4480 E2.4820
G1 X43.4480 Y44.7880 E2.5637
G1 X16.5520 Y44.7880 E3.7231
G1 X15.2120 Y43.4480 E3.8048
G1 X15.2120 Y16.5520 E4.9641
G92 E0.0000
G1 E-5 F3000 ; custom retraction
;zhop1
G1 X17.7880 Y17.7880 F3000 ; custom feedrate
G1 X17.7880 Y18.2020
G1 X18.9400 Y18.9400
G1 Z0.200 F1200
G1 E0 F3000 ; custom un-retraction/prime
G92 E0.0000
G1 X41.0600 Y18.9400 E0.9535 F720 ; custom feedrate
G1 X41.0600 Y41.0600 E1.9069
G1 X18.9400 Y41.0600 E2.8604
G1 X18.9400 Y18.9400 E3.8139
G1 X18.3640 Y18.3640 F3000 ; custom feedrate
G92 E0.0000
G1 X41.6360 Y18.3640 E1.0031 F720 ; custom feedrate
G1 X41.6360 Y41.6360 E2.0063
G1 X18.3640 Y41.6360 E3.0094
G1 X18.3640 Y18.3640 E4.0125
G1 X17.7880 Y17.7880 F3000 ; custom feedrate
G92 E0.0000
G1 X42.2120 Y17.7880 E1.0528 F540 ; custom feedrate
G1 X42.2120 Y42.2120 E2.1056
G1 X17.7880 Y42.2120 E3.1584
G1 X17.7880 Y17.7880 E4.2111
G1 X40.4650 Y19.2860 F3000 ; custom feedrate
G92 E0.0000
G1 X40.7140 Y19.5350 E0.0152 F720 ; custom feedrate
G1 X40.7140 Y20.3500 E0.0503
G1 X39.6500 Y19.2860 E0.1152
G1 X38.8360 Y19.2860 E0.1503
G1 X40.7140 Y21.1640 E0.2648
G1 X40.7140 Y21.9790 E0.2999
G1 X38.0210 Y19.2860 E0.4640
G1 X37.2070 Y19.2860 E0.4992
G1 X40.7140 Y22.7930 E0.7130
G1 X40.7140 Y23.6080 E0.7481
G1 X36.3920 Y19.2860 E1.0116
G1 X35.5780 Y19.2860 E1.0467
G1 X40.7140 Y24.4220 E1.3598
G1 X40.7140 Y25.2370 E1.3949
G1 X34.7630 Y19.2860 E1.7577
G1 X33.9480 Y19.2860 E1.7928
G1 X40.7140 Y26.0520 E2.2053
G1 X40.7140 Y26.8660 E2.2404
G1 X33.1340 Y19.2860 E2.7025
G1 X32.3190 Y19.2860 E2.7376
G1 X40.7140 Y27.6810 E3.2494
G1 X40.7140 Y28.4950 E3.2845
G1 X31.5050 Y19.2860 E3.8459
G1 X30.6900 Y19.2860 E3.8810
G1 X40.7140 Y29.3100 E4.4921
G1 X40.7140 Y30.1250 E4.5272
G1 X29.8750 Y19.2860 E5.1879
G1 X29.0610 Y19.2860 E5.2231
G1 X40.7140 Y30.9390 E5.9334
G1 X40.7140 Y31.7540 E5.9686
G1 X28.2460 Y19.2860 E6.7286
G1 X27.4320 Y19.2860 E6.7637
G1 X40.7140 Y32.5680 E7.5734
G1 X40.7140 Y33.3830 E7.6085
G1 X26.6170 Y19.2860 E8.4679
G1 X25.8020 Y19.2860 E8.5030
G1 X40.7140 Y34.1980 E9.4120
G1 X40.7140 Y35.0120 E9.4471
G1 X24.9880 Y19.2860 E10.4058
G1 X24.1730 Y19.2860 E10.4409
G1 X40.7140 Y35.8270 E11.4493
G1 X40.7140 Y36.6410 E11.4844
G1 X23.3590 Y19.2860 E12.5424
G1 X22.5440 Y19.2860 E12.5775
G1 X40.7140 Y37.4560 E13.6851
G1 X40.7140 Y38.2700 E13.7202
G1 X21.7300 Y19.2860 E14.8775
G1 X20.9150 Y19.2860 E14.9127
G1 X40.7140 Y39.0850 E16.1196
G1 X40.7140 Y39.9000 E16.1547
G1 X20.1000 Y19.2860 E17.4113
G1 X19.2860 Y19.2860 E17.4465
G1 X40.7140 Y40.7140 E18.7527
G1 X39.9000 Y40.7140 E18.7879
G1 X19.2860 Y20.1000 E20.0445
G1 X19.2860 Y20.9150 E20.0796
G1 X39.0850 Y40.7140 E21.2865
G1 X38.2700 Y40.7140 E21.3217
G1 X19.2860 Y21.7300 E22.4790
G1 X19.2860 Y22.5440 E22.5141
G1 X37.4560 Y40.7140 E23.6217
G1 X36.6410 Y40.7140 E23.6568
G1 X19.2860 Y23.3590 E24.7148
G1 X19.2860 Y24.1730 E24.7499
G1 X35.8270 Y40.7140 E25.7583
G1 X35.0120 Y40.7140 E25.7934
G1 X19.2860 Y24.9880 E26.7521
G1 X19.2860 Y25.8020 E26.7872
G1 X34.1980 Y40.7140 E27.6962
G1 X33.3830 Y40.7140 E27.7313
G1 X19.2860 Y26.6170 E28.5907
G1 X19.2860 Y27.4320 E28.6258
G1 X32.5680 Y40.7140 E29.4355
G1 X31.7540 Y40.7140 E29.4706
G1 X19.2860 Y28.2460 E30.2307
G1 X19.2860 Y29.0610 E30.2658
G1 X30.9390 Y40.7140 E30.9762
G1 X30.1250 Y40.7140 E31.0113
G1 X19.2860 Y29.8750 E31.6720
G1 X19.2860 Y30.6900 E31.7071
G1 X29.3100 Y40.7140 E32.3182
G1 X28.4950 Y40.7140 E32.3533
G1 X19.2860 Y31.5050 E32.9147
G1 X19.2860 Y32.3190 E32.9499
G1 X27.6810 Y40.7140 E33.4616
G1 X26.8660 Y40.7140 E33.4967
G1 X19.2860 Y33.1340 E33.9588
G1 X19.2860 Y33.9480 E33.9939
G1 X26.0520 Y40.7140 E34.4064
G1 X25.2370 Y40.7140 E34.4415
G1 X19.2860 Y34.7630 E34.8043
G1 X19.2860 Y35.5770 E34.8394
G1 X24.4230 Y40.7140 E35.1525
G1 X23.6080 Y40.7140 E35.1877
G1 X19.2860 Y36.3920 E35.4511
G1 X19.2860 Y37.2070 E35.4863
G1 X22.7930 Y40.7140 E35.7001
G1 X21.9790 Y40.7140 E35.7352
G1 X19.2860 Y38.0210 E35.8994
G1 X19.2860 Y38.8360 E35.9345
G1 X21.1640 Y40.7140 E36.0490
G1 X20.3500 Y40.7140 E36.0841
G1 X19.2860 Y39.6500 E36.1489
G1 X19.2860 Y40.4650 E36.1840
G1 X19.5350 Y40.7140 E36.1992
G92 E0.0000
G1 E-5 F3000 ; custom retraction

; square 2
;process Process
;layer 1, Z = 0.200
T0
G92 E0.0000
G1 E-5 F3000 ; custom retraction
;fan1;
G1 Z0.200 F1200
G1 X14.6360 Y146.3140 F3000 ; custom feedrate
G1 E0 F3000 ; custom un-retraction/prime
G92 E0.0000
G1 X16.3140 Y144.6360 E0.1023 F900 ; custom feedrate
G1 X43.6860 Y144.6360 E1.2822
G1 X45.3640 Y146.3140 E1.3844
G1 X45.3640 Y173.6860 E2.5643
G1 X43.6860 Y175.3640 E2.6666
G1 X16.3140 Y175.3640 E3.8465
G1 X14.6360 Y173.6860 E3.9487
G1 X14.6360 Y146.3140 E5.1286
G92 E0.0000
G1 E-5 F3000 ; custom retraction
;zhop1
G1 X15.2120 Y146.5520 F3000 ; custom feedrate
G1 Z0.200 F1200
G1 E0 F3000 ; custom un-retraction/prime
G92 E0.0000
G1 X16.5520 Y145.2120 E0.0817 F900 ; custom feedrate
G1 X43.4480 Y145.2120 E1.2410
G1 X44.7880 Y146.5520 E1.3227
G1 X44.7880 Y173.4480 E2.4820
G1 X43.4480 Y174.7880 E2.5637
G1 X16.5520 Y174.7880 E3.7231
G1 X15.2120 Y173.4480 E3.8048
G1 X15.2120 Y146.5520 E4.9641
G92 E0.0000
G1 E-5 F3000 ; custom retraction
;zhop1
G1 X17.7880 Y147.7880 F3000 ; custom feedrate
G1 X17.7880 Y148.2020
G1 X18.9400 Y148.9400
G1 Z0.200 F1200
G1 E0 F3000 ; custom un-retraction/prime
G92 E0.0000
G1 X41.0600 Y148.9400 E0.9535 F720 ; custom feedrate
G1 X41.0600 Y171.0600 E1.9069
G1 X18.9400 Y171.0600 E2.8604
G1 X18.9400 Y148.9400 E3.8139
G1 X18.3640 Y148.3640 F3000 ; custom feedrate
G92 E0.0000
G1 X41.6360 Y148.3640 E1.0031 F720 ; custom feedrate
G1 X41.6360 Y171.6360 E2.0063
G1 X18.3640 Y171.6360 E3.0094
G1 X18.3640 Y148.3640 E4.0125
G1 X17.7880 Y147.7880 F3000 ; custom feedrate
G92 E0.0000
G1 X42.2120 Y147.7880 E1.0528 F540 ; custom feedrate
G1 X42.2120 Y172.2120 E2.1056
G1 X17.7880 Y172.2120 E3.1584
G1 X17.7880 Y147.7880 E4.2111
G1 X40.4650 Y149.2860 F3000 ; custom feedrate
G92 E0.0000
G1 X40.7140 Y149.5350 E0.0152 F720 ; custom feedrate
G1 X40.7140 Y150.3500 E0.0503
G1 X39.6500 Y149.2860 E0.1152
G1 X38.8360 Y149.2860 E0.1503
G1 X40.7140 Y151.1640 E0.2648
G1 X40.7140 Y151.9790 E0.2999
G1 X38.0210 Y149.2860 E0.4640
G1 X37.2070 Y149.2860 E0.4992
G1 X40.7140 Y152.7930 E0.7130
G1 X40.7140 Y153.6080 E0.7481
G1 X36.3920 Y149.2860 E1.0116
G1 X35.5780 Y149.2860 E1.0467
G1 X40.7140 Y154.4220 E1.3598
G1 X40.7140 Y155.2370 E1.3949
G1 X34.7630 Y149.2860 E1.7577
G1 X33.9480 Y149.2860 E1.7928
G1 X40.7140 Y156.0520 E2.2053
G1 X40.7140 Y156.8660 E2.2404
G1 X33.1340 Y149.2860 E2.7025
G1 X32.3190 Y149.2860 E2.7376
G1 X40.7140 Y157.6810 E3.2494
G1 X40.7140 Y158.4950 E3.2845
G1 X31.5050 Y149.2860 E3.8459
G1 X30.6900 Y149.2860 E3.8810
G1 X40.7140 Y159.3100 E4.4921
G1 X40.7140 Y160.1250 E4.5272
G1 X29.8750 Y149.2860 E5.1879
G1 X29.0610 Y149.2860 E5.2231
G1 X40.7140 Y160.9390 E5.9334
G1 X40.7140 Y161.7540 E5.9686
G1 X28.2460 Y149.2860 E6.7286
G1 X27.4320 Y149.2860 E6.7637
G1 X40.7140 Y162.5680 E7.5734
G1 X40.7140 Y163.3830 E7.6085
G1 X26.6170 Y149.2860 E8.4679
G1 X25.8020 Y149.2860 E8.5030
G1 X40.7140 Y164.1980 E9.4120
G1 X40.7140 Y165.0120 E9.4471
G1 X24.9880 Y149.2860 E10.4058
G1 X24.1730 Y149.2860 E10.4409
G1 X40.7140 Y165.8270 E11.4493
G1 X40.7140 Y166.6410 E11.4844
G1 X23.3590 Y149.2860 E12.5424
G1 X22.5440 Y149.2860 E12.5775
G1 X40.7140 Y167.4560 E13.6851
G1 X40.7140 Y168.2700 E13.7202
G1 X21.7300 Y149.2860 E14.8775
G1 X20.9150 Y149.2860 E14.9127
G1 X40.7140 Y169.0850 E16.1196
G1 X40.7140 Y169.9000 E16.1547
G1 X20.1000 Y149.2860 E17.4113
G1 X19.2860 Y149.2860 E17.4465
G1 X40.7140 Y170.7140 E18.7527
G1 X39.9000 Y170.7140 E18.7879
G1 X19.2860 Y150.1000 E20.0445
G1 X19.2860 Y150.9150 E20.0796
G1 X39.0850 Y170.7140 E21.2865
G1 X38.2700 Y170.7140 E21.3217
G1 X19.2860 Y151.7300 E22.4790
G1 X19.2860 Y152.5440 E22.5141
G1 X37.4560 Y170.7140 E23.6217
G1 X36.6410 Y170.7140 E23.6568
G1 X19.2860 Y153.3590 E24.7148
G1 X19.2860 Y154.1730 E24.7499
G1 X35.8270 Y170.7140 E25.7583
G1 X35.0120 Y170.7140 E25.7934
G1 X19.2860 Y154.9880 E26.7521
G1 X19.2860 Y155.8020 E26.7872
G1 X34.1980 Y170.7140 E27.6962
G1 X33.3830 Y170.7140 E27.7313
G1 X19.2860 Y156.6170 E28.5907
G1 X19.2860 Y157.4320 E28.6258
G1 X32.5680 Y170.7140 E29.4355
G1 X31.7540 Y170.7140 E29.4706
G1 X19.2860 Y158.2460 E30.2307
G1 X19.2860 Y159.0610 E30.2658
G1 X30.9390 Y170.7140 E30.9762
G1 X30.1250 Y170.7140 E31.0113
G1 X19.2860 Y159.8750 E31.6720
G1 X19.2860 Y160.6900 E31.7071
G1 X29.3100 Y170.7140 E32.3182
G1 X28.4950 Y170.7140 E32.3533
G1 X19.2860 Y161.5050 E32.9147
G1 X19.2860 Y162.3190 E32.9499
G1 X27.6810 Y170.7140 E33.4616
G1 X26.8660 Y170.7140 E33.4967
G1 X19.2860 Y163.1340 E33.9588
G1 X19.2860 Y163.9480 E33.9939
G1 X26.0520 Y170.7140 E34.4064
G1 X25.2370 Y170.7140 E34.4415
G1 X19.2860 Y164.7630 E34.8043
G1 X19.2860 Y165.5770 E34.8394
G1 X24.4230 Y170.7140 E35.1525
G1 X23.6080 Y170.7140 E35.1877
G1 X19.2860 Y166.3920 E35.4511
G1 X19.2860 Y167.2070 E35.4863
G1 X22.7930 Y170.7140 E35.7001
G1 X21.9790 Y170.7140 E35.7352
G1 X19.2860 Y168.0210 E35.8994
G1 X19.2860 Y168.8360 E35.9345
G1 X21.1640 Y170.7140 E36.0490
G1 X20.3500 Y170.7140 E36.0841
G1 X19.2860 Y169.6500 E36.1489
G1 X19.2860 Y170.4650 E36.1840
G1 X19.5350 Y170.7140 E36.1992
G92 E0.0000
G1 E-5 F3000 ; custom retraction

; square 3
;process Process
;layer 1, Z = 0.200
T0
G92 E0.0000
G1 E-5 F3000 ; custom retraction
;fan1;
G1 Z0.200 F1200
G1 X79.6360 Y81.3140 F3000 ; custom feedrate
G1 E0 F3000 ; custom un-retraction/prime
G92 E0.0000
G1 X81.3140 Y79.6360 E0.1023 F900 ; custom feedrate
G1 X108.6860 Y79.6360 E1.2822
G1 X110.3640 Y81.3140 E1.3844
G1 X110.3640 Y108.6860 E2.5643
G1 X108.6860 Y110.3640 E2.6666
G1 X81.3140 Y110.3640 E3.8465
G1 X79.6360 Y108.6860 E3.9487
G1 X79.6360 Y81.3140 E5.1286
G92 E0.0000
G1 E-5 F3000 ; custom retraction
;zhop1
G1 X80.2120 Y81.5520 F3000 ; custom feedrate
G1 Z0.200 F1200
G1 E0 F3000 ; custom un-retraction/prime
G92 E0.0000
G1 X81.5520 Y80.2120 E0.0817 F900 ; custom feedrate
G1 X108.4480 Y80.2120 E1.2410
G1 X109.7880 Y81.5520 E1.3227
G1 X109.7880 Y108.4480 E2.4820
G1 X108.4480 Y109.7880 E2.5637
G1 X81.5520 Y109.7880 E3.7231
G1 X80.2120 Y108.4480 E3.8048
G1 X80.2120 Y81.5520 E4.9641
G92 E0.0000
G1 E-5 F3000 ; custom retraction
;zhop1
G1 X82.7880 Y82.7880 F3000 ; custom feedrate
G1 X82.7880 Y83.2020
G1 X83.9400 Y83.9400
G1 Z0.200 F1200
G1 E0 F3000 ; custom un-retraction/prime
G92 E0.0000
G1 X106.0600 Y83.9400 E0.9535 F720 ; custom feedrate
G1 X106.0600 Y106.0600 E1.9069
G1 X83.9400 Y106.0600 E2.8604
G1 X83.9400 Y83.9400 E3.8139
G1 X83.3640 Y83.3640 F3000 ; custom feedrate
G92 E0.0000
G1 X106.6360 Y83.3640 E1.0031 F720 ; custom feedrate
G1 X106.6360 Y106.6360 E2.0063
G1 X83.3640 Y106.6360 E3.0094
G1 X83.3640 Y83.3640 E4.0125
G1 X82.7880 Y82.7880 F3000 ; custom feedrate
G92 E0.0000
G1 X107.2120 Y82.7880 E1.0528 F540 ; custom feedrate
G1 X107.2120 Y107.2120 E2.1056
G1 X82.7880 Y107.2120 E3.1584
G1 X82.7880 Y82.7880 E4.2111
G1 X105.4650 Y84.2860 F3000 ; custom feedrate
G92 E0.0000
G1 X105.7140 Y84.5350 E0.0152 F720 ; custom feedrate
G1 X105.7140 Y85.3500 E0.0503
G1 X104.6500 Y84.2860 E0.1152
G1 X103.8360 Y84.2860 E0.1503
G1 X105.7140 Y86.1640 E0.2648
G1 X105.7140 Y86.9790 E0.2999
G1 X103.0210 Y84.2860 E0.4640
G1 X102.2070 Y84.2860 E0.4992
G1 X105.7140 Y87.7930 E0.7130
G1 X105.7140 Y88.6080 E0.7481
G1 X101.3920 Y84.2860 E1.0116
G1 X100.5780 Y84.2860 E1.0467
G1 X105.7140 Y89.4220 E1.3598
G1 X105.7140 Y90.2370 E1.3949
G1 X99.7630 Y84.2860 E1.7577
G1 X98.9480 Y84.2860 E1.7928
G1 X105.7140 Y91.0520 E2.2053
G1 X105.7140 Y91.8660 E2.2404
G1 X98.1340 Y84.2860 E2.7025
G1 X97.3190 Y84.2860 E2.7376
G1 X105.7140 Y92.6810 E3.2494
G1 X105.7140 Y93.4950 E3.2845
G1 X96.5050 Y84.2860 E3.8459
G1 X95.6900 Y84.2860 E3.8810
G1 X105.7140 Y94.3100 E4.4921
G1 X105.7140 Y95.1250 E4.5272
G1 X94.8750 Y84.2860 E5.1879
G1 X94.0610 Y84.2860 E5.2231
G1 X105.7140 Y95.9390 E5.9334
G1 X105.7140 Y96.7540 E5.9686
G1 X93.2460 Y84.2860 E6.7286
G1 X92.4320 Y84.2860 E6.7637
G1 X105.7140 Y97.5680 E7.5734
G1 X105.7140 Y98.3830 E7.6085
G1 X91.6170 Y84.2860 E8.4679
G1 X90.8020 Y84.2860 E8.5030
G1 X105.7140 Y99.1980 E9.4120
G1 X105.7140 Y100.0120 E9.4471
G1 X89.9880 Y84.2860 E10.4058
G1 X89.1730 Y84.2860 E10.4409
G1 X105.7140 Y100.8270 E11.4493
G1 X105.7140 Y101.6410 E11.4844
G1 X88.3590 Y84.2860 E12.5424
G1 X87.5440 Y84.2860 E12.5775
G1 X105.7140 Y102.4560 E13.6851
G1 X105.7140 Y103.2700 E13.7202
G1 X86.7300 Y84.2860 E14.8775
G1 X85.9150 Y84.2860 E14.9127
G1 X105.7140 Y104.0850 E16.1196
G1 X105.7140 Y104.9000 E16.1547
G1 X85.1000 Y84.2860 E17.4113
G1 X84.2860 Y84.2860 E17.4465
G1 X105.7140 Y105.7140 E18.7527
G1 X104.9000 Y105.7140 E18.7879
G1 X84.2860 Y85.1000 E20.0445
G1 X84.2860 Y85.9150 E20.0796
G1 X104.0850 Y105.7140 E21.2865
G1 X103.2700 Y105.7140 E21.3217
G1 X84.2860 Y86.7300 E22.4790
G1 X84.2860 Y87.5440 E22.5141
G1 X102.4560 Y105.7140 E23.6217
G1 X101.6410 Y105.7140 E23.6568
G1 X84.2860 Y88.3590 E24.7148
G1 X84.2860 Y89.1730 E24.7499
G1 X100.8270 Y105.7140 E25.7583
G1 X100.0120 Y105.7140 E25.7934
G1 X84.2860 Y89.9880 E26.7521
G1 X84.2860 Y90.8020 E26.7872
G1 X99.1980 Y105.7140 E27.6962
G1 X98.3830 Y105.7140 E27.7313
G1 X84.2860 Y91.6170 E28.5907
G1 X84.2860 Y92.4320 E28.6258
G1 X97.5680 Y105.7140 E29.4355
G1 X96.7540 Y105.7140 E29.4706
G1 X84.2860 Y93.2460 E30.2307
G1 X84.2860 Y94.0610 E30.2658
G1 X95.9390 Y105.7140 E30.9762
G1 X95.1250 Y105.7140 E31.0113
G1 X84.2860 Y94.8750 E31.6720
G1 X84.2860 Y95.6900 E31.7071
G1 X94.3100 Y105.7140 E32.3182
G1 X93.4950 Y105.7140 E32.3533
G1 X84.2860 Y96.5050 E32.9147
G1 X84.2860 Y97.3190 E32.9499
G1 X92.6810 Y105.7140 E33.4616
G1 X91.8660 Y105.7140 E33.4967
G1 X84.2860 Y98.1340 E33.9588
G1 X84.2860 Y98.9480 E33.9939
G1 X91.0520 Y105.7140 E34.4064
G1 X90.2370 Y105.7140 E34.4415
G1 X84.2860 Y99.7630 E34.8043
G1 X84.2860 Y100.5770 E34.8394
G1 X89.4230 Y105.7140 E35.1525
G1 X88.6080 Y105.7140 E35.1877
G1 X84.2860 Y101.3920 E35.4511
G1 X84.2860 Y102.2070 E35.4863
G1 X87.7930 Y105.7140 E35.7001
G1 X86.9790 Y105.7140 E35.7352
G1 X84.2860 Y103.0210 E35.8994
G1 X84.2860 Y103.8360 E35.9345
G1 X86.1640 Y105.7140 E36.0490
G1 X85.3500 Y105.7140 E36.0841
G1 X84.2860 Y104.6500 E36.1489
G1 X84.2860 Y105.4650 E36.1840
G1 X84.5350 Y105.7140 E36.1992
G92 E0.0000
G1 E-5 F3000 ; custom retraction

; square 4
;process Process
;layer 1, Z = 0.200
T0
G92 E0.0000
G1 E-5 F3000 ; custom retraction
;fan1;
G1 Z0.200 F1200
G1 X144.6360 Y16.3140 F3000 ; custom feedrate
G1 E0 F3000 ; custom un-retraction/prime
G92 E0.0000
G1 X146.3140 Y14.6360 E0.1023 F900 ; custom feedrate
G1 X173.6860 Y14.6360 E1.2822
G1 X175.3640 Y16.3140 E1.3844
G1 X175.3640 Y43.6860 E2.5643
G1 X173.6860 Y45.3640 E2.6666
G1 X146.3140 Y45.3640 E3.8465
G1 X144.6360 Y43.6860 E3.9487
G1 X144.6360 Y16.3140 E5.1286
G92 E0.0000
G1 E-5 F3000 ; custom retraction
;zhop1
G1 X145.2120 Y16.5520 F3000 ; custom feedrate
G1 Z0.200 F1200
G1 E0 F3000 ; custom un-retraction/prime
G92 E0.0000
G1 X146.5520 Y15.2120 E0.0817 F900 ; custom feedrate
G1 X173.4480 Y15.2120 E1.2410
G1 X174.7880 Y16.5520 E1.3227
G1 X174.7880 Y43.4480 E2.4820
G1 X173.4480 Y44.7880 E2.5637
G1 X146.5520 Y44.7880 E3.7231
G1 X145.2120 Y43.4480 E3.8048
G1 X145.2120 Y16.5520 E4.9641
G92 E0.0000
G1 E-5 F3000 ; custom retraction
;zhop1
G1 X147.7880 Y17.7880 F3000 ; custom feedrate
G1 X147.7880 Y18.2020
G1 X148.9400 Y18.9400
G1 Z0.200 F1200
G1 E0 F3000 ; custom un-retraction/prime
G92 E0.0000
G1 X171.0600 Y18.9400 E0.9535 F720 ; custom feedrate
G1 X171.0600 Y41.0600 E1.9069
G1 X148.9400 Y41.0600 E2.8604
G1 X148.9400 Y18.9400 E3.8139
G1 X148.3640 Y18.3640 F3000 ; custom feedrate
G92 E0.0000
G1 X171.6360 Y18.3640 E1.0031 F720 ; custom feedrate
G1 X171.6360 Y41.6360 E2.0063
G1 X148.3640 Y41.6360 E3.0094
G1 X148.3640 Y18.3640 E4.0125
G1 X147.7880 Y17.7880 F3000 ; custom feedrate
G92 E0.0000
G1 X172.2120 Y17.7880 E1.0528 F540 ; custom feedrate
G1 X172.2120 Y42.2120 E2.1056
G1 X147.7880 Y42.2120 E3.1584
G1 X147.7880 Y17.7880 E4.2111
G1 X170.4650 Y19.2860 F3000 ; custom feedrate
G92 E0.0000
G1 X170.7140 Y19.5350 E0.0152 F720 ; custom feedrate
G1 X170.7140 Y20.3500 E0.0503
G1 X169.6500 Y19.2860 E0.1152
G1 X168.8360 Y19.2860 E0.1503
G1 X170.7140 Y21.1640 E0.2648
G1 X170.7140 Y21.9790 E0.2999
G1 X168.0210 Y19.2860 E0.4640
G1 X167.2070 Y19.2860 E0.4992
G1 X170.7140 Y22.7930 E0.7130
G1 X170.7140 Y23.6080 E0.7481
G1 X166.3920 Y19.2860 E1.0116
G1 X165.5780 Y19.2860 E1.0467
G1 X170.7140 Y24.4220 E1.3598
G1 X170.7140 Y25.2370 E1.3949
G1 X164.7630 Y19.2860 E1.7577
G1 X163.9480 Y19.2860 E1.7928
G1 X170.7140 Y26.0520 E2.2053
G1 X170.7140 Y26.8660 E2.2404
G1 X163.1340 Y19.2860 E2.7025
G1 X162.3190 Y19.2860 E2.7376
G1 X170.7140 Y27.6810 E3.2494
G1 X170.7140 Y28.4950 E3.2845
G1 X161.5050 Y19.2860 E3.8459
G1 X160.6900 Y19.2860 E3.8810
G1 X170.7140 Y29.3100 E4.4921
G1 X170.7140 Y30.1250 E4.5272
G1 X159.8750 Y19.2860 E5.1879
G1 X159.0610 Y19.2860 E5.2231
G1 X170.7140 Y30.9390 E5.9334
G1 X170.7140 Y31.7540 E5.9686
G1 X158.2460 Y19.2860 E6.7286
G1 X157.4320 Y19.2860 E6.7637
G1 X170.7140 Y32.5680 E7.5734
G1 X170.7140 Y33.3830 E7.6085
G1 X156.6170 Y19.2860 E8.4679
G1 X155.8020 Y19.2860 E8.5030
G1 X170.7140 Y34.1980 E9.4120
G1 X170.7140 Y35.0120 E9.4471
G1 X154.9880 Y19.2860 E10.4058
G1 X154.1730 Y19.2860 E10.4409
G1 X170.7140 Y35.8270 E11.4493
G1 X170.7140 Y36.6410 E11.4844
G1 X153.3590 Y19.2860 E12.5424
G1 X152.5440 Y19.2860 E12.5775
G1 X170.7140 Y37.4560 E13.6851
G1 X170.7140 Y38.2700 E13.7202
G1 X151.7300 Y19.2860 E14.8775
G1 X150.9150 Y19.2860 E14.9127
G1 X170.7140 Y39.0850 E16.1196
G1 X170.7140 Y39.9000 E16.1547
G1 X150.1000 Y19.2860 E17.4113
G1 X149.2860 Y19.2860 E17.4465
G1 X170.7140 Y40.7140 E18.7527
G1 X169.9000 Y40.7140 E18.7879
G1 X149.2860 Y20.1000 E20.0445
G1 X149.2860 Y20.9150 E20.0796
G1 X169.0850 Y40.7140 E21.2865
G1 X168.2700 Y40.7140 E21.3217
G1 X149.2860 Y21.7300 E22.4790
G1 X149.2860 Y22.5440 E22.5141
G1 X167.4560 Y40.7140 E23.6217
G1 X166.6410 Y40.7140 E23.6568
G1 X149.2860 Y23.3590 E24.7148
G1 X149.2860 Y24.1730 E24.7499
G1 X165.8270 Y40.7140 E25.7583
G1 X165.0120 Y40.7140 E25.7934
G1 X149.2860 Y24.9880 E26.7521
G1 X149.2860 Y25.8020 E26.7872
G1 X164.1980 Y40.7140 E27.6962
G1 X163.3830 Y40.7140 E27.7313
G1 X149.2860 Y26.6170 E28.5907
G1 X149.2860 Y27.4320 E28.6258
G1 X162.5680 Y40.7140 E29.4355
G1 X161.7540 Y40.7140 E29.4706
G1 X149.2860 Y28.2460 E30.2307
G1 X149.2860 Y29.0610 E30.2658
G1 X160.9390 Y40.7140 E30.9762
G1 X160.1250 Y40.7140 E31.0113
G1 X149.2860 Y29.8750 E31.6720
G1 X149.2860 Y30.6900 E31.7071
G1 X159.3100 Y40.7140 E32.3182
G1 X158.4950 Y40.7140 E32.3533
G1 X149.2860 Y31.5050 E32.9147
G1 X149.2860 Y32.3190 E32.9499
G1 X157.6810 Y40.7140 E33.4616
G1 X156.8660 Y40.7140 E33.4967
G1 X149.2860 Y33.1340 E33.9588
G1 X149.2860 Y33.9480 E33.9939
G1 X156.0520 Y40.7140 E34.4064
G1 X155.2370 Y40.7140 E34.4415
G1 X149.2860 Y34.7630 E34.8043
G1 X149.2860 Y35.5770 E34.8394
G1 X154.4230 Y40.7140 E35.1525
G1 X153.6080 Y40.7140 E35.1877
G1 X149.2860 Y36.3920 E35.4511
G1 X149.2860 Y37.2070 E35.4863
G1 X152.7930 Y40.7140 E35.7001
G1 X151.9790 Y40.7140 E35.7352
G1 X149.2860 Y38.0210 E35.8994
G1 X149.2860 Y38.8360 E35.9345
G1 X151.1640 Y40.7140 E36.0490
G1 X150.3500 Y40.7140 E36.0841
G1 X149.2860 Y39.6500 E36.1489
G1 X149.2860 Y40.4650 E36.1840
G1 X149.5350 Y40.7140 E36.1992
G92 E0.0000
G1 E-5 F3000 ; custom retraction

; square 5
;process Process
;layer 1, Z = 0.200
T0
G92 E0.0000
G1 E-5 F3000 ; custom retraction
;fan1;
G1 Z0.200 F1200
G1 X144.6360 Y146.3140 F3000 ; custom feedrate
G1 E0 F3000 ; custom un-retraction/prime
G92 E0.0000
G1 X146.3140 Y144.6360 E0.1023 F900 ; custom feedrate
G1 X173.6860 Y144.6360 E1.2822
G1 X175.3640 Y146.3140 E1.3844
G1 X175.3640 Y173.6860 E2.5643
G1 X173.6860 Y175.3640 E2.6666
G1 X146.3140 Y175.3640 E3.8465
G1 X144.6360 Y173.6860 E3.9487
G1 X144.6360 Y146.3140 E5.1286
G92 E0.0000
G1 E-5 F3000 ; custom retraction
;zhop1
G1 X145.2120 Y146.5520 F3000 ; custom feedrate
G1 Z0.200 F1200
G1 E0 F3000 ; custom un-retraction/prime
G92 E0.0000
G1 X146.5520 Y145.2120 E0.0817 F900 ; custom feedrate
G1 X173.4480 Y145.2120 E1.2410
G1 X174.7880 Y146.5520 E1.3227
G1 X174.7880 Y173.4480 E2.4820
G1 X173.4480 Y174.7880 E2.5637
G1 X146.5520 Y174.7880 E3.7231
G1 X145.2120 Y173.4480 E3.8048
G1 X145.2120 Y146.5520 E4.9641
G92 E0.0000
G1 E-5 F3000 ; custom retraction
;zhop1
G1 X147.7880 Y147.7880 F3000 ; custom feedrate
G1 X147.7880 Y148.2020
G1 X148.9400 Y148.9400
G1 Z0.200 F1200
G1 E0 F3000 ; custom un-retraction/prime
G92 E0.0000
G1 X171.0600 Y148.9400 E0.9535 F720 ; custom feedrate
G1 X171.0600 Y171.0600 E1.9069
G1 X148.9400 Y171.0600 E2.8604
G1 X148.9400 Y148.9400 E3.8139
G1 X148.3640 Y148.3640 F3000 ; custom feedrate
G92 E0.0000
G1 X171.6360 Y148.3640 E1.0031 F720 ; custom feedrate
G1 X171.6360 Y171.6360 E2.0063
G1 X148.3640 Y171.6360 E3.0094
G1 X148.3640 Y148.3640 E4.0125
G1 X147.7880 Y147.7880 F3000 ; custom feedrate
G92 E0.0000
G1 X172.2120 Y147.7880 E1.0528 F540 ; custom feedrate
G1 X172.2120 Y172.2120 E2.1056
G1 X147.7880 Y172.2120 E3.1584
G1 X147.7880 Y147.7880 E4.2111
G1 X170.4650 Y149.2860 F3000 ; custom feedrate
G92 E0.0000
G1 X170.7140 Y149.5350 E0.0152 F720 ; custom feedrate
G1 X170.7140 Y150.3500 E0.0503
G1 X169.6500 Y149.2860 E0.1152
G1 X168.8360 Y149.2860 E0.1503
G1 X170.7140 Y151.1640 E0.2648
G1 X170.7140 Y151.9790 E0.2999
G1 X168.0210 Y149.2860 E0.4640
G1 X167.2070 Y149.2860 E0.4992
G1 X170.7140 Y152.7930 E0.7130
G1 X170.7140 Y153.6080 E0.7481
G1 X166.3920 Y149.2860 E1.0116
G1 X165.5780 Y149.2860 E1.0467
G1 X170.7140 Y154.4220 E1.3598
G1 X170.7140 Y155.2370 E1.3949
G1 X164.7630 Y149.2860 E1.7577
G1 X163.9480 Y149.2860 E1.7928
G1 X170.7140 Y156.0520 E2.2053
G1 X170.7140 Y156.8660 E2.2404
G1 X163.1340 Y149.2860 E2.7025
G1 X162.3190 Y149.2860 E2.7376
G1 X170.7140 Y157.6810 E3.2494
G1 X170.7140 Y158.4950 E3.2845
G1 X161.5050 Y149.2860 E3.8459
G1 X160.6900 Y149.2860 E3.8810
G1 X170.7140 Y159.3100 E4.4921
G1 X170.7140 Y160.1250 E4.5272
G1 X159.8750 Y149.2860 E5.1879
G1 X159.0610 Y149.2860 E5.2231
G1 X170.7140 Y160.9390 E5.9334
G1 X170.7140 Y161.7540 E5.9686
G1 X158.2460 Y149.2860 E6.7286
G1 X157.4320 Y149.2860 E6.7637
G1 X170.7140 Y162.5680 E7.5734
G1 X170.7140 Y163.3830 E7.6085
G1 X156.6170 Y149.2860 E8.4679
G1 X155.8020 Y149.2860 E8.5030
G1 X170.7140 Y164.1980 E9.4120
G1 X170.7140 Y165.0120 E9.4471
G1 X154.9880 Y149.2860 E10.4058
G1 X154.1730 Y149.2860 E10.4409
G1 X170.7140 Y165.8270 E11.4493
G1 X170.7140 Y166.6410 E11.4844
G1 X153.3590 Y149.2860 E12.5424
G1 X152.5440 Y149.2860 E12.5775
G1 X170.7140 Y167.4560 E13.6851
G1 X170.7140 Y168.2700 E13.7202
G1 X151.7300 Y149.2860 E14.8775
G1 X150.9150 Y149.2860 E14.9127
G1 X170.7140 Y169.0850 E16.1196
G1 X170.7140 Y169.9000 E16.1547
G1 X150.1000 Y149.2860 E17.4113
G1 X149.2860 Y149.2860 E17.4465
G1 X170.7140 Y170.7140 E18.7527
G1 X169.9000 Y170.7140 E18.7879
G1 X149.2860 Y150.1000 E20.0445
G1 X149.2860 Y150.9150 E20.0796
G1 X169.0850 Y170.7140 E21.2865
G1 X168.2700 Y170.7140 E21.3217
G1 X149.2860 Y151.7300 E22.4790
G1 X149.2860 Y152.5440 E22.5141
G1 X167.4560 Y170.7140 E23.6217
G1 X166.6410 Y170.7140 E23.6568
G1 X149.2860 Y153.3590 E24.7148
G1 X149.2860 Y154.1730 E24.7499
G1 X165.8270 Y170.7140 E25.7583
G1 X165.0120 Y170.7140 E25.7934
G1 X149.2860 Y154.9880 E26.7521
G1 X149.2860 Y155.8020 E26.7872
G1 X164.1980 Y170.7140 E27.6962
G1 X163.3830 Y170.7140 E27.7313
G1 X149.2860 Y156.6170 E28.5907
G1 X149.2860 Y157.4320 E28.6258
G1 X162.5680 Y170.7140 E29.4355
G1 X161.7540 Y170.7140 E29.4706
G1 X149.2860 Y158.2460 E30.2307
G1 X149.2860 Y159.0610 E30.2658
G1 X160.9390 Y170.7140 E30.9762
G1 X160.1250 Y170.7140 E31.0113
G1 X149.2860 Y159.8750 E31.6720
G1 X149.2860 Y160.6900 E31.7071
G1 X159.3100 Y170.7140 E32.3182
G1 X158.4950 Y170.7140 E32.3533
G1 X149.2860 Y161.5050 E32.9147
G1 X149.2860 Y162.3190 E32.9499
G1 X157.6810 Y170.7140 E33.4616
G1 X156.8660 Y170.7140 E33.4967
G1 X149.2860 Y163.1340 E33.9588
G1 X149.2860 Y163.9480 E33.9939
G1 X156.0520 Y170.7140 E34.4064
G1 X155.2370 Y170.7140 E34.4415
G1 X149.2860 Y164.7630 E34.8043
G1 X149.2860 Y165.5770 E34.8394
G1 X154.4230 Y170.7140 E35.1525
G1 X153.6080 Y170.7140 E35.1877
G1 X149.2860 Y166.3920 E35.4511
G1 X149.2860 Y167.2070 E35.4863
G1 X152.7930 Y170.7140 E35.7001
G1 X151.9790 Y170.7140 E35.7352
G1 X149.2860 Y168.0210 E35.8994
G1 X149.2860 Y168.8360 E35.9345
G1 X151.1640 Y170.7140 E36.0490
G1 X150.3500 Y170.7140 E36.0841
G1 X149.2860 Y169.6500 E36.1489
G1 X149.2860 Y170.4650 E36.1840
G1 X149.5350 Y170.7140 E36.1992
G92 E0.0000
G1 E-5 F3000 ; custom retraction

G28 ; home all on delta
M106 S0 ; turn off cooling fan
M104 S0 ; turn off extruder
M140 S0 ; turn off bed
M84 ; disable motors
M501 ; restore previous EEPROM values
;customend
