; G-Code originally generated by Simplify3D(R) Version 4.1.2
; This calibration test gcode modified by the Teaching Tech Calibration website: https://teachingtechyt.github.io/calibration.html
;M80 ; power supply on
G90
M82
M106 S0
M140 S60 ; custom bed temp
M190 S60 ; custom bed temp
M104 S205 T0 ; custom hot end temp
M109 S205 T0 ; custom hot end temp
G28 ; home all axes
;G29 ; probe ABL
;M420 S1 ; restore ABL mesh 
; custom start gcode
G28 ;Home
G1 Z15.0 F6000 ;Move the platform down 15mm
;Prime the extruder
M117 Purging extruder...
G92 E0     ; reset extruder
G1 Z1.0 F3000    ; move z up little to prevent scratching of surface
G1 X0.0 Y20 Z0.3 F5000.0  ; move to start-line position
G1 X0.0 Y100.0 Z0.3 F500.0 E15  ; draw 1st line
G1 X0.4 Y100.0 Z0.3 F5000.0  ; move to side a little
G1 X0.4 Y20 Z0.3 F500.0 E30  ; draw 2nd line
G92 E0     ; reset extruder
G1 Z1.0 F3000    ; move z up little to prevent scratching of surface
M117 Printing...
G0 Z3; fix for delta printers that home at max
;process Process-1
;layer 1, Z = 0.200
T0
G92 E0.0000
G1 E-5 F3000 ; custom retraction
;fan1;
G1 Z0.200 F1200
G1 X66.3780 Y87.5720 F3000 ; custom feedrate
G1 E0 F3000 ; custom un-retraction/prime
G92 E0.0000
G1 X67.4300 Y87.1360 E0.0491 F900 ; custom feedrate
G1 X122.5700 Y87.1360 E2.4259
G1 X123.6220 Y87.5720 E2.4750
G1 X127.4280 Y91.3780 E2.7070
G1 X127.8640 Y92.4300 E2.7561
G1 X127.8640 Y97.5700 E2.9777
G1 X127.4280 Y98.6220 E3.0268
G1 X123.6220 Y102.4280 E3.2588
G1 X122.5700 Y102.8640 E3.3079
G1 X67.4300 Y102.8640 E5.6847
G1 X66.3780 Y102.4280 E5.7338
G1 X62.5720 Y98.6220 E5.9658
G1 X62.1360 Y97.5700 E6.0149
G1 X62.1360 Y92.4300 E6.2364
G1 X62.5720 Y91.3780 E6.2855
G1 X66.3780 Y87.5720 E6.5175
G92 E0.0000
G1 E-5 F3000 ; custom retraction
;zhop1
G1 X66.7040 Y88.0600 F3000 ; custom feedrate
G1 Z0.200 F1200
G1 E0 F3000 ; custom un-retraction/prime
G92 E0.0000
G1 X67.5450 Y87.7120 E0.0392 F900 ; custom feedrate
G1 X122.4550 Y87.7120 E2.4061
G1 X123.2960 Y88.0600 E2.4454
G1 X126.9400 Y91.7040 E2.6675
G1 X127.2880 Y92.5450 E2.7067
G1 X127.2880 Y97.4550 E2.9184
G1 X126.9400 Y98.2960 E2.9576
G1 X123.2960 Y101.9400 E3.1797
G1 X122.4550 Y102.2880 E3.2190
G1 X67.5450 Y102.2880 E5.5859
G1 X66.7040 Y101.9400 E5.6251
G1 X63.0600 Y98.2960 E5.8472
G1 X62.7120 Y97.4550 E5.8865
G1 X62.7120 Y92.5450 E6.0981
G1 X63.0600 Y91.7040 E6.1374
G1 X66.7040 Y88.0600 E6.3595
G92 E0.0000
G1 E-5 F3000 ; custom retraction
;zhop1
G1 X68.1190 Y90.2880 F3000 ; custom feedrate
G1 X68.0120 Y90.3960
G1 X68.5960 Y91.4400
G1 Z0.200 F1200
G1 E0 F3000 ; custom un-retraction/prime
G92 E0.0000
G1 X121.4040 Y91.4400 E2.2763 F720 ; custom feedrate
G1 X123.5600 Y93.5960 E2.4077
G1 X123.5600 Y96.4040 E2.5287
G1 X121.4040 Y98.5600 E2.6602
G1 X68.5960 Y98.5600 E4.9364
G1 X66.4400 Y96.4040 E5.0679
G1 X66.4400 Y93.5960 E5.1889
G1 X68.5960 Y91.4400 E5.3203
G1 X68.3580 Y90.8640 F3000 ; custom feedrate
G92 E0.0000
G1 X121.6420 Y90.8640 E2.2968 F720 ; custom feedrate
G1 X124.1360 Y93.3580 E2.4489
G1 X124.1360 Y96.6420 E2.5904
G1 X121.6420 Y99.1360 E2.7424
G1 X68.3580 Y99.1360 E5.0393
G1 X65.8640 Y96.6420 E5.1913
G1 X65.8640 Y93.3580 E5.3329
G1 X68.3580 Y90.8640 E5.4849
G1 X68.1190 Y90.2880 F3000 ; custom feedrate
G92 E0.0000
G1 X121.8810 Y90.2880 E2.3174 F540 ; custom feedrate
G1 X124.7120 Y93.1190 E2.4900
G1 X124.7120 Y96.8810 E2.6521
G1 X121.8810 Y99.7120 E2.8247
G1 X68.1190 Y99.7120 E5.1421
G1 X65.2880 Y96.8810 E5.3147
G1 X65.2880 Y93.1190 E5.4768
G1 X68.1190 Y90.2880 E5.6494
G1 X68.8890 Y98.2140 F3000 ; custom feedrate
G92 E0.0000
G1 X66.7860 Y96.1110 E0.1282 F720 ; custom feedrate
G1 X66.7860 Y95.2960 E0.1634
G1 X69.7040 Y98.2140 E0.3413
G1 X70.5180 Y98.2140 E0.3764
G1 X66.7860 Y94.4820 E0.6039
G1 X66.7860 Y93.7400 E0.6359
G1 X66.8220 Y93.7030 E0.6381
G1 X71.3330 Y98.2140 E0.9131
G1 X72.1480 Y98.2140 E0.9482
G1 X67.2290 Y93.2960 E1.2480
G1 X67.6370 Y92.8890 E1.2729
G1 X72.9620 Y98.2140 E1.5975
G1 X73.7770 Y98.2140 E1.6326
G1 X68.0440 Y92.4810 E1.9821
G1 X68.4510 Y92.0740 E2.0070
G1 X74.5910 Y98.2140 E2.3813
G1 X75.4060 Y98.2140 E2.4164
G1 X68.9770 Y91.7860 E2.8083
G1 X69.7920 Y91.7860 E2.8434
G1 X76.2210 Y98.2140 E3.2353
G1 X77.0350 Y98.2140 E3.2704
G1 X70.6060 Y91.7860 E3.6623
G1 X71.4210 Y91.7860 E3.6974
G1 X77.8500 Y98.2140 E4.0893
G1 X78.6640 Y98.2140 E4.1244
G1 X72.2360 Y91.7860 E4.5163
G1 X73.0500 Y91.7860 E4.5514
G1 X79.4790 Y98.2140 E4.9433
G1 X80.2930 Y98.2140 E4.9784
G1 X73.8650 Y91.7860 E5.3703
G1 X74.6790 Y91.7860 E5.4055
G1 X81.1080 Y98.2140 E5.7974
G1 X81.9230 Y98.2140 E5.8325
G1 X75.4940 Y91.7860 E6.2244
G1 X76.3080 Y91.7860 E6.2595
G1 X82.7370 Y98.2140 E6.6514
G1 X83.5520 Y98.2140 E6.6865
G1 X77.1230 Y91.7860 E7.0784
G1 X77.9380 Y91.7860 E7.1135
G1 X84.3660 Y98.2140 E7.5054
G1 X85.1810 Y98.2140 E7.5405
G1 X78.7520 Y91.7860 E7.9324
G1 X79.5670 Y91.7860 E7.9675
G1 X85.9960 Y98.2140 E8.3594
G1 X86.8100 Y98.2140 E8.3945
G1 X80.3810 Y91.7860 E8.7864
G1 X81.1960 Y91.7860 E8.8216
G1 X87.6250 Y98.2140 E9.2135
G1 X88.4390 Y98.2140 E9.2486
G1 X82.0110 Y91.7860 E9.6405
G1 X82.8250 Y91.7860 E9.6756
G1 X89.2540 Y98.2140 E10.0675
G1 X90.0690 Y98.2140 E10.1026
G1 X83.6400 Y91.7860 E10.4945
G1 X84.4540 Y91.7860 E10.5296
G1 X90.8830 Y98.2140 E10.9215
G1 X91.6980 Y98.2140 E10.9566
G1 X85.2690 Y91.7860 E11.3485
G1 X86.0840 Y91.7860 E11.3836
G1 X92.5120 Y98.2140 E11.7755
G1 X93.3270 Y98.2140 E11.8106
G1 X86.8980 Y91.7860 E12.2025
G1 X87.7130 Y91.7860 E12.2376
G1 X94.1410 Y98.2140 E12.6295
G1 X94.9560 Y98.2140 E12.6647
G1 X88.5270 Y91.7860 E13.0566
G1 X89.3420 Y91.7860 E13.0917
G1 X95.7710 Y98.2140 E13.4836
G1 X96.5850 Y98.2140 E13.5187
G1 X90.1560 Y91.7860 E13.9106
G1 X90.9710 Y91.7860 E13.9457
G1 X97.4000 Y98.2140 E14.3376
G1 X98.2140 Y98.2140 E14.3727
G1 X91.7860 Y91.7860 E14.7646
G1 X92.6000 Y91.7860 E14.7997
G1 X99.0290 Y98.2140 E15.1916
G1 X99.8440 Y98.2140 E15.2267
G1 X93.4150 Y91.7860 E15.6186
G1 X94.2290 Y91.7860 E15.6537
G1 X100.6580 Y98.2140 E16.0456
G1 X101.4730 Y98.2140 E16.0808
G1 X95.0440 Y91.7860 E16.4727
G1 X95.8590 Y91.7860 E16.5078
G1 X102.2870 Y98.2140 E16.8997
G1 X103.1020 Y98.2140 E16.9348
G1 X96.6730 Y91.7860 E17.3267
G1 X97.4880 Y91.7860 E17.3618
G1 X103.9170 Y98.2140 E17.7537
G1 X104.7310 Y98.2140 E17.7888
G1 X98.3020 Y91.7860 E18.1807
G1 X99.1170 Y91.7860 E18.2158
G1 X105.5460 Y98.2140 E18.6077
G1 X106.3600 Y98.2140 E18.6428
G1 X99.9310 Y91.7860 E19.0347
G1 X100.7460 Y91.7860 E19.0698
G1 X107.1750 Y98.2140 E19.4617
G1 X107.9890 Y98.2140 E19.4968
G1 X101.5610 Y91.7860 E19.8887
G1 X102.3750 Y91.7860 E19.9239
G1 X108.8040 Y98.2140 E20.3158
G1 X109.6190 Y98.2140 E20.3509
G1 X103.1900 Y91.7860 E20.7428
G1 X104.0040 Y91.7860 E20.7779
G1 X110.4330 Y98.2140 E21.1698
G1 X111.2480 Y98.2140 E21.2049
G1 X104.8190 Y91.7860 E21.5968
G1 X105.6340 Y91.7860 E21.6319
G1 X112.0620 Y98.2140 E22.0238
G1 X112.8770 Y98.2140 E22.0589
G1 X106.4480 Y91.7860 E22.4508
G1 X107.2630 Y91.7860 E22.4859
G1 X113.6920 Y98.2140 E22.8778
G1 X114.5060 Y98.2140 E22.9129
G1 X108.0770 Y91.7860 E23.3048
G1 X108.8920 Y91.7860 E23.3399
G1 X115.3210 Y98.2140 E23.7318
G1 X116.1350 Y98.2140 E23.7670
G1 X109.7070 Y91.7860 E24.1589
G1 X110.5210 Y91.7860 E24.1940
G1 X116.9500 Y98.2140 E24.5859
G1 X117.7650 Y98.2140 E24.6210
G1 X111.3360 Y91.7860 E25.0129
G1 X112.1500 Y91.7860 E25.0480
G1 X118.5790 Y98.2140 E25.4399
G1 X119.3940 Y98.2140 E25.4750
G1 X112.9650 Y91.7860 E25.8669
G1 X113.7790 Y91.7860 E25.9020
G1 X120.2080 Y98.2140 E26.2939
G1 X121.0230 Y98.2140 E26.3290
G1 X114.5940 Y91.7860 E26.7209
G1 X115.4090 Y91.7860 E26.7560
G1 X121.5490 Y97.9260 E27.1304
G1 X121.9560 Y97.5190 E27.1552
G1 X116.2230 Y91.7860 E27.5047
G1 X117.0380 Y91.7860 E27.5398
G1 X122.3630 Y97.1110 E27.8644
G1 X122.7710 Y96.7040 E27.8893
G1 X117.8520 Y91.7860 E28.1891
G1 X118.6670 Y91.7860 E28.2242
G1 X123.1780 Y96.2970 E28.4992
G1 X123.2140 Y96.2600 E28.5014
G1 X123.2140 Y95.5180 E28.5334
G1 X119.4820 Y91.7860 E28.7609
G1 X120.2960 Y91.7860 E28.7961
G1 X123.2140 Y94.7040 E28.9739
G1 X123.2140 Y93.8890 E29.0091
G1 X121.1110 Y91.7860 E29.1373
G92 E0.0000
G1 E-5 F3000 ; custom retraction
M104 S195 T0 ; custom hot end temp - A
M106 S255; custom fan 100% from layer 2
G1 Z0.400 F1200
G1 X121.5030 Y91.2000 F3000 ; custom feedrate
G1 E0 F3000 ; custom un-retraction/prime
G92 E0.0000
G1 X123.8000 Y93.4970 E0.1167 F1440 ; custom feedrate
G1 X123.8000 Y96.5030 E0.2247
G1 X121.5030 Y98.8000 E0.3414
G1 X68.4970 Y98.8000 E2.2454
G1 X66.2000 Y96.5030 E2.3621
G1 X66.2000 Y93.4970 E2.4700
G1 X68.4970 Y91.2000 E2.5867
G1 X121.5030 Y91.2000 E4.4908
G1 X121.7020 Y90.7200 F3000 ; custom feedrate
G92 E0.0000
G1 X124.2800 Y93.2980 E0.1310 F1440 ; custom feedrate
G1 X124.2800 Y96.7020 E0.2532
G1 X121.7020 Y99.2800 E0.3842
G1 X68.2980 Y99.2800 E2.3025
G1 X65.7200 Y96.7020 E2.4335
G1 X65.7200 Y93.2980 E2.5557
G1 X68.2980 Y90.7200 E2.6867
G1 X121.7020 Y90.7200 E4.6050
G1 X121.9010 Y90.2400 F3000 ; custom feedrate
G92 E0.0000
G1 X124.7600 Y93.0990 E0.1453 F1080 ; custom feedrate
G1 X124.7600 Y96.9010 E0.2818
G1 X121.9010 Y99.7600 E0.4271
G1 X68.0990 Y99.7600 E2.3596
G1 X65.2400 Y96.9010 E2.5049
G1 X65.2400 Y93.0990 E2.6414
G1 X68.0990 Y90.2400 E2.7867
G1 X121.9010 Y90.2400 E4.7193
G1 X123.5120 Y96.3560 F3000 ; custom feedrate
G92 E0.0000
G1 X121.3560 Y98.5120 E0.1095 F1440 ; custom feedrate
G1 X120.6770 Y98.5120 E0.1339
G1 X123.5120 Y95.6770 E0.2779
G1 X123.5120 Y94.9990 E0.3023
G1 X119.9990 Y98.5120 E0.4808
G1 X119.3200 Y98.5120 E0.5051
G1 X123.5120 Y94.3200 E0.7181
G1 X123.5120 Y93.6410 E0.7425
G1 X118.6410 Y98.5120 E0.9899
G1 X117.9620 Y98.5120 E1.0143
G1 X123.1850 Y93.2890 E1.2796
G1 X122.8450 Y92.9500 E1.2969
G1 X117.2830 Y98.5120 E1.5794
G1 X116.6040 Y98.5120 E1.6038
G1 X122.5060 Y92.6100 E1.9036
G1 X122.1670 Y92.2710 E1.9209
G1 X115.9260 Y98.5120 E2.2379
G1 X115.2470 Y98.5120 E2.2623
G1 X121.8270 Y91.9320 E2.5966
G1 X121.4880 Y91.5920 E2.6138
G1 X114.5680 Y98.5120 E2.9653
G1 X113.8890 Y98.5120 E2.9897
G1 X120.9130 Y91.4880 E3.3465
G1 X120.2340 Y91.4880 E3.3709
G1 X113.2100 Y98.5120 E3.7278
G1 X112.5320 Y98.5120 E3.7521
G1 X119.5560 Y91.4880 E4.1090
G1 X118.8770 Y91.4880 E4.1333
G1 X111.8530 Y98.5120 E4.4902
G1 X111.1740 Y98.5120 E4.5145
G1 X118.1980 Y91.4880 E4.8714
G1 X117.5190 Y91.4880 E4.8957
G1 X110.4950 Y98.5120 E5.2526
G1 X109.8160 Y98.5120 E5.2769
G1 X116.8400 Y91.4880 E5.6338
G1 X116.1610 Y91.4880 E5.6581
G1 X109.1370 Y98.5120 E6.0150
G1 X108.4590 Y98.5120 E6.0393
G1 X115.4830 Y91.4880 E6.3962
G1 X114.8040 Y91.4880 E6.4206
G1 X107.7800 Y98.5120 E6.7774
G1 X107.1010 Y98.5120 E6.8018
G1 X114.1250 Y91.4880 E7.1586
G1 X113.4460 Y91.4880 E7.1830
G1 X106.4220 Y98.5120 E7.5398
G1 X105.7430 Y98.5120 E7.5642
G1 X112.7670 Y91.4880 E7.9210
G1 X112.0880 Y91.4880 E7.9454
G1 X105.0640 Y98.5120 E8.3022
G1 X104.3860 Y98.5120 E8.3266
G1 X111.4100 Y91.4880 E8.6834
G1 X110.7310 Y91.4880 E8.7078
G1 X103.7070 Y98.5120 E9.0646
G1 X103.0280 Y98.5120 E9.0890
G1 X110.0520 Y91.4880 E9.4458
G1 X109.3730 Y91.4880 E9.4702
G1 X102.3490 Y98.5120 E9.8270
G1 X101.6700 Y98.5120 E9.8514
G1 X108.6940 Y91.4880 E10.2082
G1 X108.0160 Y91.4880 E10.2326
G1 X100.9920 Y98.5120 E10.5894
G1 X100.3130 Y98.5120 E10.6138
G1 X107.3370 Y91.4880 E10.9706
G1 X106.6580 Y91.4880 E10.9950
G1 X99.6340 Y98.5120 E11.3518
G1 X98.9550 Y98.5120 E11.3762
G1 X105.9790 Y91.4880 E11.7330
G1 X105.3000 Y91.4880 E11.7574
G1 X98.2760 Y98.5120 E12.1142
G1 X97.5970 Y98.5120 E12.1386
G1 X104.6210 Y91.4880 E12.4954
G1 X103.9430 Y91.4880 E12.5198
G1 X96.9190 Y98.5120 E12.8766
G1 X96.2400 Y98.5120 E12.9010
G1 X103.2640 Y91.4880 E13.2578
G1 X102.5850 Y91.4880 E13.2822
G1 X95.5610 Y98.5120 E13.6390
G1 X94.8820 Y98.5120 E13.6634
G1 X101.9060 Y91.4880 E14.0202
G1 X101.2270 Y91.4880 E14.0446
G1 X94.2030 Y98.5120 E14.4014
G1 X93.5250 Y98.5120 E14.4258
G1 X100.5490 Y91.4880 E14.7826
G1 X99.8700 Y91.4880 E14.8070
G1 X92.8460 Y98.5120 E15.1638
G1 X92.1670 Y98.5120 E15.1882
G1 X99.1910 Y91.4880 E15.5450
G1 X98.5120 Y91.4880 E15.5694
G1 X91.4880 Y98.5120 E15.9262
G1 X90.8090 Y98.5120 E15.9506
G1 X97.8330 Y91.4880 E16.3074
G1 X97.1540 Y91.4880 E16.3318
G1 X90.1300 Y98.5120 E16.6886
G1 X89.4520 Y98.5120 E16.7130
G1 X96.4760 Y91.4880 E17.0698
G1 X95.7970 Y91.4880 E17.0942
G1 X88.7730 Y98.5120 E17.4510
G1 X88.0940 Y98.5120 E17.4754
G1 X95.1180 Y91.4880 E17.8322
G1 X94.4390 Y91.4880 E17.8566
G1 X87.4150 Y98.5120 E18.2134
G1 X86.7360 Y98.5120 E18.2378
G1 X93.7600 Y91.4880 E18.5946
G1 X93.0810 Y91.4880 E18.6190
G1 X86.0570 Y98.5120 E18.9758
G1 X85.3790 Y98.5120 E19.0002
G1 X92.4030 Y91.4880 E19.3570
G1 X91.7240 Y91.4880 E19.3814
G1 X84.7000 Y98.5120 E19.7383
G1 X84.0210 Y98.5120 E19.7626
G1 X91.0450 Y91.4880 E20.1195
G1 X90.3660 Y91.4880 E20.1438
G1 X83.3420 Y98.5120 E20.5007
G1 X82.6630 Y98.5120 E20.5250
G1 X89.6870 Y91.4880 E20.8819
G1 X89.0090 Y91.4880 E20.9062
G1 X81.9850 Y98.5120 E21.2631
G1 X81.3060 Y98.5120 E21.2874
G1 X88.3300 Y91.4880 E21.6443
G1 X87.6510 Y91.4880 E21.6686
G1 X80.6270 Y98.5120 E22.0255
G1 X79.9480 Y98.5120 E22.0498
G1 X86.9720 Y91.4880 E22.4067
G1 X86.2930 Y91.4880 E22.4311
G1 X79.2690 Y98.5120 E22.7879
G1 X78.5900 Y98.5120 E22.8123
G1 X85.6140 Y91.4880 E23.1691
G1 X84.9360 Y91.4880 E23.1935
G1 X77.9120 Y98.5120 E23.5503
G1 X77.2330 Y98.5120 E23.5747
G1 X84.2570 Y91.4880 E23.9315
G1 X83.5780 Y91.4880 E23.9559
G1 X76.5540 Y98.5120 E24.3127
G1 X75.8750 Y98.5120 E24.3371
G1 X82.8990 Y91.4880 E24.6939
G1 X82.2200 Y91.4880 E24.7183
G1 X75.1960 Y98.5120 E25.0751
G1 X74.5170 Y98.5120 E25.0995
G1 X81.5410 Y91.4880 E25.4563
G1 X80.8630 Y91.4880 E25.4807
G1 X73.8390 Y98.5120 E25.8375
G1 X73.1600 Y98.5120 E25.8619
G1 X80.1840 Y91.4880 E26.2187
G1 X79.5050 Y91.4880 E26.2431
G1 X72.4810 Y98.5120 E26.5999
G1 X71.8020 Y98.5120 E26.6243
G1 X78.8260 Y91.4880 E26.9811
G1 X78.1470 Y91.4880 E27.0055
G1 X71.1230 Y98.5120 E27.3623
G1 X70.4450 Y98.5120 E27.3867
G1 X77.4690 Y91.4880 E27.7435
G1 X76.7900 Y91.4880 E27.7679
G1 X69.7660 Y98.5120 E28.1247
G1 X69.0870 Y98.5120 E28.1491
G1 X76.1110 Y91.4880 E28.5059
G1 X75.4320 Y91.4880 E28.5303
G1 X68.5120 Y98.4080 E28.8818
G1 X68.1730 Y98.0680 E28.8991
G1 X74.7530 Y91.4880 E29.2333
G1 X74.0740 Y91.4880 E29.2577
G1 X67.8330 Y97.7290 E29.5748
G1 X67.4940 Y97.3900 E29.5920
G1 X73.3960 Y91.4880 E29.8918
G1 X72.7170 Y91.4880 E29.9162
G1 X67.1550 Y97.0500 E30.1988
G1 X66.8150 Y96.7110 E30.2160
G1 X72.0380 Y91.4880 E30.4813
G1 X71.3590 Y91.4880 E30.5057
G1 X66.4880 Y96.3590 E30.7532
G1 X66.4880 Y95.6800 E30.7775
G1 X70.6800 Y91.4880 E30.9905
G1 X70.0010 Y91.4880 E31.0149
G1 X66.4880 Y95.0010 E31.1934
G1 X66.4880 Y94.3230 E31.2178
G1 X69.3230 Y91.4880 E31.3618
G1 X68.6440 Y91.4880 E31.3861
G1 X66.4880 Y93.6440 E31.4957
G92 E0.0000
G1 E-5 F3000 ; custom retraction
;layer 3, Z = 0.600
;fan3;
G1 Z0.600 F1200
G1 X66.2000 Y93.4970 F3000 ; custom feedrate
G1 E0 F3000 ; custom un-retraction/prime
G92 E0.0000
G1 X68.4970 Y91.2000 E0.1167 F1440 ; custom feedrate
G1 X121.5030 Y91.2000 E2.0207
G1 X123.8000 Y93.4970 E2.1374
G1 X123.8000 Y96.5030 E2.2454
G1 X121.5030 Y98.8000 E2.3621
G1 X68.4970 Y98.8000 E4.2661
G1 X66.2000 Y96.5030 E4.3828
G1 X66.2000 Y93.4970 E4.4908
G1 X65.7200 Y93.2980 F3000 ; custom feedrate
G92 E0.0000
G1 X68.2980 Y90.7200 E0.1310 F1440 ; custom feedrate
G1 X121.7020 Y90.7200 E2.0493
G1 X124.2800 Y93.2980 E2.1803
G1 X124.2800 Y96.7020 E2.3025
G1 X121.7020 Y99.2800 E2.4335
G1 X68.2980 Y99.2800 E4.3518
G1 X65.7200 Y96.7020 E4.4828
G1 X65.7200 Y93.2980 E4.6050
G1 X65.2400 Y93.0990 F3000 ; custom feedrate
G92 E0.0000
G1 X68.0990 Y90.2400 E0.1453 F1080 ; custom feedrate
G1 X121.9010 Y90.2400 E2.0778
G1 X124.7600 Y93.0990 E2.2231
G1 X124.7600 Y96.9010 E2.3596
G1 X121.9010 Y99.7600 E2.5049
G1 X68.0990 Y99.7600 E4.4375
G1 X65.2400 Y96.9010 E4.5828
G1 X65.2400 Y93.0990 E4.7193
G1 X68.6440 Y98.5120 F3000 ; custom feedrate
G92 E0.0000
G1 X66.4880 Y96.3560 E0.1095 F1440 ; custom feedrate
G1 X66.4880 Y95.6770 E0.1339
G1 X69.3230 Y98.5120 E0.2779
G1 X70.0010 Y98.5120 E0.3023
G1 X66.4880 Y94.9990 E0.4808
G1 X66.4880 Y94.3200 E0.5052
G1 X70.6800 Y98.5120 E0.7181
G1 X71.3590 Y98.5120 E0.7425
G1 X66.4880 Y93.6410 E0.9900
G1 X66.4880 Y93.6160 E0.9908
G1 X66.8150 Y93.2890 E1.0075
G1 X72.0380 Y98.5120 E1.2728
G1 X72.7170 Y98.5120 E1.2972
G1 X67.1550 Y92.9500 E1.5797
G1 X67.4940 Y92.6100 E1.5970
G1 X73.3960 Y98.5120 E1.8968
G1 X74.0740 Y98.5120 E1.9211
G1 X67.8330 Y92.2710 E2.2382
G1 X68.1730 Y91.9320 E2.2554
G1 X74.7530 Y98.5120 E2.5897
G1 X75.4320 Y98.5120 E2.6141
G1 X68.5120 Y91.5920 E2.9656
G1 X68.6160 Y91.4880 E2.9709
G1 X69.0870 Y91.4880 E2.9878
G1 X76.1110 Y98.5120 E3.3446
G1 X76.7900 Y98.5120 E3.3690
G1 X69.7660 Y91.4880 E3.7258
G1 X70.4450 Y91.4880 E3.7502
G1 X77.4690 Y98.5120 E4.1070
G1 X78.1470 Y98.5120 E4.1314
G1 X71.1230 Y91.4880 E4.4882
G1 X71.8020 Y91.4880 E4.5126
G1 X78.8260 Y98.5120 E4.8694
G1 X79.5050 Y98.5120 E4.8938
G1 X72.4810 Y91.4880 E5.2506
G1 X73.1600 Y91.4880 E5.2750
G1 X80.1840 Y98.5120 E5.6318
G1 X80.8630 Y98.5120 E5.6562
G1 X73.8390 Y91.4880 E6.0131
G1 X74.5170 Y91.4880 E6.0374
G1 X81.5410 Y98.5120 E6.3943
G1 X82.2200 Y98.5120 E6.4186
G1 X75.1960 Y91.4880 E6.7755
G1 X75.8750 Y91.4880 E6.7998
G1 X82.8990 Y98.5120 E7.1567
G1 X83.5780 Y98.5120 E7.1810
G1 X76.5540 Y91.4880 E7.5379
G1 X77.2330 Y91.4880 E7.5622
G1 X84.2570 Y98.5120 E7.9191
G1 X84.9360 Y98.5120 E7.9434
G1 X77.9120 Y91.4880 E8.3003
G1 X78.5900 Y91.4880 E8.3246
G1 X85.6140 Y98.5120 E8.6815
G1 X86.2930 Y98.5120 E8.7059
G1 X79.2690 Y91.4880 E9.0627
G1 X79.9480 Y91.4880 E9.0871
G1 X86.9720 Y98.5120 E9.4439
G1 X87.6510 Y98.5120 E9.4683
G1 X80.6270 Y91.4880 E9.8251
G1 X81.3060 Y91.4880 E9.8495
G1 X88.3300 Y98.5120 E10.2063
G1 X89.0080 Y98.5120 E10.2307
G1 X81.9840 Y91.4880 E10.5875
G1 X82.6630 Y91.4880 E10.6119
G1 X89.6870 Y98.5120 E10.9687
G1 X90.3660 Y98.5120 E10.9931
G1 X83.3420 Y91.4880 E11.3499
G1 X84.0210 Y91.4880 E11.3743
G1 X91.0450 Y98.5120 E11.7311
G1 X91.7240 Y98.5120 E11.7555
G1 X84.7000 Y91.4880 E12.1123
G1 X85.3790 Y91.4880 E12.1367
G1 X92.4030 Y98.5120 E12.4935
G1 X93.0810 Y98.5120 E12.5179
G1 X86.0570 Y91.4880 E12.8747
G1 X86.7360 Y91.4880 E12.8991
G1 X93.7600 Y98.5120 E13.2559
G1 X94.4390 Y98.5120 E13.2803
G1 X87.4150 Y91.4880 E13.6371
G1 X88.0940 Y91.4880 E13.6615
G1 X95.1180 Y98.5120 E14.0183
G1 X95.7970 Y98.5120 E14.0427
G1 X88.7730 Y91.4880 E14.3995
G1 X89.4520 Y91.4880 E14.4239
G1 X96.4760 Y98.5120 E14.7807
G1 X97.1540 Y98.5120 E14.8051
G1 X90.1300 Y91.4880 E15.1619
G1 X90.8090 Y91.4880 E15.1863
G1 X97.8330 Y98.5120 E15.5431
G1 X98.5120 Y98.5120 E15.5675
G1 X91.4880 Y91.4880 E15.9243
G1 X92.1670 Y91.4880 E15.9487
G1 X99.1910 Y98.5120 E16.3055
G1 X99.8700 Y98.5120 E16.3299
G1 X92.8460 Y91.4880 E16.6867
G1 X93.5240 Y91.4880 E16.7111
G1 X100.5480 Y98.5120 E17.0679
G1 X101.2270 Y98.5120 E17.0923
G1 X94.2030 Y91.4880 E17.4491
G1 X94.8820 Y91.4880 E17.4735
G1 X101.9060 Y98.5120 E17.8303
G1 X102.5850 Y98.5120 E17.8547
G1 X95.5610 Y91.4880 E18.2115
G1 X96.2400 Y91.4880 E18.2359
G1 X103.2640 Y98.5120 E18.5927
G1 X103.9430 Y98.5120 E18.6171
G1 X96.9190 Y91.4880 E18.9739
G1 X97.5970 Y91.4880 E18.9983
G1 X104.6210 Y98.5120 E19.3551
G1 X105.3000 Y98.5120 E19.3795
G1 X98.2760 Y91.4880 E19.7363
G1 X98.9550 Y91.4880 E19.7607
G1 X105.9790 Y98.5120 E20.1175
G1 X106.6580 Y98.5120 E20.1419
G1 X99.6340 Y91.4880 E20.4987
G1 X100.3130 Y91.4880 E20.5231
G1 X107.3370 Y98.5120 E20.8799
G1 X108.0160 Y98.5120 E20.9043
G1 X100.9920 Y91.4880 E21.2611
G1 X101.6700 Y91.4880 E21.2855
G1 X108.6940 Y98.5120 E21.6423
G1 X109.3730 Y98.5120 E21.6667
G1 X102.3490 Y91.4880 E22.0236
G1 X103.0280 Y91.4880 E22.0479
G1 X110.0520 Y98.5120 E22.4048
G1 X110.7310 Y98.5120 E22.4291
G1 X103.7070 Y91.4880 E22.7860
G1 X104.3860 Y91.4880 E22.8103
G1 X111.4100 Y98.5120 E23.1672
G1 X112.0880 Y98.5120 E23.1915
G1 X105.0640 Y91.4880 E23.5484
G1 X105.7430 Y91.4880 E23.5727
G1 X112.7670 Y98.5120 E23.9296
G1 X113.4460 Y98.5120 E23.9539
G1 X106.4220 Y91.4880 E24.3108
G1 X107.1010 Y91.4880 E24.3351
G1 X114.1250 Y98.5120 E24.6920
G1 X114.8040 Y98.5120 E24.7164
G1 X107.7800 Y91.4880 E25.0732
G1 X108.4590 Y91.4880 E25.0976
G1 X115.4830 Y98.5120 E25.4544
G1 X116.1610 Y98.5120 E25.4788
G1 X109.1370 Y91.4880 E25.8356
G1 X109.8160 Y91.4880 E25.8600
G1 X116.8400 Y98.5120 E26.2168
G1 X117.5190 Y98.5120 E26.2412
G1 X110.4950 Y91.4880 E26.5980
G1 X111.1740 Y91.4880 E26.6224
G1 X118.1980 Y98.5120 E26.9792
G1 X118.8770 Y98.5120 E27.0036
G1 X111.8530 Y91.4880 E27.3604
G1 X112.5320 Y91.4880 E27.3848
G1 X119.5560 Y98.5120 E27.7416
G1 X120.2340 Y98.5120 E27.7660
G1 X113.2100 Y91.4880 E28.1228
G1 X113.8890 Y91.4880 E28.1472
G1 X120.9130 Y98.5120 E28.5040
G1 X121.3840 Y98.5120 E28.5209
G1 X121.4880 Y98.4080 E28.5262
G1 X114.5680 Y91.4880 E28.8777
G1 X115.2470 Y91.4880 E28.9021
G1 X121.8270 Y98.0680 E29.2364
G1 X122.1670 Y97.7290 E29.2536
G1 X115.9260 Y91.4880 E29.5707
G1 X116.6040 Y91.4880 E29.5950
G1 X122.5060 Y97.3900 E29.8948
G1 X122.8450 Y97.0500 E29.9121
G1 X117.2830 Y91.4880 E30.1946
G1 X117.9620 Y91.4880 E30.2190
G1 X123.1850 Y96.7110 E30.4843
G1 X123.5120 Y96.3840 E30.5010
G1 X123.5120 Y96.3590 E30.5018
G1 X118.6410 Y91.4880 E30.7493
G1 X119.3200 Y91.4880 E30.7737
G1 X123.5120 Y95.6800 E30.9866
G1 X123.5120 Y95.0010 E31.0110
G1 X119.9990 Y91.4880 E31.1895
G1 X120.6770 Y91.4880 E31.2139
G1 X123.5120 Y94.3230 E31.3579
G1 X123.5120 Y93.6440 E31.3823
G1 X121.3560 Y91.4880 E31.4918
G92 E0.0000
G1 E-5 F3000 ; custom retraction
;layer 4, Z = 0.800
;fan4;
G1 Z0.800 F1200
G1 X121.5030 Y91.2000 F3000 ; custom feedrate
G1 E0 F3000 ; custom un-retraction/prime
G92 E0.0000
G1 X123.8000 Y93.4970 E0.1167 F1440 ; custom feedrate
G1 X123.8000 Y96.5030 E0.2247
G1 X121.5030 Y98.8000 E0.3414
G1 X68.4970 Y98.8000 E2.2454
G1 X66.2000 Y96.5030 E2.3621
G1 X66.2000 Y93.4970 E2.4700
G1 X68.4970 Y91.2000 E2.5867
G1 X121.5030 Y91.2000 E4.4908
G1 X121.7020 Y90.7200 F3000 ; custom feedrate
G92 E0.0000
G1 X124.2800 Y93.2980 E0.1310 F1440 ; custom feedrate
G1 X124.2800 Y96.7020 E0.2532
G1 X121.7020 Y99.2800 E0.3842
G1 X68.2980 Y99.2800 E2.3025
G1 X65.7200 Y96.7020 E2.4335
G1 X65.7200 Y93.2980 E2.5557
G1 X68.2980 Y90.7200 E2.6867
G1 X121.7020 Y90.7200 E4.6050
G1 X121.9010 Y90.2400 F3000 ; custom feedrate
G92 E0.0000
G1 X124.7600 Y93.0990 E0.1453 F1080 ; custom feedrate
G1 X124.7600 Y96.9010 E0.2818
G1 X121.9010 Y99.7600 E0.4271
G1 X68.0990 Y99.7600 E2.3596
G1 X65.2400 Y96.9010 E2.5049
G1 X65.2400 Y93.0990 E2.6414
G1 X68.0990 Y90.2400 E2.7867
G1 X121.9010 Y90.2400 E4.7193
G1 X121.5920 Y96.2400 F3000 ; custom feedrate
G92 E0.0000
G1 X123.5120 Y94.3200 E0.0975 F1440 ; custom feedrate
G1 X123.5120 Y93.6410 E0.1219
G1 X121.5920 Y95.5610 E0.2195
G1 X121.5920 Y94.8820 E0.2438
G1 X123.1850 Y93.2890 E0.3248
G1 X122.8450 Y92.9500 E0.3420
G1 X121.5920 Y94.2030 E0.4057
G1 X121.5920 Y93.5240 E0.4301
G1 X122.5060 Y92.6100 E0.4765
G1 X122.1670 Y92.2710 E0.4937
G1 X121.0300 Y93.4080 E0.5515
G1 X120.3510 Y93.4080 E0.5759
G1 X121.8270 Y91.9320 E0.6509
G1 X121.4880 Y91.5920 E0.6681
G1 X119.6720 Y93.4080 E0.7604
G1 X118.9930 Y93.4080 E0.7847
G1 X120.9130 Y91.4880 E0.8823
G1 X120.2340 Y91.4880 E0.9067
G1 X118.3140 Y93.4080 E1.0042
G1 X117.6360 Y93.4080 E1.0286
G1 X119.5560 Y91.4880 E1.1261
G1 X118.8770 Y91.4880 E1.1505
G1 X116.9570 Y93.4080 E1.2480
G1 X116.2780 Y93.4080 E1.2724
G1 X118.1980 Y91.4880 E1.3700
G1 X117.5190 Y91.4880 E1.3943
G1 X115.5990 Y93.4080 E1.4919
G1 X123.5120 Y96.3560 F3000 ; custom feedrate
G92 E0.0000
G1 X121.3560 Y98.5120 E0.1095 F1440 ; custom feedrate
G1 X120.6770 Y98.5120 E0.1339
G1 X123.5120 Y95.6770 E0.2779
G1 X123.5120 Y94.9990 E0.3023
G1 X119.9990 Y98.5120 E0.4808
G1 X119.3200 Y98.5120 E0.5051
G1 X121.2400 Y96.5920 E0.6027
G1 X120.5610 Y96.5920 E0.6271
G1 X118.6410 Y98.5120 E0.7246
G1 X117.9620 Y98.5120 E0.7490
G1 X119.8820 Y96.5920 E0.8465
G1 X119.2030 Y96.5920 E0.8709
G1 X117.2830 Y98.5120 E0.9684
G1 X116.6040 Y98.5120 E0.9928
G1 X118.5240 Y96.5920 E1.0904
G1 X117.8460 Y96.5920 E1.1147
G1 X115.9260 Y98.5120 E1.2123
G1 X115.2470 Y98.5120 E1.2367
G1 X117.1670 Y96.5920 E1.3342
G1 X116.4880 Y96.5920 E1.3586
G1 X114.5680 Y98.5120 E1.4561
G1 X113.8890 Y98.5120 E1.4805
G1 X115.8090 Y96.5920 E1.5780
G1 X115.1300 Y96.5920 E1.6024
G1 X113.2100 Y98.5120 E1.7000
G1 X112.5320 Y98.5120 E1.7243
G1 X114.4520 Y96.5920 E1.8219
G1 X114.3860 Y96.5920 E1.8242
G1 X114.3860 Y95.9780 E1.8463
G1 X111.8530 Y98.5120 E1.9750
G1 X111.1740 Y98.5120 E1.9993
G1 X114.3860 Y95.3000 E2.1625
G1 X114.3860 Y94.6210 E2.1869
G1 X110.4950 Y98.5120 E2.3846
G1 X109.8160 Y98.5120 E2.4090
G1 X114.3860 Y93.9420 E2.6411
G1 X114.3860 Y93.4080 E2.6603
G1 X114.9200 Y93.4080 E2.6795
G1 X116.8400 Y91.4880 E2.7770
G1 X116.1610 Y91.4880 E2.8014
G1 X109.1370 Y98.5120 E3.1582
G1 X108.4590 Y98.5120 E3.1826
G1 X115.4830 Y91.4880 E3.5394
G1 X114.8040 Y91.4880 E3.5638
G1 X107.7800 Y98.5120 E3.9206
G1 X107.1010 Y98.5120 E3.9450
G1 X114.1250 Y91.4880 E4.3018
G1 X113.4460 Y91.4880 E4.3262
G1 X106.4220 Y98.5120 E4.6830
G1 X105.7430 Y98.5120 E4.7074
G1 X112.7670 Y91.4880 E5.0642
G1 X112.0880 Y91.4880 E5.0886
G1 X105.0640 Y98.5120 E5.4454
G1 X104.3860 Y98.5120 E5.4698
G1 X111.4100 Y91.4880 E5.8266
G1 X110.7310 Y91.4880 E5.8510
G1 X103.7070 Y98.5120 E6.2078
G1 X103.0280 Y98.5120 E6.2322
G1 X110.0520 Y91.4880 E6.5891
G1 X109.3730 Y91.4880 E6.6134
G1 X102.3490 Y98.5120 E6.9703
G1 X101.6700 Y98.5120 E6.9946
G1 X108.6940 Y91.4880 E7.3515
G1 X108.0160 Y91.4880 E7.3758
G1 X100.9920 Y98.5120 E7.7327
G1 X100.3130 Y98.5120 E7.7570
G1 X107.3370 Y91.4880 E8.1139
G1 X106.6580 Y91.4880 E8.1382
G1 X99.6340 Y98.5120 E8.4951
G1 X98.9550 Y98.5120 E8.5194
G1 X105.9790 Y91.4880 E8.8763
G1 X105.3000 Y91.4880 E8.9006
G1 X98.2760 Y98.5120 E9.2575
G1 X97.5970 Y98.5120 E9.2819
G1 X104.6210 Y91.4880 E9.6387
G1 X103.9430 Y91.4880 E9.6631
G1 X96.9190 Y98.5120 E10.0199
G1 X96.2400 Y98.5120 E10.0443
G1 X103.2640 Y91.4880 E10.4011
G1 X102.5850 Y91.4880 E10.4255
G1 X95.5610 Y98.5120 E10.7823
G1 X94.8820 Y98.5120 E10.8067
G1 X101.9060 Y91.4880 E11.1635
G1 X101.2270 Y91.4880 E11.1879
G1 X94.2030 Y98.5120 E11.5447
G1 X93.5250 Y98.5120 E11.5691
G1 X100.5490 Y91.4880 E11.9259
G1 X99.8700 Y91.4880 E11.9503
G1 X92.8460 Y98.5120 E12.3071
G1 X92.1670 Y98.5120 E12.3315
G1 X99.1910 Y91.4880 E12.6883
G1 X98.5120 Y91.4880 E12.7127
G1 X91.4880 Y98.5120 E13.0695
G1 X90.8090 Y98.5120 E13.0939
G1 X97.8330 Y91.4880 E13.4507
G1 X97.1540 Y91.4880 E13.4751
G1 X90.1300 Y98.5120 E13.8319
G1 X89.4520 Y98.5120 E13.8563
G1 X96.4760 Y91.4880 E14.2131
G1 X95.7970 Y91.4880 E14.2375
G1 X88.7730 Y98.5120 E14.5943
G1 X88.0940 Y98.5120 E14.6187
G1 X95.1180 Y91.4880 E14.9755
G1 X94.4390 Y91.4880 E14.9999
G1 X87.4150 Y98.5120 E15.3567
G1 X86.7360 Y98.5120 E15.3811
G1 X93.7600 Y91.4880 E15.7379
G1 X93.0810 Y91.4880 E15.7623
G1 X86.0570 Y98.5120 E16.1191
G1 X85.3790 Y98.5120 E16.1435
G1 X92.4030 Y91.4880 E16.5003
G1 X91.7240 Y91.4880 E16.5247
G1 X84.7000 Y98.5120 E16.8815
G1 X84.0210 Y98.5120 E16.9059
G1 X91.0450 Y91.4880 E17.2627
G1 X90.3660 Y91.4880 E17.2871
G1 X83.3420 Y98.5120 E17.6439
G1 X82.6630 Y98.5120 E17.6683
G1 X89.6870 Y91.4880 E18.0251
G1 X89.0090 Y91.4880 E18.0495
G1 X81.9850 Y98.5120 E18.4063
G1 X81.3060 Y98.5120 E18.4307
G1 X88.3300 Y91.4880 E18.7875
G1 X87.6510 Y91.4880 E18.8119
G1 X80.6270 Y98.5120 E19.1687
G1 X79.9480 Y98.5120 E19.1931
G1 X86.9720 Y91.4880 E19.5499
G1 X86.2930 Y91.4880 E19.5743
G1 X79.2690 Y98.5120 E19.9311
G1 X78.5900 Y98.5120 E19.9555
G1 X85.6140 Y91.4880 E20.3123
G1 X84.9360 Y91.4880 E20.3367
G1 X77.9120 Y98.5120 E20.6935
G1 X77.2330 Y98.5120 E20.7179
G1 X84.2570 Y91.4880 E21.0747
G1 X83.5780 Y91.4880 E21.0991
G1 X76.5540 Y98.5120 E21.4559
G1 X75.8750 Y98.5120 E21.4803
G1 X82.8990 Y91.4880 E21.8371
G1 X82.2200 Y91.4880 E21.8615
G1 X75.1960 Y98.5120 E22.2183
G1 X74.5170 Y98.5120 E22.2427
G1 X81.5410 Y91.4880 E22.5996
G1 X80.8630 Y91.4880 E22.6239
G1 X73.8390 Y98.5120 E22.9808
G1 X73.1600 Y98.5120 E23.0051
G1 X80.1840 Y91.4880 E23.3620
G1 X79.5050 Y91.4880 E23.3863
G1 X72.4810 Y98.5120 E23.7432
G1 X71.8020 Y98.5120 E23.7675
G1 X78.8260 Y91.4880 E24.1244
G1 X78.1470 Y91.4880 E24.1487
G1 X73.6140 Y96.0220 E24.3790
G1 X73.6140 Y96.5920 E24.3995
G1 X73.0430 Y96.5920 E24.4200
G1 X71.1230 Y98.5120 E24.5176
G1 X70.4450 Y98.5120 E24.5419
G1 X72.3650 Y96.5920 E24.6395
G1 X71.6860 Y96.5920 E24.6639
G1 X69.7660 Y98.5120 E24.7614
G1 X69.0870 Y98.5120 E24.7858
G1 X71.4080 Y96.1910 E24.9037
G1 X71.4080 Y95.5120 E24.9281
G1 X68.5120 Y98.4080 E25.0752
G1 X68.1730 Y98.0680 E25.0924
G1 X71.4080 Y94.8330 E25.2568
G1 X71.4080 Y94.1540 E25.2812
G1 X67.8330 Y97.7290 E25.4628
G1 X67.4940 Y97.3900 E25.4800
G1 X71.4080 Y93.4760 E25.6788
G1 X71.4080 Y93.4080 E25.6813
G1 X71.4760 Y93.4080 E25.6837
G1 X73.3960 Y91.4880 E25.7812
G1 X72.7170 Y91.4880 E25.8056
G1 X67.1550 Y97.0500 E26.0882
G1 X66.8150 Y96.7110 E26.1054
G1 X72.0380 Y91.4880 E26.3707
G1 X71.3590 Y91.4880 E26.3951
G1 X66.4880 Y96.3590 E26.6426
G1 X66.4880 Y95.6800 E26.6669
G1 X70.6800 Y91.4880 E26.8799
G1 X70.0010 Y91.4880 E26.9043
G1 X66.4880 Y95.0010 E27.0828
G1 X66.4880 Y94.3230 E27.1072
G1 X69.3230 Y91.4880 E27.2512
G1 X68.6440 Y91.4880 E27.2755
G1 X66.4880 Y93.6440 E27.3851
G1 X72.1540 Y93.4080 F3000 ; custom feedrate
G92 E0.0000
G1 X74.0740 Y91.4880 E0.0975 F1440 ; custom feedrate
G1 X74.7530 Y91.4880 E0.1219
G1 X72.8330 Y93.4080 E0.2195
G1 X73.5120 Y93.4080 E0.2438
G1 X75.4320 Y91.4880 E0.3414
G1 X76.1110 Y91.4880 E0.3658
G1 X73.6140 Y93.9850 E0.4926
G1 X73.6140 Y94.6640 E0.5170
G1 X76.7900 Y91.4880 E0.6783
G1 X77.4690 Y91.4880 E0.7027
G1 X73.6140 Y95.3430 E0.8985
G1 X115.1610 Y96.0520 F3000 ; custom feedrate
G92 E0.0000
G1 X117.2650 Y93.9480 E0.1336 F1800 ; custom feedrate
G1 X121.0520 Y93.9480 E0.3036
G1 X121.0520 Y94.4040 E0.3241
G1 X119.4040 Y96.0520 E0.4288
G92 E0.0000
G1 E-5 F3000 ; custom retraction
;layer 5, Z = 1.000
;fan5;
;
G1 Z1.000 F1200
G1 X121.5030 Y98.8000 F3000 ; custom feedrate
G1 E0 F3000 ; custom un-retraction/prime
G92 E0.0000
G1 X68.4970 Y98.8000 E1.9040 F1440 ; custom feedrate
G1 X66.2000 Y96.5030 E2.0207
G1 X66.2000 Y93.4970 E2.1287
G1 X68.4970 Y91.2000 E2.2454
G1 X121.5030 Y91.2000 E4.1494
G1 X123.8000 Y93.4970 E4.2661
G1 X123.8000 Y96.5030 E4.3741
G1 X121.5030 Y98.8000 E4.4908
G1 X121.7020 Y99.2800 F3000 ; custom feedrate
G92 E0.0000
G1 X68.2980 Y99.2800 E1.9183 F1440 ; custom feedrate
G1 X65.7200 Y96.7020 E2.0493
G1 X65.7200 Y93.2980 E2.1715
G1 X68.2980 Y90.7200 E2.3025
G1 X121.7020 Y90.7200 E4.2208
G1 X124.2800 Y93.2980 E4.3518
G1 X124.2800 Y96.7020 E4.4740
G1 X121.7020 Y99.2800 E4.6050
G1 X121.9010 Y99.7600 F3000 ; custom feedrate
G92 E0.0000
G1 X68.0990 Y99.7600 E1.9326 F1080 ; custom feedrate
G1 X65.2400 Y96.9010 E2.0778
G1 X65.2400 Y93.0990 E2.2144
G1 X68.0990 Y90.2400 E2.3596
G1 X121.9010 Y90.2400 E4.2922
G1 X124.7600 Y93.0990 E4.4375
G1 X124.7600 Y96.9010 E4.5740
G1 X121.9010 Y99.7600 E4.7193
G1 X121.5920 Y94.4390 F3000 ; custom feedrate
G92 E0.0000
G1 X123.5120 Y96.3590 E0.0975 F1440 ; custom feedrate
G1 X123.5120 Y96.3840 E0.0984
G1 X123.1850 Y96.7110 E0.1150
G1 X121.5920 Y95.1180 E0.1960
G1 X121.5920 Y95.7970 E0.2203
G1 X122.8450 Y97.0500 E0.2840
G1 X122.5060 Y97.3900 E0.3013
G1 X121.5920 Y96.4760 E0.3477
G1 X121.5920 Y96.5920 E0.3519
G1 X121.0300 Y96.5920 E0.3721
G1 X122.1670 Y97.7290 E0.4298
G1 X121.8270 Y98.0680 E0.4471
G1 X120.3510 Y96.5920 E0.5221
G1 X119.6720 Y96.5920 E0.5465
G1 X121.4880 Y98.4080 E0.6387
G1 X121.3840 Y98.5120 E0.6440
G1 X120.9130 Y98.5120 E0.6609
G1 X118.9930 Y96.5920 E0.7584
G1 X118.3140 Y96.5920 E0.7828
G1 X120.2340 Y98.5120 E0.8803
G1 X119.5560 Y98.5120 E0.9047
G1 X117.6360 Y96.5920 E1.0023
G1 X116.9570 Y96.5920 E1.0267
G1 X118.8770 Y98.5120 E1.1242
G1 X118.1980 Y98.5120 E1.1486
G1 X116.2780 Y96.5920 E1.2461
G1 X115.5990 Y96.5920 E1.2705
G1 X117.5190 Y98.5120 E1.3680
G1 X116.8400 Y98.5120 E1.3924
G1 X114.9200 Y96.5920 E1.4899
G1 X121.3560 Y91.4880 F3000 ; custom feedrate
G92 E0.0000
G1 X123.5120 Y93.6440 E0.1095 F1440 ; custom feedrate
G1 X123.5120 Y94.3230 E0.1339
G1 X120.6770 Y91.4880 E0.2779
G1 X119.9990 Y91.4880 E0.3023
G1 X123.5120 Y95.0010 E0.4808
G1 X123.5120 Y95.6800 E0.5051
G1 X121.5920 Y93.7600 E0.6027
G1 X121.5920 Y93.4080 E0.6153
G1 X121.2400 Y93.4080 E0.6280
G1 X119.3200 Y91.4880 E0.7255
G1 X118.6410 Y91.4880 E0.7499
G1 X120.5610 Y93.4080 E0.8474
G1 X119.8820 Y93.4080 E0.8718
G1 X117.9620 Y91.4880 E0.9694
G1 X117.2830 Y91.4880 E0.9937
G1 X119.2030 Y93.4080 E1.0913
G1 X118.5240 Y93.4080 E1.1157
G1 X116.6040 Y91.4880 E1.2132
G1 X115.9260 Y91.4880 E1.2376
G1 X117.8460 Y93.4080 E1.3351
G1 X117.1670 Y93.4080 E1.3595
G1 X115.2470 Y91.4880 E1.4570
G1 X114.5680 Y91.4880 E1.4814
G1 X116.4880 Y93.4080 E1.5790
G1 X115.8090 Y93.4080 E1.6033
G1 X113.8890 Y91.4880 E1.7009
G1 X113.2100 Y91.4880 E1.7253
G1 X115.1300 Y93.4080 E1.8228
G1 X114.4520 Y93.4080 E1.8472
G1 X112.5320 Y91.4880 E1.9447
G1 X111.8530 Y91.4880 E1.9691
G1 X114.3860 Y94.0220 E2.0978
G1 X114.3860 Y94.7000 E2.1222
G1 X111.1740 Y91.4880 E2.2854
G1 X110.4950 Y91.4880 E2.3098
G1 X114.3860 Y95.3790 E2.5074
G1 X114.3860 Y96.0580 E2.5318
G1 X109.8160 Y91.4880 E2.7640
G1 X109.1370 Y91.4880 E2.7884
G1 X116.1610 Y98.5120 E3.1452
G1 X115.4830 Y98.5120 E3.1696
G1 X108.4590 Y91.4880 E3.5264
G1 X107.7800 Y91.4880 E3.5508
G1 X114.8040 Y98.5120 E3.9076
G1 X114.1250 Y98.5120 E3.9320
G1 X107.1010 Y91.4880 E4.2888
G1 X106.4220 Y91.4880 E4.3132
G1 X113.4460 Y98.5120 E4.6700
G1 X112.7670 Y98.5120 E4.6944
G1 X105.7430 Y91.4880 E5.0512
G1 X105.0640 Y91.4880 E5.0756
G1 X112.0880 Y98.5120 E5.4324
G1 X111.4100 Y98.5120 E5.4568
G1 X104.3860 Y91.4880 E5.8136
G1 X103.7070 Y91.4880 E5.8380
G1 X110.7310 Y98.5120 E6.1948
G1 X110.0520 Y98.5120 E6.2192
G1 X103.0280 Y91.4880 E6.5760
G1 X102.3490 Y91.4880 E6.6004
G1 X109.3730 Y98.5120 E6.9572
G1 X108.6940 Y98.5120 E6.9816
G1 X101.6700 Y91.4880 E7.3384
G1 X100.9920 Y91.4880 E7.3628
G1 X108.0160 Y98.5120 E7.7196
G1 X107.3370 Y98.5120 E7.7440
G1 X100.3130 Y91.4880 E8.1008
G1 X99.6340 Y91.4880 E8.1252
G1 X106.6580 Y98.5120 E8.4820
G1 X105.9790 Y98.5120 E8.5064
G1 X98.9550 Y91.4880 E8.8632
G1 X98.2760 Y91.4880 E8.8876
G1 X105.3000 Y98.5120 E9.2444
G1 X104.6210 Y98.5120 E9.2688
G1 X97.5970 Y91.4880 E9.6256
G1 X96.9190 Y91.4880 E9.6500
G1 X103.9430 Y98.5120 E10.0068
G1 X103.2640 Y98.5120 E10.0312
G1 X96.2400 Y91.4880 E10.3880
G1 X95.5610 Y91.4880 E10.4124
G1 X102.5850 Y98.5120 E10.7692
G1 X101.9060 Y98.5120 E10.7936
G1 X94.8820 Y91.4880 E11.1504
G1 X94.2030 Y91.4880 E11.1748
G1 X101.2270 Y98.5120 E11.5316
G1 X100.5480 Y98.5120 E11.5560
G1 X93.5240 Y91.4880 E11.9128
G1 X92.8460 Y91.4880 E11.9372
G1 X99.8700 Y98.5120 E12.2940
G1 X99.1910 Y98.5120 E12.3184
G1 X92.1670 Y91.4880 E12.6752
G1 X91.4880 Y91.4880 E12.6996
G1 X98.5120 Y98.5120 E13.0564
G1 X97.8330 Y98.5120 E13.0808
G1 X90.8090 Y91.4880 E13.4376
G1 X90.1300 Y91.4880 E13.4620
G1 X97.1540 Y98.5120 E13.8188
G1 X96.4760 Y98.5120 E13.8432
G1 X89.4520 Y91.4880 E14.2000
G1 X88.7730 Y91.4880 E14.2244
G1 X95.7970 Y98.5120 E14.5812
G1 X95.1180 Y98.5120 E14.6056
G1 X88.0940 Y91.4880 E14.9624
G1 X87.4150 Y91.4880 E14.9868
G1 X94.4390 Y98.5120 E15.3436
G1 X93.7600 Y98.5120 E15.3680
G1 X86.7360 Y91.4880 E15.7249
G1 X86.0570 Y91.4880 E15.7492
G1 X93.0810 Y98.5120 E16.1061
G1 X92.4030 Y98.5120 E16.1304
G1 X85.3790 Y91.4880 E16.4873
G1 X84.7000 Y91.4880 E16.5116
G1 X91.7240 Y98.5120 E16.8685
G1 X91.0450 Y98.5120 E16.8928
G1 X84.0210 Y91.4880 E17.2497
G1 X83.3420 Y91.4880 E17.2740
G1 X90.3660 Y98.5120 E17.6309
G1 X89.6870 Y98.5120 E17.6552
G1 X82.6630 Y91.4880 E18.0121
G1 X81.9840 Y91.4880 E18.0365
G1 X89.0080 Y98.5120 E18.3933
G1 X88.3300 Y98.5120 E18.4177
G1 X81.3060 Y91.4880 E18.7745
G1 X80.6270 Y91.4880 E18.7989
G1 X87.6510 Y98.5120 E19.1557
G1 X86.9720 Y98.5120 E19.1801
G1 X79.9480 Y91.4880 E19.5369
G1 X79.2690 Y91.4880 E19.5613
G1 X86.2930 Y98.5120 E19.9181
G1 X85.6140 Y98.5120 E19.9425
G1 X78.5900 Y91.4880 E20.2993
G1 X77.9120 Y91.4880 E20.3237
G1 X84.9360 Y98.5120 E20.6805
G1 X84.2570 Y98.5120 E20.7049
G1 X77.2330 Y91.4880 E21.0617
G1 X76.5540 Y91.4880 E21.0861
G1 X83.5780 Y98.5120 E21.4429
G1 X82.8990 Y98.5120 E21.4673
G1 X75.8750 Y91.4880 E21.8241
G1 X75.1960 Y91.4880 E21.8485
G1 X82.2200 Y98.5120 E22.2053
G1 X81.5410 Y98.5120 E22.2297
G1 X74.5170 Y91.4880 E22.5865
G1 X73.8390 Y91.4880 E22.6109
G1 X80.8630 Y98.5120 E22.9677
G1 X80.1840 Y98.5120 E22.9921
G1 X73.1600 Y91.4880 E23.3489
G1 X72.4810 Y91.4880 E23.3733
G1 X79.5050 Y98.5120 E23.7301
G1 X78.8260 Y98.5120 E23.7545
G1 X71.8020 Y91.4880 E24.1113
G1 X71.1230 Y91.4880 E24.1357
G1 X73.0430 Y93.4080 E24.2332
G1 X72.3650 Y93.4080 E24.2576
G1 X70.4450 Y91.4880 E24.3551
G1 X69.7660 Y91.4880 E24.3795
G1 X71.6860 Y93.4080 E24.4771
G1 X71.4080 Y93.4080 E24.4870
G1 X71.4080 Y93.8090 E24.5014
G1 X69.0870 Y91.4880 E24.6194
G1 X68.6160 Y91.4880 E24.6363
G1 X68.5120 Y91.5920 E24.6416
G1 X71.4080 Y94.4880 E24.7887
G1 X71.4080 Y95.1670 E24.8130
G1 X68.1730 Y91.9320 E24.9774
G1 X67.8330 Y92.2710 E24.9946
G1 X71.4080 Y95.8460 E25.1762
G1 X71.4080 Y96.5240 E25.2006
G1 X67.4940 Y92.6100 E25.3994
G1 X67.1550 Y92.9500 E25.4167
G1 X72.7170 Y98.5120 E25.6992
G1 X72.0380 Y98.5120 E25.7236
G1 X66.8150 Y93.2890 E25.9889
G1 X66.4880 Y93.6160 E26.0056
G1 X66.4880 Y93.6410 E26.0064
G1 X71.3590 Y98.5120 E26.2539
G1 X70.6800 Y98.5120 E26.2783
G1 X66.4880 Y94.3200 E26.4912
G1 X66.4880 Y94.9990 E26.5156
G1 X70.0010 Y98.5120 E26.6941
G1 X69.3230 Y98.5120 E26.7185
G1 X66.4880 Y95.6770 E26.8625
G1 X66.4880 Y96.3560 E26.8869
G1 X68.6440 Y98.5120 E26.9964
G1 X71.4760 Y96.5920 F3000 ; custom feedrate
G92 E0.0000
G1 X73.3960 Y98.5120 E0.0975 F1440 ; custom feedrate
G1 X74.0740 Y98.5120 E0.1219
G1 X72.1540 Y96.5920 E0.2195
G1 X72.8330 Y96.5920 E0.2438
G1 X74.7530 Y98.5120 E0.3414
G1 X75.4320 Y98.5120 E0.3658
G1 X73.5120 Y96.5920 E0.4633
G1 X73.6140 Y96.5920 E0.4669
G1 X73.6140 Y96.0150 E0.4877
G1 X76.1110 Y98.5120 E0.6145
G1 X76.7900 Y98.5120 E0.6389
G1 X73.6140 Y95.3360 E0.8003
G1 X73.6140 Y94.6570 E0.8246
G1 X77.4690 Y98.5120 E1.0205
G1 X78.1470 Y98.5120 E1.0448
G1 X73.6140 Y93.9780 E1.2751
G1 X115.1610 Y93.9480 F3000 ; custom feedrate
G92 E0.0000
G1 X117.2650 Y96.0520 E0.1336 F1800 ; custom feedrate
G1 X121.0520 Y96.0520 E0.3036
G1 X121.0520 Y95.5960 E0.3241
G1 X119.4040 Y93.9480 E0.4288
G92 E0.0000
G1 E-5 F3000 ; custom retraction
;layer 6, Z = 1.200
;fan6;
G1 Z1.200 F1200
G1 X121.4000 Y93.6000 F3000 ; custom feedrate
G1 E0 F3000 ; custom un-retraction/prime
G92 E0.0000
G1 X121.4000 Y96.4000 E0.1006 F1440 ; custom feedrate
G1 X114.5780 Y96.4000 E0.3456
G1 X114.5780 Y93.6000 E0.4462
G1 X121.4000 Y93.6000 E0.6912
G1 X121.8800 Y93.1200 F3000 ; custom feedrate
G92 E0.0000
G1 X121.8800 Y96.8800 E0.1351 F1440 ; custom feedrate
G1 X114.0980 Y96.8800 E0.4146
G1 X114.0980 Y93.1200 E0.5497
G1 X121.8800 Y93.1200 E0.8292
G1 X122.3600 Y92.6400 F3000 ; custom feedrate
G92 E0.0000
G1 X122.3600 Y97.3600 E0.1695 F1080 ; custom feedrate
G1 X113.6180 Y97.3600 E0.4836
G1 X113.6180 Y92.6400 E0.6531
G1 X122.3600 Y92.6400 E0.9671
G1 X119.4040 Y96.0520 F3000 ; custom feedrate
G92 E0.0000
G1 X121.0520 Y94.4040 E0.1047 F1800 ; custom feedrate
G1 X121.0520 Y93.9480 E0.1251
G1 X117.2650 Y93.9480 E0.2952
G1 X115.1610 Y96.0520 E0.4288
G92 E0.0000
G1 E-5 F3000 ; custom retraction
;zhop1
G1 X73.4220 Y96.4000 F3000 ; custom feedrate
G1 Z1.200 F1200
G1 E0 F3000 ; custom un-retraction/prime
G92 E0.0000
G1 X71.6000 Y96.4000 E0.0654 F1440 ; custom feedrate
G1 X71.6000 Y93.6000 E0.1660
G1 X73.4220 Y93.6000 E0.2315
G1 X73.4220 Y96.4000 E0.3320
G1 X73.9020 Y96.8800 F3000 ; custom feedrate
G92 E0.0000
G1 X71.1200 Y96.8800 E0.0999 F1440 ; custom feedrate
G1 X71.1200 Y93.1200 E0.2350
G1 X73.9020 Y93.1200 E0.3349
G1 X73.9020 Y96.8800 E0.4700
G1 X74.3820 Y97.3600 F3000 ; custom feedrate
G92 E0.0000
G1 X70.6400 Y97.3600 E0.1344 F1080 ; custom feedrate
G1 X70.6400 Y92.6400 E0.3040
G1 X74.3820 Y92.6400 E0.4384
G1 X74.3820 Y97.3600 E0.6079
G92 E0.0000
G1 E-5 F3000 ; custom retraction
;zhop1
G1 X70.6400 Y96.3310 F3000 ; custom feedrate
G1 X67.2440 Y95.7440
G1 X67.2440 Y95.3960
G1 X66.7640 Y95.2640
G1 Z1.200 F1200
G1 E0 F3000 ; custom un-retraction/prime
G92 E0.0000
G1 X66.2360 Y95.2640 E0.0190 F1440 ; custom feedrate
G1 X66.2360 Y94.7360 E0.0380
G1 X66.7640 Y94.7360 E0.0569
G1 X66.7640 Y95.2640 E0.0759
G1 X67.2440 Y95.7440 F3000 ; custom feedrate
G92 E0.0000
G1 X65.7560 Y95.7440 E0.0535 F1080 ; custom feedrate
G1 X65.7560 Y94.2560 E0.1069
G1 X67.2440 Y94.2560 E0.1604
G1 X67.2440 Y95.7440 E0.2138
G92 E0.0000
G1 E-5 F3000 ; custom retraction
;layer 7, Z = 1.400
;fan7;
G1 Z1.400 F1200
G1 X66.7320 Y95.2320 F3000 ; custom feedrate
G1 E0 F3000 ; custom un-retraction/prime
G92 E0.0000
G1 X66.2680 Y95.2320 E0.0167 F1440 ; custom feedrate
G1 X66.2680 Y94.7680 E0.0334
G1 X66.7320 Y94.7680 E0.0501
G1 X66.7320 Y95.2320 E0.0668
G1 X67.2120 Y95.7120 F3000 ; custom feedrate
G92 E0.0000
G1 X65.7880 Y95.7120 E0.0512 F1080 ; custom feedrate
G1 X65.7880 Y94.2880 E0.1024
G1 X67.2120 Y94.2880 E0.1536
G1 X67.2120 Y95.7120 E0.2047
G92 E0.0000
G1 E-5 F3000 ; custom retraction
;zhop1
G1 X71.4000 Y96.6000 F3000 ; custom feedrate
G1 Z1.400 F1200
G1 E0 F3000 ; custom un-retraction/prime
G92 E0.0000
G1 X71.4000 Y93.4000 E0.1149 F1440 ; custom feedrate
G1 X73.6350 Y93.4000 E0.1952
G1 X73.6350 Y96.6000 E0.3102
G1 X71.4000 Y96.6000 E0.3904
G1 X70.9200 Y97.0800 F3000 ; custom feedrate
G92 E0.0000
G1 X70.9200 Y92.9200 E0.1494 F1440 ; custom feedrate
G1 X74.1140 Y92.9200 E0.2642
G1 X74.1140 Y97.0800 E0.4136
G1 X70.9200 Y97.0800 E0.5284
G1 X70.4400 Y97.5600 F3000 ; custom feedrate
G92 E0.0000
G1 X70.4400 Y92.4400 E0.1839 F1080 ; custom feedrate
G1 X74.5940 Y92.4400 E0.3331
G1 X74.5940 Y97.5600 E0.5171
G1 X70.4400 Y97.5600 E0.6663
G92 E0.0000
G1 E-5 F3000 ; custom retraction
;zhop1
G1 X74.5940 Y97.4690 F3000 ; custom feedrate
G1 X113.4050 Y97.5600
G1 X113.4050 Y96.6210
G1 X114.3650 Y96.6000
G1 Z1.400 F1200
G1 E0 F3000 ; custom un-retraction/prime
G92 E0.0000
G1 X114.3650 Y93.4000 E0.1149 F1440 ; custom feedrate
G1 X121.6000 Y93.4000 E0.3748
G1 X121.6000 Y96.6000 E0.4898
G1 X114.3650 Y96.6000 E0.7496
G1 X113.8850 Y97.0800 F3000 ; custom feedrate
G92 E0.0000
G1 X113.8850 Y92.9200 E0.1494 F1440 ; custom feedrate
G1 X122.0800 Y92.9200 E0.4438
G1 X122.0800 Y97.0800 E0.5932
G1 X113.8850 Y97.0800 E0.8876
G1 X113.4050 Y97.5600 F3000 ; custom feedrate
G92 E0.0000
G1 X113.4050 Y92.4400 E0.1839 F1080 ; custom feedrate
G1 X122.5600 Y92.4400 E0.5128
G1 X122.5600 Y97.5600 E0.6967
G1 X113.4050 Y97.5600 E1.0255
G1 X114.9610 Y93.7480 F3000 ; custom feedrate
G92 E0.0000
G1 X117.4650 Y96.2520 E0.1590 F1800 ; custom feedrate
G1 X121.2520 Y96.2520 E0.3290
G1 X121.2520 Y95.7960 E0.3495
G1 X119.2040 Y93.7480 E0.4796
G92 E0.0000
G1 E-5 F3000 ; custom retraction
;layer 8, Z = 1.600
;fan8;
G1 Z1.600 F1200
G1 X121.8000 Y93.2000 F3000 ; custom feedrate
G1 E0 F3000 ; custom un-retraction/prime
G92 E0.0000
G1 X121.8000 Y96.8000 E0.1293 F1440 ; custom feedrate
G1 X114.1840 Y96.8000 E0.4029
G1 X114.1840 Y93.2000 E0.5322
G1 X121.8000 Y93.2000 E0.8058
G1 X122.2800 Y92.7200 F3000 ; custom feedrate
G92 E0.0000
G1 X122.2800 Y97.2800 E0.1638 F1440 ; custom feedrate
G1 X113.7040 Y97.2800 E0.4719
G1 X113.7040 Y92.7200 E0.6357
G1 X122.2800 Y92.7200 E0.9437
G1 X122.7600 Y92.2400 F3000 ; custom feedrate
G92 E0.0000
G1 X122.7600 Y97.7600 E0.1983 F1080 ; custom feedrate
G1 X113.2240 Y97.7600 E0.5408
G1 X113.2240 Y92.2400 E0.7391
G1 X122.7600 Y92.2400 E1.0817
G1 X119.0040 Y96.4520 F3000 ; custom feedrate
G92 E0.0000
G1 X121.4520 Y94.0040 E0.1555 F1800 ; custom feedrate
G1 X121.4520 Y93.5480 E0.1759
G1 X117.6650 Y93.5480 E0.3460
G1 X114.7610 Y96.4520 E0.5304
G92 E0.0000
G1 E-5 F3000 ; custom retraction
;zhop1
G1 X73.8160 Y96.8000 F3000 ; custom feedrate
G1 Z1.600 F1200
G1 E0 F3000 ; custom un-retraction/prime
G92 E0.0000
G1 X71.2000 Y96.8000 E0.0940 F1440 ; custom feedrate
G1 X71.2000 Y93.2000 E0.2233
G1 X73.8160 Y93.2000 E0.3173
G1 X73.8160 Y96.8000 E0.4466
G1 X74.2960 Y97.2800 F3000 ; custom feedrate
G92 E0.0000
G1 X70.7200 Y97.2800 E0.1285 F1440 ; custom feedrate
G1 X70.7200 Y92.7200 E0.2923
G1 X74.2960 Y92.7200 E0.4207
G1 X74.2960 Y97.2800 E0.5845
G1 X74.7760 Y97.7600 F3000 ; custom feedrate
G92 E0.0000
G1 X70.2400 Y97.7600 E0.1630 F1080 ; custom feedrate
G1 X70.2400 Y92.2400 E0.3612
G1 X74.7760 Y92.2400 E0.5242
G1 X74.7760 Y97.7600 E0.7225
G92 E0.0000
G1 E-5 F3000 ; custom retraction
;zhop1
G1 X67.1810 Y95.6810 F3000 ; custom feedrate
G1 Z1.600 F1200
G1 E0 F3000 ; custom un-retraction/prime
G92 E0.0000
G1 X65.8190 Y95.6810 E0.0489 F1080 ; custom feedrate
G1 X65.8190 Y94.3190 E0.0978
G1 X67.1810 Y94.3190 E0.1467
G1 X67.1810 Y95.6810 E0.1956
G1 X66.8930 Y95.2760 F3000 ; custom feedrate
G92 E0.0000
G1 X66.7760 Y95.3930 E0.0060 F1800 ; custom feedrate
G1 X66.1070 Y95.3930 E0.0300
G1 X66.1070 Y95.3820 E0.0303
G1 X66.8820 Y94.6070 E0.0697
G1 X66.2030 Y94.6070 E0.0941
G1 X66.1070 Y94.7030 E0.0990
G92 E0.0000
G1 E-5 F3000 ; custom retraction
;layer 9, Z = 1.800
;fan9;
G1 Z1.800 F1200
G1 X65.8510 Y94.3510 F3000 ; custom feedrate
G1 E0 F3000 ; custom un-retraction/prime
G92 E0.0000
G1 X67.1490 Y94.3510 E0.0466 F1080 ; custom feedrate
G1 X67.1490 Y95.6490 E0.0933
G1 X65.8510 Y95.6490 E0.1399
G1 X65.8510 Y94.3510 E0.1865
G1 X66.8070 Y94.6390 F3000 ; custom feedrate
G92 E0.0000
G1 X66.8610 Y94.6930 E0.0027 F1800 ; custom feedrate
G1 X66.8610 Y95.3610 E0.0267
G1 X66.8510 Y95.3610 E0.0271
G1 X66.1390 Y94.6490 E0.0633
G1 X66.1390 Y95.3280 E0.0877
G1 X66.1720 Y95.3610 E0.0893
G92 E0.0000
G1 E-5 F3000 ; custom retraction
;zhop1
G1 X67.1490 Y95.6410 F3000 ; custom feedrate
G1 X67.1490 Y95.6490
G1 X71.2000 Y96.8000
G1 Z1.800 F1200
G1 E0 F3000 ; custom un-retraction/prime
G92 E0.0000
G1 X71.2000 Y93.2000 E0.1293 F1440 ; custom feedrate
G1 X73.8340 Y93.2000 E0.2239
G1 X73.8340 Y96.8000 E0.3532
G1 X71.2000 Y96.8000 E0.4478
G1 X70.7200 Y97.2800 F3000 ; custom feedrate
G92 E0.0000
G1 X70.7200 Y92.7200 E0.1638 F1440 ; custom feedrate
G1 X74.3140 Y92.7200 E0.2929
G1 X74.3140 Y97.2800 E0.4567
G1 X70.7200 Y97.2800 E0.5858
G1 X70.2400 Y97.7600 F3000 ; custom feedrate
G92 E0.0000
G1 X70.2400 Y92.2400 E0.1983 F1080 ; custom feedrate
G1 X74.7940 Y92.2400 E0.3619
G1 X74.7940 Y97.7600 E0.5601
G1 X70.2400 Y97.7600 E0.7237
G92 E0.0000
G1 E-5 F3000 ; custom retraction
;zhop1
G1 X74.7940 Y97.6600 F3000 ; custom feedrate
G1 X113.2060 Y97.7600
G1 X113.2060 Y96.8210
G1 X114.1660 Y96.8000
G1 Z1.800 F1200
G1 E0 F3000 ; custom un-retraction/prime
G92 E0.0000
G1 X114.1660 Y93.2000 E0.1293 F1440 ; custom feedrate
G1 X121.8000 Y93.2000 E0.4035
G1 X121.8000 Y96.8000 E0.5328
G1 X114.1660 Y96.8000 E0.8070
G1 X113.6860 Y97.2800 F3000 ; custom feedrate
G92 E0.0000
G1 X113.6860 Y92.7200 E0.1638 F1440 ; custom feedrate
G1 X122.2800 Y92.7200 E0.4725
G1 X122.2800 Y97.2800 E0.6363
G1 X113.6860 Y97.2800 E0.9450
G1 X113.2060 Y97.7600 F3000 ; custom feedrate
G92 E0.0000
G1 X113.2060 Y92.2400 E0.1983 F1080 ; custom feedrate
G1 X122.7600 Y92.2400 E0.5415
G1 X122.7600 Y97.7600 E0.7397
G1 X113.2060 Y97.7600 E1.0829
G1 X114.7610 Y93.5480 F3000 ; custom feedrate
G92 E0.0000
G1 X117.6650 Y96.4520 E0.1844 F1800 ; custom feedrate
G1 X121.4520 Y96.4520 E0.3544
G1 X121.4520 Y95.9960 E0.3749
G1 X119.0040 Y93.5480 E0.5304
G92 E0.0000
G1 E-5 F3000 ; custom retraction
;layer 10, Z = 2.000
;fan10;
G1 Z2.000 F1200
G1 X121.8000 Y93.2000 F3000 ; custom feedrate
G1 E0 F3000 ; custom un-retraction/prime
G92 E0.0000
G1 X121.8000 Y96.8000 E0.1293 F1440 ; custom feedrate
G1 X114.1450 Y96.8000 E0.4043
G1 X114.1450 Y93.2000 E0.5336
G1 X121.8000 Y93.2000 E0.8086
G1 X122.2800 Y92.7200 F3000 ; custom feedrate
G92 E0.0000
G1 X122.2800 Y97.2800 E0.1638 F1440 ; custom feedrate
G1 X113.6650 Y97.2800 E0.4733
G1 X113.6650 Y92.7200 E0.6371
G1 X122.2800 Y92.7200 E0.9465
G1 X122.7600 Y92.2400 F3000 ; custom feedrate
G92 E0.0000
G1 X122.7600 Y97.7600 E0.1983 F1080 ; custom feedrate
G1 X113.1850 Y97.7600 E0.5422
G1 X113.1850 Y92.2400 E0.7405
G1 X122.7600 Y92.2400 E1.0844
G1 X119.0040 Y96.4520 F3000 ; custom feedrate
G92 E0.0000
G1 X121.4520 Y94.0040 E0.1555 F1800 ; custom feedrate
G1 X121.4520 Y93.5480 E0.1759
G1 X117.6650 Y93.5480 E0.3460
G1 X114.7610 Y96.4520 E0.5304
G92 E0.0000
G1 E-5 F3000 ; custom retraction
;zhop1
G1 X73.8550 Y96.8000 F3000 ; custom feedrate
G1 Z2.000 F1200
G1 E0 F3000 ; custom un-retraction/prime
G92 E0.0000
G1 X71.2000 Y96.8000 E0.0954 F1440 ; custom feedrate
G1 X71.2000 Y93.2000 E0.2247
G1 X73.8550 Y93.2000 E0.3200
G1 X73.8550 Y96.8000 E0.4494
G1 X74.3350 Y97.2800 F3000 ; custom feedrate
G92 E0.0000
G1 X70.7200 Y97.2800 E0.1299 F1440 ; custom feedrate
G1 X70.7200 Y92.7200 E0.2937
G1 X74.3350 Y92.7200 E0.4235
G1 X74.3350 Y97.2800 E0.5873
G1 X74.8150 Y97.7600 F3000 ; custom feedrate
G92 E0.0000
G1 X70.2400 Y97.7600 E0.1643 F1080 ; custom feedrate
G1 X70.2400 Y92.2400 E0.3626
G1 X74.8150 Y92.2400 E0.5270
G1 X74.8150 Y97.7600 E0.7252
G92 E0.0000
G1 E-5 F3000 ; custom retraction
;zhop1
G1 X70.2400 Y96.4870 F3000 ; custom feedrate
G1 X67.1170 Y95.6170
G1 Z2.000 F1200
G1 E0 F3000 ; custom un-retraction/prime
G92 E0.0000
G1 X65.8830 Y95.6170 E0.0444 F1080 ; custom feedrate
G1 X65.8830 Y94.3830 E0.0887
G1 X67.1170 Y94.3830 E0.1331
G1 X67.1170 Y95.6170 E0.1774
G1 X66.8190 Y94.6710 F3000 ; custom feedrate
G92 E0.0000
G1 X66.1710 Y95.3190 E0.0329 F1800 ; custom feedrate
G92 E0.0000
G1 E-5 F3000 ; custom retraction
;layer 11, Z = 2.200
;fan11;
G1 Z2.200 F1200
G1 X65.9140 Y95.5860 F3000 ; custom feedrate
G1 E0 F3000 ; custom un-retraction/prime
G92 E0.0000
G1 X65.9140 Y94.4140 E0.0421 F1080 ; custom feedrate
G1 X67.0860 Y94.4140 E0.0842
G1 X67.0860 Y95.5860 E0.1262
G1 X65.9140 Y95.5860 E0.1683
G1 X66.7870 Y95.2980 F3000 ; custom feedrate
G92 E0.0000
G1 X66.2020 Y94.7130 E0.0297 F1800 ; custom feedrate
G92 E0.0000
G1 E-5 F3000 ; custom retraction
;zhop1
G1 X67.0860 Y94.4450 F3000 ; custom feedrate
G1 X67.0860 Y94.4140
G1 X70.2400 Y93.4910
G1 X71.2000 Y93.2000
G1 Z2.200 F1200
G1 E0 F3000 ; custom un-retraction/prime
G92 E0.0000
G1 X73.8800 Y93.2000 E0.0963 F1440 ; custom feedrate
G1 X73.8800 Y96.8000 E0.2256
G1 X71.2000 Y96.8000 E0.3219
G1 X71.2000 Y93.2000 E0.4512
G1 X70.7200 Y92.7200 F3000 ; custom feedrate
G92 E0.0000
G1 X74.3600 Y92.7200 E0.1308 F1440 ; custom feedrate
G1 X74.3600 Y97.2800 E0.2946
G1 X70.7200 Y97.2800 E0.4253
G1 X70.7200 Y92.7200 E0.5891
G1 X70.2400 Y92.2400 F3000 ; custom feedrate
G92 E0.0000
G1 X74.8400 Y92.2400 E0.1652 F1080 ; custom feedrate
G1 X74.8400 Y97.7600 E0.3635
G1 X70.2400 Y97.7600 E0.5288
G1 X70.2400 Y92.2400 E0.7271
G92 E0.0000
G1 E-5 F3000 ; custom retraction
;zhop1
G1 X74.8400 Y92.3410 F3000 ; custom feedrate
G1 X113.1600 Y92.2400
G1 X113.1600 Y93.1790
G1 X114.1200 Y93.2000
G1 Z2.200 F1200
G1 E0 F3000 ; custom un-retraction/prime
G92 E0.0000
G1 X121.8000 Y93.2000 E0.2759 F1440 ; custom feedrate
G1 X121.8000 Y96.8000 E0.4052
G1 X114.1200 Y96.8000 E0.6811
G1 X114.1200 Y93.2000 E0.8104
G1 X113.6400 Y92.7200 F3000 ; custom feedrate
G92 E0.0000
G1 X122.2800 Y92.7200 E0.3104 F1440 ; custom feedrate
G1 X122.2800 Y97.2800 E0.4742
G1 X113.6400 Y97.2800 E0.7845
G1 X113.6400 Y92.7200 E0.9483
G1 X113.1600 Y92.2400 F3000 ; custom feedrate
G92 E0.0000
G1 X122.7600 Y92.2400 E0.3449 F1080 ; custom feedrate
G1 X122.7600 Y97.7600 E0.5431
G1 X113.1600 Y97.7600 E0.8880
G1 X113.1600 Y92.2400 E1.0863
G1 X114.7610 Y93.5480 F3000 ; custom feedrate
G92 E0.0000
G1 X117.6650 Y96.4520 E0.1844 F1800 ; custom feedrate
G1 X121.4520 Y96.4520 E0.3544
G1 X121.4520 Y95.9960 E0.3749
G1 X119.0040 Y93.5480 E0.5304
G92 E0.0000
G1 E-5 F3000 ; custom retraction
;layer 12, Z = 2.400
;fan12;
G1 Z2.400 F1200
G1 X121.8000 Y93.2000 F3000 ; custom feedrate
G1 E0 F3000 ; custom un-retraction/prime
G92 E0.0000
G1 X121.8000 Y96.8000 E0.1293 F1440 ; custom feedrate
G1 X114.0860 Y96.8000 E0.4064
G1 X114.0860 Y93.2000 E0.5357
G1 X121.8000 Y93.2000 E0.8128
G1 X122.2800 Y92.7200 F3000 ; custom feedrate
G92 E0.0000
G1 X122.2800 Y97.2800 E0.1638 F1440 ; custom feedrate
G1 X113.6060 Y97.2800 E0.4754
G1 X113.6060 Y92.7200 E0.6392
G1 X122.2800 Y92.7200 E0.9507
G1 X122.7600 Y92.2400 F3000 ; custom feedrate
G92 E0.0000
G1 X122.7600 Y97.7600 E0.1983 F1080 ; custom feedrate
G1 X113.1260 Y97.7600 E0.5443
G1 X113.1260 Y92.2400 E0.7426
G1 X122.7600 Y92.2400 E1.0887
G1 X119.0040 Y96.4520 F3000 ; custom feedrate
G92 E0.0000
G1 X121.4520 Y94.0040 E0.1555 F1800 ; custom feedrate
G1 X121.4520 Y93.5480 E0.1759
G1 X117.6650 Y93.5480 E0.3460
G1 X114.7610 Y96.4520 E0.5304
G92 E0.0000
G1 E-5 F3000 ; custom retraction
;zhop1
G1 X73.9140 Y96.8000 F3000 ; custom feedrate
G1 Z2.400 F1200
G1 E0 F3000 ; custom un-retraction/prime
G92 E0.0000
G1 X71.2000 Y96.8000 E0.0975 F1440 ; custom feedrate
G1 X71.2000 Y93.2000 E0.2268
G1 X73.9140 Y93.2000 E0.3243
G1 X73.9140 Y96.8000 E0.4536
G1 X74.3940 Y97.2800 F3000 ; custom feedrate
G92 E0.0000
G1 X70.7200 Y97.2800 E0.1320 F1440 ; custom feedrate
G1 X70.7200 Y92.7200 E0.2958
G1 X74.3940 Y92.7200 E0.4277
G1 X74.3940 Y97.2800 E0.5915
G1 X74.8740 Y97.7600 F3000 ; custom feedrate
G92 E0.0000
G1 X70.2400 Y97.7600 E0.1664 F1080 ; custom feedrate
G1 X70.2400 Y92.2400 E0.3647
G1 X74.8740 Y92.2400 E0.5312
G1 X74.8740 Y97.7600 E0.7294
G92 E0.0000
G1 E-5 F3000 ; custom retraction
;zhop1
G1 X67.0540 Y95.5540 F3000 ; custom feedrate
G1 Z2.400 F1200
G1 E0 F3000 ; custom un-retraction/prime
G92 E0.0000
G1 X65.9460 Y95.5540 E0.0398 F1080 ; custom feedrate
G1 X65.9460 Y94.4460 E0.0796
G1 X67.0540 Y94.4460 E0.1194
G1 X67.0540 Y95.5540 E0.1592
G1 X66.7560 Y94.7340 F3000 ; custom feedrate
G92 E0.0000
G1 X66.2340 Y95.2560 E0.0265 F1800 ; custom feedrate
G92 E0.0000
G1 E-5 F3000 ; custom retraction
;layer 13, Z = 2.600
;fan13;
G1 Z2.600 F1200
G1 X65.9780 Y95.5220 F3000 ; custom feedrate
G1 E0 F3000 ; custom un-retraction/prime
G92 E0.0000
G1 X65.9780 Y94.4780 E0.0375 F1080 ; custom feedrate
G1 X67.0220 Y94.4780 E0.0751
G1 X67.0220 Y95.5220 E0.1126
G1 X65.9780 Y95.5220 E0.1501
G1 X66.2660 Y94.7760 F3000 ; custom feedrate
G92 E0.0000
G1 X66.7240 Y95.2340 E0.0233 F1800 ; custom feedrate
G92 E0.0000
G1 E-5 F3000 ; custom retraction
;zhop1
G1 X67.0220 Y95.3390 F3000 ; custom feedrate
G1 X67.0220 Y95.5220
G1 X70.2400 Y96.4640
G1 X71.2000 Y96.8000
G1 Z2.600 F1200
G1 E0 F3000 ; custom un-retraction/prime
G92 E0.0000
G1 X71.2000 Y93.2000 E0.1293 F1440 ; custom feedrate
G1 X73.9500 Y93.2000 E0.2281
G1 X73.9500 Y96.8000 E0.3574
G1 X71.2000 Y96.8000 E0.4562
G1 X70.7200 Y97.2800 F3000 ; custom feedrate
G92 E0.0000
G1 X70.7200 Y92.7200 E0.1638 F1440 ; custom feedrate
G1 X74.4300 Y92.7200 E0.2971
G1 X74.4300 Y97.2800 E0.4609
G1 X70.7200 Y97.2800 E0.5941
G1 X70.2400 Y97.7600 F3000 ; custom feedrate
G92 E0.0000
G1 X70.2400 Y92.2400 E0.1983 F1080 ; custom feedrate
G1 X74.9100 Y92.2400 E0.3660
G1 X74.9100 Y97.7600 E0.5643
G1 X70.2400 Y97.7600 E0.7321
G92 E0.0000
G1 E-5 F3000 ; custom retraction
;zhop1
G1 X74.9100 Y97.6580 F3000 ; custom feedrate
G1 X113.0900 Y97.7600
G1 X113.0900 Y96.8210
G1 X114.0500 Y96.8000
G1 Z2.600 F1200
G1 E0 F3000 ; custom un-retraction/prime
G92 E0.0000
G1 X114.0500 Y93.2000 E0.1293 F1440 ; custom feedrate
G1 X121.8000 Y93.2000 E0.4077
G1 X121.8000 Y96.8000 E0.5370
G1 X114.0500 Y96.8000 E0.8154
G1 X113.5700 Y97.2800 F3000 ; custom feedrate
G92 E0.0000
G1 X113.5700 Y92.7200 E0.1638 F1440 ; custom feedrate
G1 X122.2800 Y92.7200 E0.4767
G1 X122.2800 Y97.2800 E0.6405
G1 X113.5700 Y97.2800 E0.9534
G1 X113.0900 Y97.7600 F3000 ; custom feedrate
G92 E0.0000
G1 X113.0900 Y92.2400 E0.1983 F1080 ; custom feedrate
G1 X122.7600 Y92.2400 E0.5456
G1 X122.7600 Y97.7600 E0.7439
G1 X113.0900 Y97.7600 E1.0913
G1 X114.7610 Y93.5480 F3000 ; custom feedrate
G92 E0.0000
G1 X117.6650 Y96.4520 E0.1844 F1800 ; custom feedrate
G1 X121.4520 Y96.4520 E0.3544
G1 X121.4520 Y95.9960 E0.3749
G1 X119.0040 Y93.5480 E0.5304
G92 E0.0000
G1 E-5 F3000 ; custom retraction
;layer 14, Z = 2.800
;fan14;
G1 Z2.800 F1200
G1 X121.8000 Y93.2000 F3000 ; custom feedrate
G1 E0 F3000 ; custom un-retraction/prime
G92 E0.0000
G1 X121.8000 Y96.8000 E0.1293 F1440 ; custom feedrate
G1 X114.0070 Y96.8000 E0.4093
G1 X114.0070 Y93.2000 E0.5386
G1 X121.8000 Y93.2000 E0.8185
G1 X122.2800 Y92.7200 F3000 ; custom feedrate
G92 E0.0000
G1 X122.2800 Y97.2800 E0.1638 F1440 ; custom feedrate
G1 X113.5270 Y97.2800 E0.4782
G1 X113.5270 Y92.7200 E0.6420
G1 X122.2800 Y92.7200 E0.9565
G1 X122.7600 Y92.2400 F3000 ; custom feedrate
G92 E0.0000
G1 X122.7600 Y97.7600 E0.1983 F1080 ; custom feedrate
G1 X113.0470 Y97.7600 E0.5472
G1 X113.0470 Y92.2400 E0.7455
G1 X122.7600 Y92.2400 E1.0944
G1 X119.0040 Y96.4520 F3000 ; custom feedrate
G92 E0.0000
G1 X121.4520 Y94.0040 E0.1555 F1800 ; custom feedrate
G1 X121.4520 Y93.5480 E0.1759
G1 X117.6650 Y93.5480 E0.3460
G1 X114.7610 Y96.4520 E0.5304
G92 E0.0000
G1 E-5 F3000 ; custom retraction
;zhop1
G1 X73.9930 Y96.8000 F3000 ; custom feedrate
G1 Z2.800 F1200
G1 E0 F3000 ; custom un-retraction/prime
G92 E0.0000
G1 X71.2000 Y96.8000 E0.1003 F1440 ; custom feedrate
G1 X71.2000 Y93.2000 E0.2297
G1 X73.9930 Y93.2000 E0.3300
G1 X73.9930 Y96.8000 E0.4593
G1 X74.4730 Y97.2800 F3000 ; custom feedrate
G92 E0.0000
G1 X70.7200 Y97.2800 E0.1348 F1440 ; custom feedrate
G1 X70.7200 Y92.7200 E0.2986
G1 X74.4730 Y92.7200 E0.4334
G1 X74.4730 Y97.2800 E0.5972
G1 X74.9530 Y97.7600 F3000 ; custom feedrate
G92 E0.0000
G1 X70.2400 Y97.7600 E0.1693 F1080 ; custom feedrate
G1 X70.2400 Y92.2400 E0.3676
G1 X74.9530 Y92.2400 E0.5369
G1 X74.9530 Y97.7600 E0.7352
G92 E0.0000
G1 E-5 F3000 ; custom retraction
;zhop1
G1 X66.9910 Y95.4910 F3000 ; custom feedrate
G1 Z2.800 F1200
G1 E0 F3000 ; custom un-retraction/prime
G92 E0.0000
G1 X66.0090 Y95.4910 E0.0353 F1080 ; custom feedrate
G1 X66.0090 Y94.5090 E0.0705
G1 X66.9910 Y94.5090 E0.1058
G1 X66.9910 Y95.4910 E0.1410
G1 X66.2970 Y95.1920 F3000 ; custom feedrate
G92 E0.0000
G1 X66.6920 Y94.7970 E0.0201 F1800 ; custom feedrate
G92 E0.0000
G1 E-5 F3000 ; custom retraction
;layer 15, Z = 3.000
;fan15;
G1 Z3.000 F1200
G1 X66.9590 Y94.5410 F3000 ; custom feedrate
G1 E0 F3000 ; custom un-retraction/prime
G92 E0.0000
G1 X66.9590 Y95.4590 E0.0330 F1080 ; custom feedrate
G1 X66.0410 Y95.4590 E0.0660
G1 X66.0410 Y94.5410 E0.0989
G1 X66.9590 Y94.5410 E0.1319
G1 X66.6610 Y95.1710 F3000 ; custom feedrate
G92 E0.0000
G1 X66.3290 Y94.8390 E0.0168 F1800 ; custom feedrate
G92 E0.0000
G1 E-5 F3000 ; custom retraction
;zhop1
G1 X66.9590 Y94.6270 F3000 ; custom feedrate
G1 X66.9590 Y94.5410
G1 X70.2400 Y93.5230
G1 X71.2000 Y93.2000
G1 Z3.000 F1200
G1 E0 F3000 ; custom un-retraction/prime
G92 E0.0000
G1 X74.0430 Y93.2000 E0.1021 F1440 ; custom feedrate
G1 X74.0430 Y96.8000 E0.2314
G1 X71.2000 Y96.8000 E0.3335
G1 X71.2000 Y93.2000 E0.4628
G1 X70.7200 Y92.7200 F3000 ; custom feedrate
G92 E0.0000
G1 X74.5230 Y92.7200 E0.1366 F1440 ; custom feedrate
G1 X74.5230 Y97.2800 E0.3004
G1 X70.7200 Y97.2800 E0.4370
G1 X70.7200 Y92.7200 E0.6008
G1 X70.2400 Y92.2400 F3000 ; custom feedrate
G92 E0.0000
G1 X75.0030 Y92.2400 E0.1711 F1080 ; custom feedrate
G1 X75.0030 Y97.7600 E0.3694
G1 X70.2400 Y97.7600 E0.5404
G1 X70.2400 Y92.2400 E0.7387
G92 E0.0000
G1 E-5 F3000 ; custom retraction
;zhop1
G1 X75.0030 Y92.3450 F3000 ; custom feedrate
G1 X112.9970 Y92.2400
G1 X112.9970 Y93.1790
G1 X113.9570 Y93.2000
G1 Z3.000 F1200
G1 E0 F3000 ; custom un-retraction/prime
G92 E0.0000
G1 X121.8000 Y93.2000 E0.2817 F1440 ; custom feedrate
G1 X121.8000 Y96.8000 E0.4110
G1 X113.9570 Y96.8000 E0.6927
G1 X113.9570 Y93.2000 E0.8221
G1 X113.4770 Y92.7200 F3000 ; custom feedrate
G92 E0.0000
G1 X122.2800 Y92.7200 E0.3162 F1440 ; custom feedrate
G1 X122.2800 Y97.2800 E0.4800
G1 X113.4770 Y97.2800 E0.7962
G1 X113.4770 Y92.7200 E0.9600
G1 X112.9970 Y92.2400 F3000 ; custom feedrate
G92 E0.0000
G1 X122.7600 Y92.2400 E0.3507 F1080 ; custom feedrate
G1 X122.7600 Y97.7600 E0.5490
G1 X112.9970 Y97.7600 E0.8996
G1 X112.9970 Y92.2400 E1.0979
G1 X114.7610 Y93.5480 F3000 ; custom feedrate
G92 E0.0000
G1 X117.6650 Y96.4520 E0.1844 F1800 ; custom feedrate
G1 X121.4520 Y96.4520 E0.3544
G1 X121.4520 Y95.9960 E0.3749
G1 X119.0040 Y93.5480 E0.5304
G92 E0.0000
G1 E-5 F3000 ; custom retraction
;layer 16, Z = 3.200
;fan16;
G1 Z3.200 F1200
G1 X121.8000 Y93.2000 F3000 ; custom feedrate
G1 E0 F3000 ; custom un-retraction/prime
G92 E0.0000
G1 X121.8000 Y96.8000 E0.1293 F1440 ; custom feedrate
G1 X113.9040 Y96.8000 E0.4129
G1 X113.9040 Y93.2000 E0.5423
G1 X121.8000 Y93.2000 E0.8259
G1 X122.2800 Y92.7200 F3000 ; custom feedrate
G92 E0.0000
G1 X122.2800 Y97.2800 E0.1638 F1440 ; custom feedrate
G1 X113.4240 Y97.2800 E0.4819
G1 X113.4240 Y92.7200 E0.6457
G1 X122.2800 Y92.7200 E0.9638
G1 X122.7600 Y92.2400 F3000 ; custom feedrate
G92 E0.0000
G1 X122.7600 Y97.7600 E0.1983 F1080 ; custom feedrate
G1 X112.9440 Y97.7600 E0.5509
G1 X112.9440 Y92.2400 E0.7492
G1 X122.7600 Y92.2400 E1.1017
G1 X119.0040 Y96.4520 F3000 ; custom feedrate
G92 E0.0000
G1 X121.4520 Y94.0040 E0.1555 F1800 ; custom feedrate
G1 X121.4520 Y93.5480 E0.1759
G1 X117.6650 Y93.5480 E0.3460
G1 X114.7610 Y96.4520 E0.5304
G92 E0.0000
G1 E-5 F3000 ; custom retraction
;zhop1
G1 X74.0960 Y96.8000 F3000 ; custom feedrate
G1 Z3.200 F1200
G1 E0 F3000 ; custom un-retraction/prime
G92 E0.0000
G1 X71.2000 Y96.8000 E0.1040 F1440 ; custom feedrate
G1 X71.2000 Y93.2000 E0.2333
G1 X74.0960 Y93.2000 E0.3373
G1 X74.0960 Y96.8000 E0.4667
G1 X74.5760 Y97.2800 F3000 ; custom feedrate
G92 E0.0000
G1 X70.7200 Y97.2800 E0.1385 F1440 ; custom feedrate
G1 X70.7200 Y92.7200 E0.3023
G1 X74.5760 Y92.7200 E0.4408
G1 X74.5760 Y97.2800 E0.6046
G1 X75.0560 Y97.7600 F3000 ; custom feedrate
G92 E0.0000
G1 X70.2400 Y97.7600 E0.1730 F1080 ; custom feedrate
G1 X70.2400 Y92.2400 E0.3713
G1 X75.0560 Y92.2400 E0.5442
G1 X75.0560 Y97.7600 E0.7425
G92 E0.0000
G1 E-5 F3000 ; custom retraction
;zhop1
G1 X70.2400 Y96.3780 F3000 ; custom feedrate
G1 X66.9270 Y95.4270
G1 Z3.200 F1200
G1 E0 F3000 ; custom un-retraction/prime
G92 E0.0000
G1 X66.0730 Y95.4270 E0.0307 F1080 ; custom feedrate
G1 X66.0730 Y94.5730 E0.0614
G1 X66.9270 Y94.5730 E0.0921
G1 X66.9270 Y95.4270 E0.1228
G1 X66.3610 Y95.1290 F3000 ; custom feedrate
G92 E0.0000
G1 X66.6290 Y94.8610 E0.0136 F1800 ; custom feedrate
G92 E0.0000
G1 E-5 F3000 ; custom retraction
;layer 17, Z = 3.400
;fan17;
G1 Z3.400 F1200
G1 X66.8960 Y94.6040 F3000 ; custom feedrate
G1 E0 F3000 ; custom un-retraction/prime
G92 E0.0000
G1 X66.8960 Y95.3960 E0.0284 F1080 ; custom feedrate
G1 X66.1040 Y95.3960 E0.0569
G1 X66.1040 Y94.6040 E0.0853
G1 X66.8960 Y94.6040 E0.1137
G1 X66.5970 Y95.1080 F3000 ; custom feedrate
G92 E0.0000
G1 X66.3920 Y94.9030 E0.0104 F1800 ; custom feedrate
G92 E0.0000
G1 E-5 F3000 ; custom retraction
;zhop1
G1 X66.8960 Y94.7250 F3000 ; custom feedrate
G1 X66.8960 Y94.6040
G1 X70.2400 Y93.5400
G1 X71.2000 Y93.2000
G1 Z3.400 F1200
G1 E0 F3000 ; custom un-retraction/prime
G92 E0.0000
G1 X74.1570 Y93.2000 E0.1062 F1440 ; custom feedrate
G1 X74.1570 Y96.8000 E0.2355
G1 X71.2000 Y96.8000 E0.3418
G1 X71.2000 Y93.2000 E0.4711
G1 X70.7200 Y92.7200 F3000 ; custom feedrate
G92 E0.0000
G1 X74.6370 Y92.7200 E0.1407 F1440 ; custom feedrate
G1 X74.6370 Y97.2800 E0.3045
G1 X70.7200 Y97.2800 E0.4452
G1 X70.7200 Y92.7200 E0.6090
G1 X70.2400 Y92.2400 F3000 ; custom feedrate
G92 E0.0000
G1 X75.1170 Y92.2400 E0.1752 F1080 ; custom feedrate
G1 X75.1170 Y97.7600 E0.3735
G1 X70.2400 Y97.7600 E0.5487
G1 X70.2400 Y92.2400 E0.7470
G92 E0.0000
G1 E-5 F3000 ; custom retraction
;zhop1
G1 X75.1170 Y92.3470 F3000 ; custom feedrate
G1 X112.8830 Y92.2400
G1 X112.8830 Y93.1790
G1 X113.8430 Y93.2000
G1 Z3.400 F1200
G1 E0 F3000 ; custom un-retraction/prime
G92 E0.0000
G1 X121.8000 Y93.2000 E0.2858 F1440 ; custom feedrate
G1 X121.8000 Y96.8000 E0.4151
G1 X113.8430 Y96.8000 E0.7010
G1 X113.8430 Y93.2000 E0.8303
G1 X113.3630 Y92.7200 F3000 ; custom feedrate
G92 E0.0000
G1 X122.2800 Y92.7200 E0.3203 F1440 ; custom feedrate
G1 X122.2800 Y97.2800 E0.4841
G1 X113.3630 Y97.2800 E0.8044
G1 X113.3630 Y92.7200 E0.9682
G1 X112.8830 Y92.2400 F3000 ; custom feedrate
G92 E0.0000
G1 X122.7600 Y92.2400 E0.3548 F1080 ; custom feedrate
G1 X122.7600 Y97.7600 E0.5531
G1 X112.8830 Y97.7600 E0.9079
G1 X112.8830 Y92.2400 E1.1062
G1 X114.7610 Y93.5480 F3000 ; custom feedrate
G92 E0.0000
G1 X117.6650 Y96.4520 E0.1844 F1800 ; custom feedrate
G1 X121.4520 Y96.4520 E0.3544
G1 X121.4520 Y95.9960 E0.3749
G1 X119.0040 Y93.5480 E0.5304
G92 E0.0000
G1 E-5 F3000 ; custom retraction
;layer 18, Z = 3.600
;fan18;
G1 Z3.600 F1200
G1 X121.8000 Y93.2000 F3000 ; custom feedrate
G1 E0 F3000 ; custom un-retraction/prime
G92 E0.0000
G1 X121.8000 Y96.8000 E0.1293 F1440 ; custom feedrate
G1 X113.7760 Y96.8000 E0.4175
G1 X113.7760 Y93.2000 E0.5469
G1 X121.8000 Y93.2000 E0.8351
G1 X122.2800 Y92.7200 F3000 ; custom feedrate
G92 E0.0000
G1 X122.2800 Y97.2800 E0.1638 F1440 ; custom feedrate
G1 X113.2960 Y97.2800 E0.4865
G1 X113.2960 Y92.7200 E0.6503
G1 X122.2800 Y92.7200 E0.9730
G1 X122.7600 Y92.2400 F3000 ; custom feedrate
G92 E0.0000
G1 X122.7600 Y97.7600 E0.1983 F1080 ; custom feedrate
G1 X112.8160 Y97.7600 E0.5555
G1 X112.8160 Y92.2400 E0.7538
G1 X122.7600 Y92.2400 E1.1109
G1 X119.0040 Y96.4520 F3000 ; custom feedrate
G92 E0.0000
G1 X121.4520 Y94.0040 E0.1555 F1800 ; custom feedrate
G1 X121.4520 Y93.5480 E0.1759
G1 X117.6650 Y93.5480 E0.3460
G1 X114.7610 Y96.4520 E0.5304
G92 E0.0000
G1 E-5 F3000 ; custom retraction
;zhop1
G1 X74.2240 Y96.8000 F3000 ; custom feedrate
G1 Z3.600 F1200
G1 E0 F3000 ; custom un-retraction/prime
G92 E0.0000
G1 X71.2000 Y96.8000 E0.1086 F1440 ; custom feedrate
G1 X71.2000 Y93.2000 E0.2379
G1 X74.2240 Y93.2000 E0.3465
G1 X74.2240 Y96.8000 E0.4759
G1 X74.7040 Y97.2800 F3000 ; custom feedrate
G92 E0.0000
G1 X70.7200 Y97.2800 E0.1431 F1440 ; custom feedrate
G1 X70.7200 Y92.7200 E0.3069
G1 X74.7040 Y92.7200 E0.4500
G1 X74.7040 Y97.2800 E0.6138
G1 X75.1840 Y97.7600 F3000 ; custom feedrate
G92 E0.0000
G1 X70.2400 Y97.7600 E0.1776 F1080 ; custom feedrate
G1 X70.2400 Y92.2400 E0.3759
G1 X75.1840 Y92.2400 E0.5534
G1 X75.1840 Y97.7600 E0.7517
G92 E0.0000
G1 E-5 F3000 ; custom retraction
;zhop1
G1 X66.8640 Y95.3640 F3000 ; custom feedrate
G1 Z3.600 F1200
G1 E0 F3000 ; custom un-retraction/prime
G92 E0.0000
G1 X66.1360 Y95.3640 E0.0262 F1080 ; custom feedrate
G1 X66.1360 Y94.6360 E0.0523
G1 X66.8640 Y94.6360 E0.0785
G1 X66.8640 Y95.3640 E0.1046
G1 X66.4240 Y95.0660 F3000 ; custom feedrate
G92 E0.0000
G1 X66.5660 Y94.9240 E0.0072 F1800 ; custom feedrate
G92 E0.0000
G1 E-5 F3000 ; custom retraction
;layer 19, Z = 3.800
;fan19;
G1 Z3.800 F1200
G1 X66.8320 Y94.6680 F3000 ; custom feedrate
G1 E0 F3000 ; custom un-retraction/prime
G92 E0.0000
G1 X66.8320 Y95.3320 E0.0239 F1080 ; custom feedrate
G1 X66.1680 Y95.3320 E0.0478
G1 X66.1680 Y94.6680 E0.0716
G1 X66.8320 Y94.6680 E0.0955
G1 X66.4560 Y94.9660 F3000 ; custom feedrate
G92 E0.0000
G1 X66.5340 Y95.0440 E0.0040 F1800 ; custom feedrate
G92 E0.0000
G1 E-5 F3000 ; custom retraction
;zhop1
G1 X66.8320 Y95.1570 F3000 ; custom feedrate
G1 X66.8320 Y95.3320
G1 X70.2400 Y96.4390
G1 X71.2000 Y96.8000
G1 Z3.800 F1200
G1 E0 F3000 ; custom un-retraction/prime
G92 E0.0000
G1 X71.2000 Y93.2000 E0.1293 F1440 ; custom feedrate
G1 X74.2950 Y93.2000 E0.2405
G1 X74.2950 Y96.8000 E0.3698
G1 X71.2000 Y96.8000 E0.4810
G1 X70.7200 Y97.2800 F3000 ; custom feedrate
G92 E0.0000
G1 X70.7200 Y92.7200 E0.1638 F1440 ; custom feedrate
G1 X74.7750 Y92.7200 E0.3095
G1 X74.7750 Y97.2800 E0.4733
G1 X70.7200 Y97.2800 E0.6189
G1 X70.2400 Y97.7600 F3000 ; custom feedrate
G92 E0.0000
G1 X70.2400 Y92.2400 E0.1983 F1080 ; custom feedrate
G1 X75.2550 Y92.2400 E0.3784
G1 X75.2550 Y97.7600 E0.5767
G1 X70.2400 Y97.7600 E0.7568
G92 E0.0000
G1 E-5 F3000 ; custom retraction
;zhop1
G1 X75.2550 Y97.6490 F3000 ; custom feedrate
G1 X112.7450 Y97.7600
G1 X112.7450 Y96.8210
G1 X113.7050 Y96.8000
G1 Z3.800 F1200
G1 E0 F3000 ; custom un-retraction/prime
G92 E0.0000
G1 X113.7050 Y93.2000 E0.1293 F1440 ; custom feedrate
G1 X121.8000 Y93.2000 E0.4201
G1 X121.8000 Y96.8000 E0.5494
G1 X113.7050 Y96.8000 E0.8402
G1 X113.2250 Y97.2800 F3000 ; custom feedrate
G92 E0.0000
G1 X113.2250 Y92.7200 E0.1638 F1440 ; custom feedrate
G1 X122.2800 Y92.7200 E0.4891
G1 X122.2800 Y97.2800 E0.6529
G1 X113.2250 Y97.2800 E0.9781
G1 X112.7450 Y97.7600 F3000 ; custom feedrate
G92 E0.0000
G1 X112.7450 Y92.2400 E0.1983 F1080 ; custom feedrate
G1 X122.7600 Y92.2400 E0.5580
G1 X122.7600 Y97.7600 E0.7563
G1 X112.7450 Y97.7600 E1.1160
G1 X114.7610 Y93.5480 F3000 ; custom feedrate
G92 E0.0000
G1 X117.6650 Y96.4520 E0.1844 F1800 ; custom feedrate
G1 X121.4520 Y96.4520 E0.3544
G1 X121.4520 Y95.9960 E0.3749
G1 X119.0040 Y93.5480 E0.5304
G92 E0.0000
G1 E-5 F3000 ; custom retraction
;layer 20, Z = 4.000
;fan20;
G1 Z4.000 F1200
G1 X121.8000 Y93.2000 F3000 ; custom feedrate
G1 E0 F3000 ; custom un-retraction/prime
G92 E0.0000
G1 X121.8000 Y96.8000 E0.1293 F1440 ; custom feedrate
G1 X113.6240 Y96.8000 E0.4230
G1 X113.6240 Y93.2000 E0.5523
G1 X121.8000 Y93.2000 E0.8460
G1 X122.2800 Y92.7200 F3000 ; custom feedrate
G92 E0.0000
G1 X122.2800 Y97.2800 E0.1638 F1440 ; custom feedrate
G1 X113.1440 Y97.2800 E0.4920
G1 X113.1440 Y92.7200 E0.6558
G1 X122.2800 Y92.7200 E0.9839
G1 X122.7600 Y92.2400 F3000 ; custom feedrate
G92 E0.0000
G1 X122.7600 Y97.7600 E0.1983 F1080 ; custom feedrate
G1 X112.6640 Y97.7600 E0.5609
G1 X112.6640 Y92.2400 E0.7592
G1 X122.7600 Y92.2400 E1.1218
G1 X119.0040 Y96.4520 F3000 ; custom feedrate
G92 E0.0000
G1 X121.4520 Y94.0040 E0.1555 F1800 ; custom feedrate
G1 X121.4520 Y93.5480 E0.1759
G1 X117.6650 Y93.5480 E0.3460
G1 X114.7610 Y96.4520 E0.5304
G92 E0.0000
G1 E-5 F3000 ; custom retraction
;zhop1
G1 X74.3760 Y96.8000 F3000 ; custom feedrate
G1 Z4.000 F1200
G1 E0 F3000 ; custom un-retraction/prime
G92 E0.0000
G1 X71.2000 Y96.8000 E0.1141 F1440 ; custom feedrate
G1 X71.2000 Y93.2000 E0.2434
G1 X74.3760 Y93.2000 E0.3575
G1 X74.3760 Y96.8000 E0.4868
G1 X74.8560 Y97.2800 F3000 ; custom feedrate
G92 E0.0000
G1 X70.7200 Y97.2800 E0.1486 F1440 ; custom feedrate
G1 X70.7200 Y92.7200 E0.3124
G1 X74.8560 Y92.7200 E0.4609
G1 X74.8560 Y97.2800 E0.6247
G1 X75.3360 Y97.7600 F3000 ; custom feedrate
G92 E0.0000
G1 X70.2400 Y97.7600 E0.1830 F1080 ; custom feedrate
G1 X70.2400 Y92.2400 E0.3813
G1 X75.3360 Y92.2400 E0.5644
G1 X75.3360 Y97.7600 E0.7626
G92 E0.0000
G1 E-5 F3000 ; custom retraction
;zhop1
G1 X70.2400 Y96.2920 F3000 ; custom feedrate
G1 X66.8010 Y95.3010
G1 Z4.000 F1200
G1 E0 F3000 ; custom un-retraction/prime
G92 E0.0000
G1 X66.1990 Y95.3010 E0.0216 F1080 ; custom feedrate
G1 X66.1990 Y94.6990 E0.0432
G1 X66.8010 Y94.6990 E0.0648
G1 X66.8010 Y95.3010 E0.0864
G1 X66.4870 Y95.0020 F3000 ; custom feedrate
G92 E0.0000
G1 X66.5020 Y94.9870 E0.0008 F1800 ; custom feedrate
G92 E0.0000
G1 E-5 F3000 ; custom retraction
;layer 21, Z = 4.200
;fan21;
G1 Z4.200 F1200
G1 X66.7690 Y94.7310 F3000 ; custom feedrate
G1 E0 F3000 ; custom un-retraction/prime
G92 E0.0000
G1 X66.7690 Y95.2690 E0.0193 F1080 ; custom feedrate
G1 X66.2310 Y95.2690 E0.0387
G1 X66.2310 Y94.7310 E0.0580
G1 X66.7690 Y94.7310 E0.0773
G92 E0.0000
G1 E-5 F3000 ; custom retraction
;zhop1
G1 X71.2000 Y93.2000 F3000 ; custom feedrate
G1 Z4.200 F1200
G1 E0 F3000 ; custom un-retraction/prime
G92 E0.0000
G1 X74.4610 Y93.2000 E0.1171 F1440 ; custom feedrate
G1 X74.4610 Y96.8000 E0.2465
G1 X71.2000 Y96.8000 E0.3636
G1 X71.2000 Y93.2000 E0.4929
G1 X70.7200 Y92.7200 F3000 ; custom feedrate
G92 E0.0000
G1 X74.9410 Y92.7200 E0.1516 F1440 ; custom feedrate
G1 X74.9410 Y97.2800 E0.3154
G1 X70.7200 Y97.2800 E0.4671
G1 X70.7200 Y92.7200 E0.6309
G1 X70.2400 Y92.2400 F3000 ; custom feedrate
G92 E0.0000
G1 X75.4210 Y92.2400 E0.1861 F1080 ; custom feedrate
G1 X75.4210 Y97.7600 E0.3844
G1 X70.2400 Y97.7600 E0.5705
G1 X70.2400 Y92.2400 E0.7688
G92 E0.0000
G1 E-5 F3000 ; custom retraction
;zhop1
G1 X75.4210 Y92.3550 F3000 ; custom feedrate
G1 X112.5790 Y92.2400
G1 X112.5790 Y93.1790
G1 X113.5390 Y93.2000
G1 Z4.200 F1200
G1 E0 F3000 ; custom un-retraction/prime
G92 E0.0000
G1 X121.8000 Y93.2000 E0.2967 F1440 ; custom feedrate
G1 X121.8000 Y96.8000 E0.4261
G1 X113.5390 Y96.8000 E0.7228
G1 X113.5390 Y93.2000 E0.8521
G1 X113.0590 Y92.7200 F3000 ; custom feedrate
G92 E0.0000
G1 X122.2800 Y92.7200 E0.3312 F1440 ; custom feedrate
G1 X122.2800 Y97.2800 E0.4950
G1 X113.0590 Y97.2800 E0.8263
G1 X113.0590 Y92.7200 E0.9901
G1 X112.5790 Y92.2400 F3000 ; custom feedrate
G92 E0.0000
G1 X122.7600 Y92.2400 E0.3657 F1080 ; custom feedrate
G1 X122.7600 Y97.7600 E0.5640
G1 X112.5790 Y97.7600 E0.9297
G1 X112.5790 Y92.2400 E1.1280
G1 X114.7610 Y93.5480 F3000 ; custom feedrate
G92 E0.0000
G1 X117.6650 Y96.4520 E0.1844 F1800 ; custom feedrate
G1 X121.4520 Y96.4520 E0.3544
G1 X121.4520 Y95.9960 E0.3749
G1 X119.0040 Y93.5480 E0.5304
G92 E0.0000
G1 E-5 F3000 ; custom retraction
;layer 22, Z = 4.400
;fan22;
G1 Z4.400 F1200
G1 X121.8000 Y93.2000 F3000 ; custom feedrate
G1 E0 F3000 ; custom un-retraction/prime
G92 E0.0000
G1 X121.8000 Y96.8000 E0.1293 F1440 ; custom feedrate
G1 X113.4480 Y96.8000 E0.4293
G1 X113.4480 Y93.2000 E0.5587
G1 X121.8000 Y93.2000 E0.8587
G1 X122.2800 Y92.7200 F3000 ; custom feedrate
G92 E0.0000
G1 X122.2800 Y97.2800 E0.1638 F1440 ; custom feedrate
G1 X112.9680 Y97.2800 E0.4983
G1 X112.9680 Y92.7200 E0.6621
G1 X122.2800 Y92.7200 E0.9966
G1 X122.7600 Y92.2400 F3000 ; custom feedrate
G92 E0.0000
G1 X122.7600 Y97.7600 E0.1983 F1080 ; custom feedrate
G1 X112.4880 Y97.7600 E0.5673
G1 X112.4880 Y92.2400 E0.7656
G1 X122.7600 Y92.2400 E1.1345
G1 X119.0040 Y96.4520 F3000 ; custom feedrate
G92 E0.0000
G1 X121.4520 Y94.0040 E0.1555 F1800 ; custom feedrate
G1 X121.4520 Y93.5480 E0.1759
G1 X117.6650 Y93.5480 E0.3460
G1 X114.7610 Y96.4520 E0.5304
G92 E0.0000
G1 E-5 F3000 ; custom retraction
;zhop1
G1 X74.5520 Y96.8000 F3000 ; custom feedrate
G1 Z4.400 F1200
G1 E0 F3000 ; custom un-retraction/prime
G92 E0.0000
G1 X71.2000 Y96.8000 E0.1204 F1440 ; custom feedrate
G1 X71.2000 Y93.2000 E0.2497
G1 X74.5520 Y93.2000 E0.3701
G1 X74.5520 Y96.8000 E0.4995
G1 X75.0320 Y97.2800 F3000 ; custom feedrate
G92 E0.0000
G1 X70.7200 Y97.2800 E0.1549 F1440 ; custom feedrate
G1 X70.7200 Y92.7200 E0.3187
G1 X75.0320 Y92.7200 E0.4736
G1 X75.0320 Y97.2800 E0.6374
G1 X75.5120 Y97.7600 F3000 ; custom feedrate
G92 E0.0000
G1 X70.2400 Y97.7600 E0.1894 F1080 ; custom feedrate
G1 X70.2400 Y92.2400 E0.3877
G1 X75.5120 Y92.2400 E0.5771
G1 X75.5120 Y97.7600 E0.7753
G92 E0.0000
G1 E-5 F3000 ; custom retraction
;zhop1
G1 X70.2400 Y96.2440 F3000 ; custom feedrate
G1 X66.7370 Y95.2370
G1 Z4.400 F1200
G1 E0 F3000 ; custom un-retraction/prime
G92 E0.0000
G1 X66.2630 Y95.2370 E0.0171 F1080 ; custom feedrate
G1 X66.2630 Y94.7630 E0.0341
G1 X66.7370 Y94.7630 E0.0512
G1 X66.7370 Y95.2370 E0.0682
G92 E0.0000
G1 E-5 F3000 ; custom retraction
;layer 23, Z = 4.600
;fan23;
G1 Z4.600 F1200
G1 X66.7060 Y95.2060 F3000 ; custom feedrate
G1 E0 F3000 ; custom un-retraction/prime
G92 E0.0000
G1 X66.2940 Y95.2060 E0.0148 F1080 ; custom feedrate
G1 X66.2940 Y94.7940 E0.0295
G1 X66.7060 Y94.7940 E0.0443
G1 X66.7060 Y95.2060 E0.0591
G92 E0.0000
G1 E-5 F3000 ; custom retraction
;zhop1
G1 X71.2000 Y96.8000 F3000 ; custom feedrate
G1 Z4.600 F1200
G1 E0 F3000 ; custom un-retraction/prime
G92 E0.0000
G1 X71.2000 Y93.2000 E0.1293 F1440 ; custom feedrate
G1 X74.6540 Y93.2000 E0.2534
G1 X74.6540 Y96.8000 E0.3827
G1 X71.2000 Y96.8000 E0.5067
G1 X70.7200 Y97.2800 F3000 ; custom feedrate
G92 E0.0000
G1 X70.7200 Y92.7200 E0.1638 F1440 ; custom feedrate
G1 X75.1340 Y92.7200 E0.3223
G1 X75.1340 Y97.2800 E0.4861
G1 X70.7200 Y97.2800 E0.6447
G1 X70.2400 Y97.7600 F3000 ; custom feedrate
G92 E0.0000
G1 X70.2400 Y92.2400 E0.1983 F1080 ; custom feedrate
G1 X75.6140 Y92.2400 E0.3913
G1 X75.6140 Y97.7600 E0.5896
G1 X70.2400 Y97.7600 E0.7826
G92 E0.0000
G1 E-5 F3000 ; custom retraction
;zhop1
G1 X75.6140 Y97.6400 F3000 ; custom feedrate
G1 X112.3860 Y97.7600
G1 X112.3860 Y96.8210
G1 X113.3460 Y96.8000
G1 Z4.600 F1200
G1 E0 F3000 ; custom un-retraction/prime
G92 E0.0000
G1 X113.3460 Y93.2000 E0.1293 F1440 ; custom feedrate
G1 X121.8000 Y93.2000 E0.4330
G1 X121.8000 Y96.8000 E0.5623
G1 X113.3460 Y96.8000 E0.8660
G1 X112.8660 Y97.2800 F3000 ; custom feedrate
G92 E0.0000
G1 X112.8660 Y92.7200 E0.1638 F1440 ; custom feedrate
G1 X122.2800 Y92.7200 E0.5019
G1 X122.2800 Y97.2800 E0.6657
G1 X112.8660 Y97.2800 E1.0039
G1 X112.3860 Y97.7600 F3000 ; custom feedrate
G92 E0.0000
G1 X112.3860 Y92.2400 E0.1983 F1080 ; custom feedrate
G1 X122.7600 Y92.2400 E0.5709
G1 X122.7600 Y97.7600 E0.7692
G1 X112.3860 Y97.7600 E1.1418
G1 X114.7610 Y93.5480 F3000 ; custom feedrate
G92 E0.0000
G1 X117.6650 Y96.4520 E0.1844 F1800 ; custom feedrate
G1 X121.4520 Y96.4520 E0.3544
G1 X121.4520 Y95.9960 E0.3749
G1 X119.0040 Y93.5480 E0.5304
G92 E0.0000
G1 E-5 F3000 ; custom retraction
;layer 24, Z = 4.800
;fan24;
G1 Z4.800 F1200
G1 X121.8000 Y93.2000 F3000 ; custom feedrate
G1 E0 F3000 ; custom un-retraction/prime
G92 E0.0000
G1 X121.8000 Y96.8000 E0.1293 F1440 ; custom feedrate
G1 X113.2390 Y96.8000 E0.4368
G1 X113.2390 Y93.2000 E0.5662
G1 X121.8000 Y93.2000 E0.8737
G1 X122.2800 Y92.7200 F3000 ; custom feedrate
G92 E0.0000
G1 X122.2800 Y97.2800 E0.1638 F1440 ; custom feedrate
G1 X112.7590 Y97.2800 E0.5058
G1 X112.7590 Y92.7200 E0.6696
G1 X122.2800 Y92.7200 E1.0116
G1 X122.7600 Y92.2400 F3000 ; custom feedrate
G92 E0.0000
G1 X122.7600 Y97.7600 E0.1983 F1080 ; custom feedrate
G1 X112.2790 Y97.7600 E0.5748
G1 X112.2790 Y92.2400 E0.7731
G1 X122.7600 Y92.2400 E1.1495
G1 X119.0040 Y96.4520 F3000 ; custom feedrate
G92 E0.0000
G1 X121.4520 Y94.0040 E0.1555 F1800 ; custom feedrate
G1 X121.4520 Y93.5480 E0.1759
G1 X117.6650 Y93.5480 E0.3460
G1 X114.7610 Y96.4520 E0.5304
G92 E0.0000
G1 E-5 F3000 ; custom retraction
;zhop1
G1 X74.7610 Y96.8000 F3000 ; custom feedrate
G1 Z4.800 F1200
G1 E0 F3000 ; custom un-retraction/prime
G92 E0.0000
G1 X71.2000 Y96.8000 E0.1279 F1440 ; custom feedrate
G1 X71.2000 Y93.2000 E0.2572
G1 X74.7610 Y93.2000 E0.3851
G1 X74.7610 Y96.8000 E0.5145
G1 X75.2410 Y97.2800 F3000 ; custom feedrate
G92 E0.0000
G1 X70.7200 Y97.2800 E0.1624 F1440 ; custom feedrate
G1 X70.7200 Y92.7200 E0.3262
G1 X75.2410 Y92.7200 E0.4886
G1 X75.2410 Y97.2800 E0.6524
G1 X75.7210 Y97.7600 F3000 ; custom feedrate
G92 E0.0000
G1 X70.2400 Y97.7600 E0.1969 F1080 ; custom feedrate
G1 X70.2400 Y92.2400 E0.3952
G1 X75.7210 Y92.2400 E0.5921
G1 X75.7210 Y97.7600 E0.7903
G92 E0.0000
G1 E-5 F3000 ; custom retraction
;zhop1
G1 X70.2400 Y96.1930 F3000 ; custom feedrate
G1 X66.6740 Y95.1740
G1 Z4.800 F1200
G1 E0 F3000 ; custom un-retraction/prime
G92 E0.0000
G1 X66.3260 Y95.1740 E0.0125 F1080 ; custom feedrate
G1 X66.3260 Y94.8260 E0.0250
G1 X66.6740 Y94.8260 E0.0375
G1 X66.6740 Y95.1740 E0.0500
G92 E0.0000
G1 E-5 F3000 ; custom retraction
;layer 25, Z = 5.000
;fan25;
G1 Z5.000 F1200
G1 X66.6420 Y95.1420 F3000 ; custom feedrate
G1 E0 F3000 ; custom un-retraction/prime
G92 E0.0000
G1 X66.3580 Y95.1420 E0.0102 F1080 ; custom feedrate
G1 X66.3580 Y94.8580 E0.0204
G1 X66.6420 Y94.8580 E0.0307
G1 X66.6420 Y95.1420 E0.0409
G92 E0.0000
G1 E-5 F3000 ; custom retraction
;zhop1
G1 X71.2000 Y96.8000 F3000 ; custom feedrate
G1 Z5.000 F1200
G1 E0 F3000 ; custom un-retraction/prime
G92 E0.0000
G1 X71.2000 Y93.2000 E0.1293 F1440 ; custom feedrate
G1 X74.8750 Y93.2000 E0.2613
G1 X74.8750 Y96.8000 E0.3906
G1 X71.2000 Y96.8000 E0.5226
G1 X70.7200 Y97.2800 F3000 ; custom feedrate
G92 E0.0000
G1 X70.7200 Y92.7200 E0.1638 F1440 ; custom feedrate
G1 X75.3550 Y92.7200 E0.3303
G1 X75.3550 Y97.2800 E0.4941
G1 X70.7200 Y97.2800 E0.6606
G1 X70.2400 Y97.7600 F3000 ; custom feedrate
G92 E0.0000
G1 X70.2400 Y92.2400 E0.1983 F1080 ; custom feedrate
G1 X75.8350 Y92.2400 E0.3993
G1 X75.8350 Y97.7600 E0.5975
G1 X70.2400 Y97.7600 E0.7985
G92 E0.0000
G1 E-5 F3000 ; custom retraction
;zhop1
G1 X75.8350 Y97.6350 F3000 ; custom feedrate
G1 X112.1650 Y97.7600
G1 X112.1650 Y96.8210
G1 X113.1250 Y96.8000
G1 Z5.000 F1200
G1 E0 F3000 ; custom un-retraction/prime
G92 E0.0000
G1 X113.1250 Y93.2000 E0.1293 F1440 ; custom feedrate
G1 X121.8000 Y93.2000 E0.4409
G1 X121.8000 Y96.8000 E0.5702
G1 X113.1250 Y96.8000 E0.8818
G1 X112.6450 Y97.2800 F3000 ; custom feedrate
G92 E0.0000
G1 X112.6450 Y92.7200 E0.1638 F1440 ; custom feedrate
G1 X122.2800 Y92.7200 E0.5099
G1 X122.2800 Y97.2800 E0.6737
G1 X112.6450 Y97.2800 E1.0198
G1 X112.1650 Y97.7600 F3000 ; custom feedrate
G92 E0.0000
G1 X112.1650 Y92.2400 E0.1983 F1080 ; custom feedrate
G1 X122.7600 Y92.2400 E0.5789
G1 X122.7600 Y97.7600 E0.7771
G1 X112.1650 Y97.7600 E1.1577
G1 X114.7610 Y93.5480 F3000 ; custom feedrate
G92 E0.0000
G1 X117.6650 Y96.4520 E0.1844 F1800 ; custom feedrate
G1 X121.4520 Y96.4520 E0.3544
G1 X121.4520 Y95.9960 E0.3749
G1 X119.0040 Y93.5480 E0.5304
G92 E0.0000
G1 E-5 F3000 ; custom retraction
;layer 26, Z = 5.200
;fan26;
G1 Z5.200 F1200
G1 X121.8000 Y93.2000 F3000 ; custom feedrate
G1 E0 F3000 ; custom un-retraction/prime
G92 E0.0000
G1 X121.8000 Y96.8000 E0.1293 F1440 ; custom feedrate
G1 X113.0010 Y96.8000 E0.4454
G1 X113.0010 Y93.2000 E0.5747
G1 X121.8000 Y93.2000 E0.8908
G1 X122.2800 Y92.7200 F3000 ; custom feedrate
G92 E0.0000
G1 X122.2800 Y97.2800 E0.1638 F1440 ; custom feedrate
G1 X112.5210 Y97.2800 E0.5144
G1 X112.5210 Y92.7200 E0.6782
G1 X122.2800 Y92.7200 E1.0287
G1 X122.7600 Y92.2400 F3000 ; custom feedrate
G92 E0.0000
G1 X122.7600 Y97.7600 E0.1983 F1080 ; custom feedrate
G1 X112.0410 Y97.7600 E0.5833
G1 X112.0410 Y92.2400 E0.7816
G1 X122.7600 Y92.2400 E1.1667
G1 X121.4520 Y94.0040 F3000 ; custom feedrate
G92 E0.0000
G1 X119.0040 Y96.4520 E0.1555 F1800 ; custom feedrate
G1 X114.7610 Y96.4520 E0.3460
G1 X117.6650 Y93.5480 E0.5304
G1 X113.4230 Y93.5480 E0.7209
G1 X113.3490 Y93.6220 E0.7256
G92 E0.0000
G1 E-5 F3000 ; custom retraction
;zhop1
G1 X74.9990 Y93.2000 F3000 ; custom feedrate
G1 Z5.200 F1200
G1 E0 F3000 ; custom un-retraction/prime
G92 E0.0000
G1 X74.9990 Y96.8000 E0.1293 F1440 ; custom feedrate
G1 X71.2000 Y96.8000 E0.2658
G1 X71.2000 Y93.2000 E0.3951
G1 X74.9990 Y93.2000 E0.5316
G1 X75.4790 Y92.7200 F3000 ; custom feedrate
G92 E0.0000
G1 X75.4790 Y97.2800 E0.1638 F1440 ; custom feedrate
G1 X70.7200 Y97.2800 E0.3348
G1 X70.7200 Y92.7200 E0.4986
G1 X75.4790 Y92.7200 E0.6695
G1 X75.9590 Y92.2400 F3000 ; custom feedrate
G92 E0.0000
G1 X75.9590 Y97.7600 E0.1983 F1080 ; custom feedrate
G1 X70.2400 Y97.7600 E0.4037
G1 X70.2400 Y92.2400 E0.6020
G1 X75.9590 Y92.2400 E0.8075
G92 E0.0000
G1 E-5 F3000 ; custom retraction
;zhop1
G1 X66.6110 Y94.8890 F3000 ; custom feedrate
G1 Z5.200 F1200
G1 E0 F3000 ; custom un-retraction/prime
G92 E0.0000
G1 X66.6110 Y95.1110 E0.0079 F1080 ; custom feedrate
G1 X66.3890 Y95.1110 E0.0159
G1 X66.3890 Y94.8890 E0.0238
G1 X66.6110 Y94.8890 E0.0318
G92 E0.0000
G1 E-5 F3000 ; custom retraction
;layer 27, Z = 5.400
;fan27;
G1 Z5.400 F1200
G1 X66.5790 Y94.9210 F3000 ; custom feedrate
G1 E0 F3000 ; custom un-retraction/prime
G92 E0.0000
G1 X66.5790 Y95.0790 E0.0057 F1080 ; custom feedrate
G1 X66.4210 Y95.0790 E0.0113
G1 X66.4210 Y94.9210 E0.0170
G1 X66.5790 Y94.9210 E0.0227
G92 E0.0000
G1 E-5 F3000 ; custom retraction
;zhop1
G1 X71.2000 Y93.2000 F3000 ; custom feedrate
G1 Z5.400 F1200
G1 E0 F3000 ; custom un-retraction/prime
G92 E0.0000
G1 X75.1320 Y93.2000 E0.1412 F1440 ; custom feedrate
G1 X75.1320 Y96.8000 E0.2706
G1 X71.2000 Y96.8000 E0.4118
G1 X71.2000 Y93.2000 E0.5411
G1 X70.7200 Y92.7200 F3000 ; custom feedrate
G92 E0.0000
G1 X75.6120 Y92.7200 E0.1757 F1440 ; custom feedrate
G1 X75.6120 Y97.2800 E0.3395
G1 X70.7200 Y97.2800 E0.5153
G1 X70.7200 Y92.7200 E0.6791
G1 X70.2400 Y92.2400 F3000 ; custom feedrate
G92 E0.0000
G1 X76.0920 Y92.2400 E0.2102 F1080 ; custom feedrate
G1 X76.0920 Y97.7600 E0.4085
G1 X70.2400 Y97.7600 E0.6187
G1 X70.2400 Y92.2400 E0.8170
G92 E0.0000
G1 E-5 F3000 ; custom retraction
;zhop1
G1 X76.0920 Y92.3720 F3000 ; custom feedrate
G1 X111.9080 Y92.2400
G1 X111.9080 Y93.1780
G1 X112.8680 Y93.2000
G1 Z5.400 F1200
G1 E0 F3000 ; custom un-retraction/prime
G92 E0.0000
G1 X121.8000 Y93.2000 E0.3209 F1440 ; custom feedrate
G1 X121.8000 Y96.8000 E0.4502
G1 X112.8680 Y96.8000 E0.7710
G1 X112.8680 Y93.2000 E0.9003
G1 X112.3880 Y92.7200 F3000 ; custom feedrate
G92 E0.0000
G1 X122.2800 Y92.7200 E0.3553 F1440 ; custom feedrate
G1 X122.2800 Y97.2800 E0.5191
G1 X112.3880 Y97.2800 E0.8745
G1 X112.3880 Y92.7200 E1.0383
G1 X111.9080 Y92.2400 F3000 ; custom feedrate
G92 E0.0000
G1 X122.7600 Y92.2400 E0.3898 F1080 ; custom feedrate
G1 X122.7600 Y97.7600 E0.5881
G1 X111.9080 Y97.7600 E0.9779
G1 X111.9080 Y92.2400 E1.1762
G1 X113.4230 Y96.4520 F3000 ; custom feedrate
G92 E0.0000
G1 X113.2160 Y96.2450 E0.0131 F1800 ; custom feedrate
G1 X113.2160 Y93.5480 E0.1342
G1 X114.7610 Y93.5480 E0.2036
G1 X117.6650 Y96.4520 E0.3880
G1 X121.4520 Y96.4520 E0.5581
G1 X121.4520 Y95.9960 E0.5785
G1 X119.0040 Y93.5480 E0.7340
G92 E0.0000
G1 E-5 F3000 ; custom retraction
;layer 28, Z = 5.600
;fan28;
G1 Z5.600 F1200
G1 X121.8000 Y93.2000 F3000 ; custom feedrate
G1 E0 F3000 ; custom un-retraction/prime
G92 E0.0000
G1 X121.8000 Y96.8000 E0.1293 F1440 ; custom feedrate
G1 X112.7270 Y96.8000 E0.4552
G1 X112.7270 Y93.2000 E0.5846
G1 X121.8000 Y93.2000 E0.9105
G1 X122.2800 Y92.7200 F3000 ; custom feedrate
G92 E0.0000
G1 X122.2800 Y97.2800 E0.1638 F1440 ; custom feedrate
G1 X112.2470 Y97.2800 E0.5242
G1 X112.2470 Y92.7200 E0.6880
G1 X122.2800 Y92.7200 E1.0484
G1 X122.7600 Y92.2400 F3000 ; custom feedrate
G92 E0.0000
G1 X122.7600 Y97.7600 E0.1983 F1080 ; custom feedrate
G1 X111.7670 Y97.7600 E0.5932
G1 X111.7670 Y92.2400 E0.7915
G1 X122.7600 Y92.2400 E1.1864
G1 X121.4520 Y94.0040 F3000 ; custom feedrate
G92 E0.0000
G1 X119.0040 Y96.4520 E0.1555 F1800 ; custom feedrate
G1 X114.7610 Y96.4520 E0.3460
G1 X117.6650 Y93.5480 E0.5304
G1 X113.4230 Y93.5480 E0.7209
G1 X113.0750 Y93.8960 E0.7430
G92 E0.0000
G1 E-5 F3000 ; custom retraction
;zhop1
G1 X75.2730 Y93.2000 F3000 ; custom feedrate
G1 Z5.600 F1200
G1 E0 F3000 ; custom un-retraction/prime
G92 E0.0000
G1 X75.2730 Y96.8000 E0.1293 F1440 ; custom feedrate
G1 X71.2000 Y96.8000 E0.2756
G1 X71.2000 Y93.2000 E0.4049
G1 X75.2730 Y93.2000 E0.5513
G1 X75.7530 Y92.7200 F3000 ; custom feedrate
G92 E0.0000
G1 X75.7530 Y97.2800 E0.1638 F1440 ; custom feedrate
G1 X70.7200 Y97.2800 E0.3446
G1 X70.7200 Y92.7200 E0.5084
G1 X75.7530 Y92.7200 E0.6892
G1 X76.2330 Y92.2400 F3000 ; custom feedrate
G92 E0.0000
G1 X76.2330 Y97.7600 E0.1983 F1080 ; custom feedrate
G1 X70.2400 Y97.7600 E0.4136
G1 X70.2400 Y92.2400 E0.6119
G1 X76.2330 Y92.2400 E0.8271
G92 E0.0000
G1 E-5 F3000 ; custom retraction
;zhop1
G1 X66.5470 Y94.9530 F3000 ; custom feedrate
G1 Z5.600 F1200
G1 E0 F3000 ; custom un-retraction/prime
G92 E0.0000
G1 X66.5470 Y95.0470 E0.0034 F1080 ; custom feedrate
G1 X66.4530 Y95.0470 E0.0068
G1 X66.4530 Y94.9530 E0.0102
G1 X66.5470 Y94.9530 E0.0136
G92 E0.0000
G1 E-5 F3000 ; custom retraction
;layer 29, Z = 5.800
;fan29;
G1 Z5.800 F1200
G1 X66.5160 Y94.9840 F3000 ; custom feedrate
G1 E0 F3000 ; custom un-retraction/prime
G92 E0.0000
G1 X66.5160 Y95.0160 E0.0011 F1080 ; custom feedrate
G1 X66.4840 Y95.0160 E0.0022
G1 X66.4840 Y94.9840 E0.0034
G1 X66.5160 Y94.9840 E0.0045
G92 E0.0000
G1 E-5 F3000 ; custom retraction
;zhop1
G1 X70.9130 Y94.6950 F3000 ; custom feedrate
G1 Z5.800 F1200
G1 E0 F3000 ; custom un-retraction/prime
G92 E0.0000
G1 X71.2000 Y94.5300 E0.0119 F1440 ; custom feedrate
G1 X71.2000 Y93.2000 E0.0597
G1 X75.4230 Y93.2000 E0.2114
G1 X75.4230 Y96.8000 E0.3407
G1 X71.2000 Y96.8000 E0.4924
G1 X71.2000 Y95.4700 E0.5402
G1 X70.9130 Y95.3050 E0.5521
G1 X70.9130 Y94.6950 E0.5740
G1 X70.7200 Y94.2520 F3000 ; custom feedrate
G92 E0.0000
G1 X70.7200 Y92.7200 E0.0550 F1440 ; custom feedrate
G1 X75.9030 Y92.7200 E0.2412
G1 X75.9030 Y97.2800 E0.4050
G1 X70.7200 Y97.2800 E0.5912
G1 X70.7200 Y95.7480 E0.6463
G1 X70.4330 Y95.5830 E0.6582
G1 X70.4330 Y94.4170 E0.7000
G1 X70.7200 Y94.2520 E0.7119
G1 X70.2400 Y93.9740 F3000 ; custom feedrate
G92 E0.0000
G1 X70.2400 Y92.2400 E0.0623 F1080 ; custom feedrate
G1 X76.3830 Y92.2400 E0.2830
G1 X76.3830 Y97.7600 E0.4813
G1 X70.2400 Y97.7600 E0.7019
G1 X70.2400 Y96.0260 E0.7642
G1 X69.9530 Y95.8610 E0.7761
G1 X69.9530 Y94.1390 E0.8380
G1 X70.2400 Y93.9740 E0.8499
G92 E0.0000
G1 E-5 F3000 ; custom retraction
;zhop1
G1 X112.5770 Y93.2000 F3000 ; custom feedrate
G1 Z5.800 F1200
G1 E0 F3000 ; custom un-retraction/prime
G92 E0.0000
G1 X121.8000 Y93.2000 E0.3313 F1440 ; custom feedrate
G1 X121.8000 Y96.8000 E0.4606
G1 X112.5770 Y96.8000 E0.7919
G1 X112.5770 Y93.2000 E0.9213
G1 X112.0970 Y92.7200 F3000 ; custom feedrate
G92 E0.0000
G1 X122.2800 Y92.7200 E0.3658 F1440 ; custom feedrate
G1 X122.2800 Y97.2800 E0.5296
G1 X112.0970 Y97.2800 E0.8954
G1 X112.0970 Y92.7200 E1.0592
G1 X111.6170 Y92.2400 F3000 ; custom feedrate
G92 E0.0000
G1 X122.7600 Y92.2400 E0.4003 F1080 ; custom feedrate
G1 X122.7600 Y97.7600 E0.5986
G1 X111.6170 Y97.7600 E0.9989
G1 X111.6170 Y92.2400 E1.1971
G1 X113.4230 Y96.4520 F3000 ; custom feedrate
G92 E0.0000
G1 X112.9250 Y95.9540 E0.0316 F1800 ; custom feedrate
G1 X112.9250 Y93.5480 E0.1397
G1 X114.7610 Y93.5480 E0.2221
G1 X117.6650 Y96.4520 E0.4065
G1 X121.4520 Y96.4520 E0.5766
G1 X121.4520 Y95.9960 E0.5970
G1 X119.0040 Y93.5480 E0.7525
G92 E0.0000
G1 E-5 F3000 ; custom retraction
;layer 30, Z = 6.000
;fan30;
G1 Z6.000 F1200
G1 X121.8000 Y93.2000 F3000 ; custom feedrate
G1 E0 F3000 ; custom un-retraction/prime
G92 E0.0000
G1 X121.8000 Y96.8000 E0.1293 F1440 ; custom feedrate
G1 X112.4130 Y96.8000 E0.4665
G1 X112.4130 Y93.2000 E0.5958
G1 X121.8000 Y93.2000 E0.9330
G1 X122.2800 Y92.7200 F3000 ; custom feedrate
G92 E0.0000
G1 X122.2800 Y97.2800 E0.1638 F1440 ; custom feedrate
G1 X111.9330 Y97.2800 E0.5355
G1 X111.9330 Y92.7200 E0.6993
G1 X122.2800 Y92.7200 E1.0710
G1 X122.7600 Y92.2400 F3000 ; custom feedrate
G92 E0.0000
G1 X122.7600 Y97.7600 E0.1983 F1080 ; custom feedrate
G1 X111.4530 Y97.7600 E0.6044
G1 X111.4530 Y92.2400 E0.8027
G1 X122.7600 Y92.2400 E1.2089
G1 X121.4520 Y94.0040 F3000 ; custom feedrate
G92 E0.0000
G1 X119.0040 Y96.4520 E0.1555 F1800 ; custom feedrate
G1 X114.7610 Y96.4520 E0.3460
G1 X117.6650 Y93.5480 E0.5304
G1 X113.4230 Y93.5480 E0.7209
G1 X112.7610 Y94.2100 E0.7629
G92 E0.0000
G1 E-5 F3000 ; custom retraction
;zhop1
G1 X75.5870 Y93.2000 F3000 ; custom feedrate
G1 Z6.000 F1200
G1 E0 F3000 ; custom un-retraction/prime
G92 E0.0000
G1 X75.5870 Y96.8000 E0.1293 F1440 ; custom feedrate
G1 X71.2000 Y96.8000 E0.2869
G1 X71.2000 Y95.6330 E0.3288
G1 X70.6270 Y95.3050 E0.3525
G1 X70.6270 Y94.6950 E0.3744
G1 X71.2000 Y94.3670 E0.3982
G1 X71.2000 Y93.2000 E0.4401
G1 X75.5870 Y93.2000 E0.5976
G1 X76.0670 Y92.7200 F3000 ; custom feedrate
G92 E0.0000
G1 X76.0670 Y97.2800 E0.1638 F1440 ; custom feedrate
G1 X70.7200 Y97.2800 E0.3559
G1 X70.7200 Y95.9110 E0.4050
G1 X70.1470 Y95.5830 E0.4288
G1 X70.1470 Y94.4170 E0.4706
G1 X70.7200 Y94.0890 E0.4943
G1 X70.7200 Y92.7200 E0.5435
G1 X76.0670 Y92.7200 E0.7356
G1 X76.5470 Y92.2400 F3000 ; custom feedrate
G92 E0.0000
G1 X76.5470 Y97.7600 E0.1983 F1080 ; custom feedrate
G1 X70.2400 Y97.7600 E0.4248
G1 X70.2400 Y96.1890 E0.4813
G1 X69.6670 Y95.8610 E0.5050
G1 X69.6670 Y94.1390 E0.5668
G1 X70.2400 Y93.8100 E0.5905
G1 X70.2400 Y92.2400 E0.6470
G1 X76.5470 Y92.2400 E0.8735
G92 E0.0000
G1 E-5 F3000 ; custom retraction
;layer 31, Z = 6.200
;fan31;
G1 Z6.200 F1200
G1 X75.7620 Y93.2000 F3000 ; custom feedrate
G1 E0 F3000 ; custom un-retraction/prime
G92 E0.0000
G1 X75.7620 Y96.8000 E0.1293 F1440 ; custom feedrate
G1 X71.2000 Y96.8000 E0.2932
G1 X71.2000 Y95.7970 E0.3292
G1 X70.3420 Y95.3050 E0.3648
G1 X70.3420 Y94.6950 E0.3867
G1 X71.2000 Y94.2030 E0.4222
G1 X71.2000 Y93.2000 E0.4582
G1 X75.7620 Y93.2000 E0.6221
G1 X76.2420 Y92.7200 F3000 ; custom feedrate
G92 E0.0000
G1 X76.2420 Y97.2800 E0.1638 F1440 ; custom feedrate
G1 X70.7200 Y97.2800 E0.3622
G1 X70.7200 Y96.0750 E0.4054
G1 X69.8620 Y95.5830 E0.4410
G1 X69.8620 Y94.4170 E0.4829
G1 X70.7200 Y93.9250 E0.5184
G1 X70.7200 Y92.7200 E0.5617
G1 X76.2420 Y92.7200 E0.7600
G1 X76.7220 Y92.2400 F3000 ; custom feedrate
G92 E0.0000
G1 X76.7220 Y97.7600 E0.1983 F1080 ; custom feedrate
G1 X70.2400 Y97.7600 E0.4311
G1 X70.2400 Y96.3530 E0.4817
G1 X69.3820 Y95.8610 E0.5172
G1 X69.3820 Y94.1390 E0.5791
G1 X70.2400 Y93.6470 E0.6146
G1 X70.2400 Y92.2400 E0.6651
G1 X76.7220 Y92.2400 E0.8980
G1 X75.4650 Y93.7940 F3000 ; custom feedrate
G92 E0.0000
G1 X75.4740 Y93.8020 E0.0004 F1440 ; custom feedrate
G1 X75.4740 Y94.4810 E0.0248
G1 X75.4650 Y94.4720 E0.0253
G1 X75.4650 Y95.1510 E0.0497
G1 X75.4740 Y95.1600 E0.0501
G1 X75.4740 Y95.8390 E0.0745
G1 X75.4650 Y95.8300 E0.0749
G1 X75.4690 Y96.5120 E0.0995
G1 X70.9310 Y94.6890 F3000 ; custom feedrate
G92 E0.0000
G1 X71.0080 Y94.7670 E0.0039 F1440 ; custom feedrate
G1 X71.0080 Y95.3550 E0.0251
G1 X70.7960 Y95.2330 E0.0339
G1 X70.6300 Y95.0670 E0.0423
G92 E0.0000
G1 E-5 F3000 ; custom retraction
;zhop1
G1 X76.7220 Y95.3210 F3000 ; custom feedrate
G1 X76.7220 Y97.7600
G1 X111.2780 Y97.7600
G1 X111.2780 Y96.7600
G1 X112.2380 Y96.8000
G1 Z6.200 F1200
G1 E0 F3000 ; custom un-retraction/prime
G92 E0.0000
G1 X112.2380 Y93.2000 E0.1293 F1440 ; custom feedrate
G1 X121.8000 Y93.2000 E0.4728
G1 X121.8000 Y96.8000 E0.6021
G1 X112.2380 Y96.8000 E0.9456
G1 X111.7580 Y97.2800 F3000 ; custom feedrate
G92 E0.0000
G1 X111.7580 Y92.7200 E0.1638 F1440 ; custom feedrate
G1 X122.2800 Y92.7200 E0.5418
G1 X122.2800 Y97.2800 E0.7056
G1 X111.7580 Y97.2800 E1.0835
G1 X111.2780 Y97.7600 F3000 ; custom feedrate
G92 E0.0000
G1 X111.2780 Y92.2400 E0.1983 F1080 ; custom feedrate
G1 X122.7600 Y92.2400 E0.6107
G1 X122.7600 Y97.7600 E0.8090
G1 X111.2780 Y97.7600 E1.2215
G1 X112.5350 Y96.2430 F3000 ; custom feedrate
G92 E0.0000
G1 X112.5260 Y96.2340 E0.0004 F1440 ; custom feedrate
G1 X112.5260 Y95.5550 E0.0248
G1 X112.5350 Y95.5640 E0.0253
G1 X112.5350 Y94.8850 E0.0497
G1 X112.5260 Y94.8770 E0.0501
G1 X112.5260 Y94.1980 E0.0745
G1 X112.5350 Y94.2060 E0.0749
G1 X112.5350 Y93.5280 E0.0993
G1 X112.5260 Y93.5190 E0.0998
G1 X113.4230 Y96.4520 F3000 ; custom feedrate
G92 E0.0000
G1 X113.0750 Y96.1040 E0.0221 F1800 ; custom feedrate
G1 X113.0750 Y93.5480 E0.1369
G1 X114.7610 Y93.5480 E0.2126
G1 X117.6650 Y96.4520 E0.3970
G1 X121.4520 Y96.4520 E0.5670
G1 X121.4520 Y95.9960 E0.5875
G1 X119.0040 Y93.5480 E0.7430
G92 E0.0000
G1 E-5 F3000 ; custom retraction
;layer 32, Z = 6.400
;fan32;
G1 Z6.400 F1200
G1 X121.8000 Y93.2000 F3000 ; custom feedrate
G1 E0 F3000 ; custom un-retraction/prime
G92 E0.0000
G1 X121.8000 Y96.8000 E0.1293 F1440 ; custom feedrate
G1 X112.0510 Y96.8000 E0.4795
G1 X112.0510 Y93.2000 E0.6088
G1 X121.8000 Y93.2000 E0.9590
G1 X122.2800 Y92.7200 F3000 ; custom feedrate
G92 E0.0000
G1 X122.2800 Y97.2800 E0.1638 F1440 ; custom feedrate
G1 X111.5710 Y97.2800 E0.5485
G1 X111.5710 Y92.7200 E0.7123
G1 X122.2800 Y92.7200 E1.0970
G1 X122.7600 Y92.2400 F3000 ; custom feedrate
G92 E0.0000
G1 X122.7600 Y97.7600 E0.1983 F1080 ; custom feedrate
G1 X111.0910 Y97.7600 E0.6175
G1 X111.0910 Y92.2400 E0.8157
G1 X122.7600 Y92.2400 E1.2349
G1 X112.3390 Y93.9530 F3000 ; custom feedrate
G92 E0.0000
G1 X112.3850 Y93.9070 E0.0023 F1440 ; custom feedrate
G1 X112.3850 Y94.5860 E0.0267
G1 X112.3390 Y94.6320 E0.0290
G1 X112.3390 Y95.3110 E0.0534
G1 X112.3850 Y95.2650 E0.0557
G1 X112.3850 Y95.9440 E0.0801
G1 X112.3390 Y95.9890 E0.0825
G1 X112.9250 Y94.0460 F3000 ; custom feedrate
G92 E0.0000
G1 X113.4230 Y93.5480 E0.0316 F1800 ; custom feedrate
G1 X117.6650 Y93.5480 E0.2221
G1 X114.7610 Y96.4520 E0.4065
G1 X119.0040 Y96.4520 E0.5970
G1 X121.4520 Y94.0040 E0.7525
G92 E0.0000
G1 E-5 F3000 ; custom retraction
;zhop1
G1 X75.9490 Y93.2000 F3000 ; custom feedrate
G1 Z6.400 F1200
G1 E0 F3000 ; custom un-retraction/prime
G92 E0.0000
G1 X75.9490 Y96.8000 E0.1293 F1440 ; custom feedrate
G1 X71.2000 Y96.8000 E0.2999
G1 X71.2000 Y95.9610 E0.3300
G1 X70.0560 Y95.3050 E0.3774
G1 X70.0560 Y94.6950 E0.3993
G1 X71.2000 Y94.0390 E0.4467
G1 X71.2000 Y93.2000 E0.4768
G1 X75.9490 Y93.2000 E0.6474
G1 X76.4290 Y92.7200 F3000 ; custom feedrate
G92 E0.0000
G1 X76.4290 Y97.2800 E0.1638 F1440 ; custom feedrate
G1 X70.7200 Y97.2800 E0.3689
G1 X70.7200 Y96.2390 E0.4063
G1 X69.5760 Y95.5830 E0.4536
G1 X69.5760 Y94.4170 E0.4955
G1 X70.7200 Y93.7610 E0.5429
G1 X70.7200 Y92.7200 E0.5803
G1 X76.4290 Y92.7200 E0.7854
G1 X76.9090 Y92.2400 F3000 ; custom feedrate
G92 E0.0000
G1 X76.9090 Y97.7600 E0.1983 F1080 ; custom feedrate
G1 X70.2400 Y97.7600 E0.4378
G1 X70.2400 Y96.5170 E0.4825
G1 X69.0960 Y95.8610 E0.5299
G1 X69.0960 Y94.1390 E0.5917
G1 X70.2400 Y93.4830 E0.6391
G1 X70.2400 Y92.2400 E0.6837
G1 X76.9090 Y92.2400 E0.9233
G1 X75.6150 Y94.0200 F3000 ; custom feedrate
G92 E0.0000
G1 X75.6610 Y93.9740 E0.0023 F1440 ; custom feedrate
G1 X75.6610 Y94.6530 E0.0267
G1 X75.6150 Y94.6990 E0.0290
G1 X75.6150 Y95.3780 E0.0534
G1 X75.6610 Y95.3320 E0.0557
G1 X75.6610 Y96.0110 E0.0801
G1 X75.6150 Y96.0560 E0.0825
G1 X70.7210 Y94.8420 F3000 ; custom feedrate
G92 E0.0000
G1 X70.3950 Y95.1670 E0.0166 F1440 ; custom feedrate
G92 E0.0000
G1 E-5 F3000 ; custom retraction
;layer 33, Z = 6.600
;fan33;
G1 Z6.600 F1200
G1 X69.7700 Y95.3050 F3000 ; custom feedrate
G1 E0 F3000 ; custom un-retraction/prime
G92 E0.0000
G1 X69.7700 Y94.6950 E0.0219 F1440 ; custom feedrate
G1 X71.2000 Y93.8750 E0.0811
G1 X71.2000 Y93.2000 E0.1054
G1 X76.1500 Y93.2000 E0.2832
G1 X76.1500 Y96.8000 E0.4125
G1 X71.2000 Y96.8000 E0.5903
G1 X71.2000 Y96.1250 E0.6146
G1 X69.7700 Y95.3050 E0.6738
G1 X69.2900 Y95.5830 F3000 ; custom feedrate
G92 E0.0000
G1 X69.2900 Y94.4170 E0.0419 F1440 ; custom feedrate
G1 X70.7200 Y93.5970 E0.1011
G1 X70.7200 Y92.7200 E0.1326
G1 X76.6300 Y92.7200 E0.3449
G1 X76.6300 Y97.2800 E0.5087
G1 X70.7200 Y97.2800 E0.7210
G1 X70.7200 Y96.4030 E0.7525
G1 X69.2900 Y95.5830 E0.8117
G1 X68.8100 Y95.8610 F3000 ; custom feedrate
G92 E0.0000
G1 X68.8100 Y94.1390 E0.0619 F1080 ; custom feedrate
G1 X70.2400 Y93.3190 E0.1211
G1 X70.2400 Y92.2400 E0.1598
G1 X77.1100 Y92.2400 E0.4066
G1 X77.1100 Y97.7600 E0.6049
G1 X70.2400 Y97.7600 E0.8517
G1 X70.2400 Y96.6810 E0.8904
G1 X68.8100 Y95.8610 E0.9496
G1 X70.2910 Y94.7290 F3000 ; custom feedrate
G92 E0.0000
G1 X70.4350 Y94.8730 E0.0073 F1440 ; custom feedrate
G1 X75.8390 Y93.4880 F3000 ; custom feedrate
G92 E0.0000
G1 X75.8620 Y93.5120 E0.0012 F1440 ; custom feedrate
G1 X75.8620 Y94.1900 E0.0256
G1 X75.7790 Y94.1070 E0.0298
G1 X75.7790 Y94.7860 E0.0542
G1 X75.8620 Y94.8690 E0.0584
G1 X75.8620 Y95.5480 E0.0828
G1 X75.7790 Y95.4650 E0.0870
G1 X75.7790 Y96.1440 E0.1114
G1 X75.8620 Y96.2270 E0.1156
G92 E0.0000
G1 E-5 F3000 ; custom retraction
;zhop1
G1 X111.8500 Y96.8000 F3000 ; custom feedrate
G1 Z6.600 F1200
G1 E0 F3000 ; custom un-retraction/prime
G92 E0.0000
G1 X111.8500 Y93.2000 E0.1293 F1440 ; custom feedrate
G1 X121.8000 Y93.2000 E0.4867
G1 X121.8000 Y96.8000 E0.6161
G1 X111.8500 Y96.8000 E0.9735
G1 X111.3700 Y97.2800 F3000 ; custom feedrate
G92 E0.0000
G1 X111.3700 Y92.7200 E0.1638 F1440 ; custom feedrate
G1 X122.2800 Y92.7200 E0.5557
G1 X122.2800 Y97.2800 E0.7195
G1 X111.3700 Y97.2800 E1.1114
G1 X110.8900 Y97.7600 F3000 ; custom feedrate
G92 E0.0000
G1 X110.8900 Y92.2400 E0.1983 F1080 ; custom feedrate
G1 X122.7600 Y92.2400 E0.6247
G1 X122.7600 Y97.7600 E0.8230
G1 X110.8900 Y97.7600 E1.2493
G1 X112.1380 Y95.8460 F3000 ; custom feedrate
G92 E0.0000
G1 X112.2210 Y95.9290 E0.0042 F1440 ; custom feedrate
G1 X112.2210 Y95.2500 E0.0286
G1 X112.1380 Y95.1670 E0.0328
G1 X112.1380 Y94.4880 E0.0572
G1 X112.2210 Y94.5710 E0.0614
G1 X112.2210 Y93.8930 E0.0858
G1 X112.1380 Y93.8100 E0.0900
G1 X113.4230 Y96.4520 F3000 ; custom feedrate
G92 E0.0000
G1 X112.7610 Y95.7900 E0.0420 F1800 ; custom feedrate
G1 X112.7610 Y93.5480 E0.1427
G1 X114.7610 Y93.5480 E0.2325
G1 X117.6650 Y96.4520 E0.4169
G1 X121.4520 Y96.4520 E0.5870
G1 X121.4520 Y95.9960 E0.6074
G1 X119.0040 Y93.5480 E0.7629
G92 E0.0000
G1 E-5 F3000 ; custom retraction
;layer 34, Z = 6.800
;fan34;
G1 Z6.800 F1200
G1 X121.8000 Y93.2000 F3000 ; custom feedrate
G1 E0 F3000 ; custom un-retraction/prime
G92 E0.0000
G1 X121.8000 Y96.8000 E0.1293 F1440 ; custom feedrate
G1 X111.6330 Y96.8000 E0.4945
G1 X111.6330 Y93.2000 E0.6238
G1 X121.8000 Y93.2000 E0.9890
G1 X122.2800 Y92.7200 F3000 ; custom feedrate
G92 E0.0000
G1 X122.2800 Y97.2800 E0.1638 F1440 ; custom feedrate
G1 X111.1530 Y97.2800 E0.5635
G1 X111.1530 Y92.7200 E0.7273
G1 X122.2800 Y92.7200 E1.1270
G1 X122.7600 Y92.2400 F3000 ; custom feedrate
G92 E0.0000
G1 X122.7600 Y97.7600 E0.1983 F1080 ; custom feedrate
G1 X110.6730 Y97.7600 E0.6325
G1 X110.6730 Y92.2400 E0.8307
G1 X122.7600 Y92.2400 E1.2649
G1 X111.9210 Y93.6920 F3000 ; custom feedrate
G92 E0.0000
G1 X112.0460 Y93.5670 E0.0063 F1440 ; custom feedrate
G1 X112.0460 Y94.2460 E0.0307
G1 X111.9210 Y94.3710 E0.0371
G1 X111.9210 Y95.0490 E0.0614
G1 X112.0460 Y94.9250 E0.0678
G1 X112.0460 Y95.6030 E0.0922
G1 X111.9210 Y95.7280 E0.0985
