;FLAVOR:Marlin
;TIME:1594
;Filament used: 1.35215m
;Layer height: 0.2
;MINX:81
;MINY:81
;MINZ:0.3
;MAXX:109
;MAXY:109
;MAXZ:19.9
;Generated with Cura_SteamEngine 4.10.0
M140 S60
M105
M190 S60
M104 S205
M105
M109 S205
M82 ;absolute extrusion mode
G28 ;Home
G1 Z15.0 F6000 ;Move the platform down 15mm
;Prime the extruder
G92 E0
G1 F200 E3
G92 E0
G92 E0
G92 E0
G1 F1500 E-6.5
;LAYER_COUNT:100
;LAYER:0
M107
G0 F3600 X82.004 Y82.369 Z0.3
;TYPE:SKIRT
G1 F1500 E0
G1 F1200 X82.406 Y81.972 E0.02819
G1 X82.86 Y81.635 E0.0564
G1 X83.357 Y81.366 E0.08459
G1 X83.887 Y81.169 E0.1128
G1 X84.44 Y81.05 E0.14102
G1 X85.218 Y81.002 E0.17991
G1 X85.33 Y81 E0.1855
G1 X104.35 Y81 E1.13441
G1 X105.048 Y81.01 E1.16924
G1 X105.612 Y81.058 E1.19748
G1 X106.162 Y81.185 E1.22564
G1 X106.69 Y81.389 E1.25388
G1 X107.184 Y81.664 E1.28208
G1 X107.633 Y82.007 E1.31027
G1 X108.03 Y82.409 E1.33846
G1 X108.367 Y82.864 E1.36671
G1 X108.635 Y83.361 E1.39488
G1 X108.831 Y83.891 E1.42307
G1 X108.951 Y84.444 E1.4513
G1 X108.998 Y85.218 E1.48999
G1 X109 Y85.33 E1.49558
G1 X109 Y104.314 E2.44269
G1 X108.991 Y105.041 E2.47897
G1 X108.944 Y105.604 E2.50715
G1 X108.818 Y106.155 E2.53535
G1 X108.616 Y106.683 E2.56356
G1 X108.341 Y107.177 E2.59176
G1 X107.999 Y107.627 E2.61996
G1 X107.597 Y108.025 E2.64818
G1 X107.144 Y108.362 E2.67635
G1 X106.647 Y108.632 E2.70457
G1 X106.117 Y108.829 E2.73278
G1 X105.565 Y108.95 E2.76097
G1 X104.782 Y108.998 E2.80011
G1 X104.67 Y109 E2.8057
G1 X85.655 Y109 E3.75436
G1 X84.957 Y108.991 E3.78919
G1 X84.394 Y108.943 E3.81738
G1 X83.843 Y108.817 E3.84558
G1 X83.315 Y108.615 E3.87378
G1 X82.821 Y108.34 E3.90199
G1 X82.371 Y107.998 E3.93019
G1 X81.973 Y107.596 E3.95841
G1 X81.637 Y107.142 E3.98659
G1 X81.367 Y106.645 E4.01481
G1 X81.17 Y106.115 E4.04301
G1 X81.05 Y105.563 E4.0712
G1 X81.001 Y104.766 E4.11103
G1 X81 Y85.62 E5.06623
G1 X81.009 Y84.955 E5.09941
G1 X81.057 Y84.392 E5.1276
G1 X81.183 Y83.841 E5.1558
G1 X81.386 Y83.313 E5.18402
G1 X81.662 Y82.819 E5.21225
G1 X82.004 Y82.369 E5.24045
G0 F3600 X82.397 Y82.531
G1 F1200 X82.794 Y82.171 E5.26719
G1 X83.241 Y81.873 E5.29399
G1 X83.726 Y81.645 E5.32073
G1 X84.24 Y81.492 E5.34749
G1 X84.908 Y81.41 E5.38106
G1 X85.33 Y81.4 E5.40212
G1 X104.345 Y81.4 E6.35078
G1 X105.043 Y81.41 E6.38561
G1 X105.577 Y81.458 E6.41236
G1 X106.098 Y81.584 E6.4391
G1 X106.595 Y81.787 E6.46589
G1 X107.056 Y82.061 E6.49264
G1 X107.471 Y82.4 E6.51938
G1 X107.831 Y82.798 E6.54615
G1 X108.128 Y83.244 E6.57288
G1 X108.356 Y83.73 E6.59966
G1 X108.508 Y84.244 E6.62641
G1 X108.59 Y84.909 E6.65983
G1 X108.6 Y85.33 E6.68084
G1 X108.6 Y104.309 E7.62771
G1 X108.591 Y105.036 E7.66398
G1 X108.544 Y105.57 E7.69073
G1 X108.419 Y106.091 E7.71746
G1 X108.217 Y106.588 E7.74422
G1 X107.944 Y107.05 E7.771
G1 X107.606 Y107.466 E7.79774
G1 X107.209 Y107.827 E7.82451
G1 X106.763 Y108.125 E7.85127
G1 X106.278 Y108.353 E7.87801
G1 X105.764 Y108.507 E7.90478
G1 X105.092 Y108.59 E7.93856
G1 X104.67 Y108.6 E7.95962
G1 X85.661 Y108.6 E8.90798
G1 X84.963 Y108.591 E8.94281
G1 X84.428 Y108.544 E8.9696
G1 X83.907 Y108.418 E8.99634
G1 X83.41 Y108.216 E9.02311
G1 X82.949 Y107.943 E9.04984
G1 X82.533 Y107.604 E9.07661
G1 X82.172 Y107.208 E9.10334
G1 X81.874 Y106.762 E9.1301
G1 X81.646 Y106.276 E9.15689
G1 X81.493 Y105.762 E9.18364
G1 X81.41 Y105.088 E9.21752
G1 X81.4 Y104.658 E9.23898
G1 X81.4 Y85.625 E10.18854
G1 X81.409 Y84.96 E10.22172
G1 X81.457 Y84.426 E10.24847
G1 X81.583 Y83.905 E10.27521
G1 X81.785 Y83.408 E10.30198
G1 X82.058 Y82.947 E10.32871
G1 X82.397 Y82.531 E10.35548
G0 F3600 X82.454 Y83.082
G1 F1200 X82.789 Y82.704 E10.38068
G1 X83.18 Y82.383 E10.40592
G1 X83.617 Y82.128 E10.43116
G1 X84.088 Y81.944 E10.45639
G1 X84.582 Y81.838 E10.48159
G1 X85.24 Y81.801 E10.51447
G1 X104.339 Y81.8 E11.46733
G1 X105.037 Y81.81 E11.50215
G1 X105.54 Y81.857 E11.52736
G1 X106.03 Y81.983 E11.5526
G1 X106.494 Y82.185 E11.57785
G1 X106.92 Y82.457 E11.60306
G1 X107.298 Y82.792 E11.62826
G1 X107.618 Y83.183 E11.65347
G1 X107.873 Y83.62 E11.67871
G1 X108.056 Y84.091 E11.70392
G1 X108.163 Y84.585 E11.72914
G1 X108.199 Y85.24 E11.76186
G1 X108.2 Y104.304 E12.71297
G1 X108.191 Y105.031 E12.74924
G1 X108.145 Y105.534 E12.77444
G1 X108.02 Y106.024 E12.79967
G1 X107.819 Y106.488 E12.8249
G1 X107.548 Y106.915 E12.85013
G1 X107.213 Y107.294 E12.87537
G1 X106.823 Y107.615 E12.90057
G1 X106.387 Y107.871 E12.92579
G1 X105.916 Y108.054 E12.951
G1 X105.422 Y108.162 E12.97623
G1 X104.76 Y108.199 E13.00931
G1 X85.666 Y108.2 E13.96191
G1 X84.968 Y108.191 E13.99674
G1 X84.464 Y108.144 E14.02199
G1 X83.974 Y108.019 E14.04722
G1 X83.51 Y107.818 E14.07245
G1 X83.084 Y107.547 E14.09764
G1 X82.705 Y107.212 E14.12287
G1 X82.384 Y106.821 E14.14811
G1 X82.129 Y106.385 E14.17331
G1 X81.945 Y105.914 E14.19854
G1 X81.838 Y105.42 E14.22376
G1 X81.801 Y104.744 E14.25753
G1 X81.8 Y85.631 E15.21109
G1 X81.809 Y84.966 E15.24427
G1 X81.856 Y84.462 E15.26952
G1 X81.982 Y83.973 E15.29471
G1 X82.183 Y83.509 E15.31994
G1 X82.454 Y83.082 E15.34517
G1 F1500 E8.84517
;MESH:xyzCalibration_cube.stl
G0 F3600 X84.335 Y85.614
G0 X85.614 Y85.614
G0 X104.33 Y104.33
G0 X104.4 Y104.4
;TYPE:WALL-INNER
G1 F1500 E15.34517
G1 F1200 X85.6 Y104.4 E16.28311
G1 X85.6 Y85.6 E17.22104
G1 X104.4 Y85.6 E18.15898
G1 X104.4 Y104.4 E19.09692
G0 F3600 X104.8 Y104.8
;TYPE:WALL-OUTER
G1 F1200 X85.2 Y104.8 E20.07476
G1 X85.2 Y85.2 E21.05261
G1 X104.8 Y85.2 E22.03046
G1 X104.8 Y104.8 E23.00831
G0 F3600 X104.6 Y104.8
G0 X104.01 Y104.01
;TYPE:SKIN
G1 F1200 X85.99 Y104.01 E23.90733
G1 X85.99 Y85.99 E24.80635
G1 X104.01 Y85.99 E25.70537
G1 X104.01 Y104.01 E26.60439
G0 F3600 X103.829 Y86.293
G1 F1200 X103.706 Y86.17 E26.61307
G0 F3600 X103.14 Y86.17
G1 F1200 X103.829 Y86.858 E26.66165
G0 F3600 X103.829 Y87.424
G1 F1200 X102.575 Y86.17 E26.75012
G0 F3600 X102.009 Y86.17
G1 F1200 X103.829 Y87.99 E26.87854
G0 F3600 X103.829 Y88.555
G1 F1200 X101.443 Y86.17 E27.04685
G0 F3600 X100.877 Y86.17
G1 F1200 X103.829 Y89.121 E27.25509
G0 F3600 X103.829 Y89.687
G1 F1200 X100.312 Y86.17 E27.50323
G0 F3600 X99.746 Y86.17
G1 F1200 X103.829 Y90.252 E27.79128
G0 F3600 X103.829 Y90.818
G1 F1200 X99.18 Y86.17 E28.11925
G0 F3600 X98.615 Y86.17
G1 F1200 X103.829 Y91.384 E28.48713
G0 F3600 X103.829 Y91.95
G1 F1200 X98.049 Y86.17 E28.89494
G0 F3600 X97.483 Y86.17
G1 F1200 X103.829 Y92.515 E29.34265
G0 F3600 X103.829 Y93.081
G1 F1200 X96.918 Y86.17 E29.83026
G0 F3600 X96.352 Y86.17
G1 F1200 X103.829 Y93.647 E30.3578
G0 F3600 X103.829 Y94.212
G1 F1200 X95.786 Y86.17 E30.92524
G0 F3600 X95.221 Y86.17
G1 F1200 X103.829 Y94.778 E31.53258
G0 F3600 X103.829 Y95.344
G1 F1200 X94.655 Y86.17 E32.17986
G0 F3600 X94.089 Y86.17
G1 F1200 X103.829 Y95.909 E32.86703
G0 F3600 X103.829 Y96.475
G1 F1200 X93.524 Y86.17 E33.5941
G0 F3600 X92.958 Y86.17
G1 F1200 X103.829 Y97.041 E34.36111
G0 F3600 X103.829 Y97.606
G1 F1200 X92.392 Y86.17 E35.16802
G0 F3600 X91.827 Y86.17
G1 F1200 X103.829 Y98.172 E36.01483
G0 F3600 X103.829 Y98.738
G1 F1200 X91.261 Y86.17 E36.90157
G0 F3600 X90.695 Y86.17
G1 F1200 X103.829 Y99.303 E37.8282
G0 F3600 X103.829 Y99.869
G1 F1200 X90.129 Y86.17 E38.79478
G0 F3600 X89.564 Y86.17
G1 F1200 X103.829 Y100.435 E39.80125
G0 F3600 X103.829 Y101.001
G1 F1200 X88.998 Y86.17 E40.84766
G0 F3600 X88.432 Y86.17
G1 F1200 X103.829 Y101.566 E41.93396
G0 F3600 X103.829 Y102.132
G1 F1200 X87.867 Y86.17 E43.06017
G0 F3600 X87.301 Y86.17
G1 F1200 X103.829 Y102.698 E44.22631
G0 F3600 X103.829 Y103.263
G1 F1200 X86.735 Y86.17 E45.43235
G0 F3600 X86.169 Y86.169
G1 F1200 X103.829 Y103.829 E46.67836
G0 F3600 X103.263 Y103.829
G1 F1200 X86.169 Y86.735 E47.88443
G0 F3600 X86.169 Y87.3
G1 F1200 X102.698 Y103.829 E49.05064
G0 F3600 X102.132 Y103.829
G1 F1200 X86.169 Y87.866 E50.17692
G0 F3600 X86.169 Y88.432
G1 F1200 X101.566 Y103.829 E51.26326
G0 F3600 X101.001 Y103.829
G1 F1200 X86.169 Y88.997 E52.30974
G0 F3600 X86.169 Y89.563
G1 F1200 X100.435 Y103.829 E53.31628
G0 F3600 X99.869 Y103.829
G1 F1200 X86.169 Y90.129 E54.28289
G0 F3600 X86.169 Y90.694
G1 F1200 X99.303 Y103.829 E55.2096
G0 F3600 X98.738 Y103.829
G1 F1200 X86.169 Y91.26 E56.09641
G0 F3600 X86.169 Y91.826
G1 F1200 X98.172 Y103.829 E56.94329
G0 F3600 X97.606 Y103.829
G1 F1200 X86.169 Y92.391 E57.75026
G0 F3600 X86.169 Y92.957
G1 F1200 X97.041 Y103.829 E58.51734
G0 F3600 X96.475 Y103.829
G1 F1200 X86.169 Y93.523 E59.24449
G0 F3600 X86.169 Y94.089
G1 F1200 X95.909 Y103.829 E59.9317
G0 F3600 X95.344 Y103.829
G1 F1200 X86.169 Y94.654 E60.57904
G0 F3600 X86.169 Y95.22
G1 F1200 X94.778 Y103.829 E61.18645
G0 F3600 X94.212 Y103.829
G1 F1200 X86.169 Y95.786 E61.75393
G0 F3600 X86.169 Y96.351
G1 F1200 X93.647 Y103.829 E62.28154
G0 F3600 X93.081 Y103.829
G1 F1200 X86.169 Y96.917 E62.76922
G0 F3600 X86.169 Y97.483
G1 F1200 X92.515 Y103.829 E63.21697
G0 F3600 X91.95 Y103.829
G1 F1200 X86.169 Y98.048 E63.62485
G0 F3600 X86.169 Y98.614
G1 F1200 X91.384 Y103.829 E63.99279
G0 F3600 X90.818 Y103.829
G1 F1200 X86.169 Y99.18 E64.32081
G0 F3600 X86.169 Y99.745
G1 F1200 X90.252 Y103.829 E64.60892
G0 F3600 X89.687 Y103.829
G1 F1200 X86.169 Y100.311 E64.85713
G0 F3600 X86.169 Y100.877
G1 F1200 X89.121 Y103.829 E65.06541
G0 F3600 X88.555 Y103.829
G1 F1200 X86.169 Y101.442 E65.23379
G0 F3600 X86.169 Y102.008
G1 F1200 X87.99 Y103.829 E65.36227
G0 F3600 X87.424 Y103.829
G1 F1200 X86.169 Y102.574 E65.45082
G0 F3600 X86.169 Y103.14
G1 F1200 X86.858 Y103.829 E65.49943
G0 F3600 X86.293 Y103.829
G1 F1200 X86.169 Y103.705 E65.50818
;MESH:NONMESH
G0 F600 X86.169 Y103.705 Z0.5
G0 F3600 X104.33 Y104.33
G0 X104.4 Y104.4
;TIME_ELAPSED:72.587856
;LAYER:1
M106 S255
;TYPE:WALL-INNER
;MESH:xyzCalibration_cube.stl
G1 F1800 X85.6 Y104.4 E66.13347
G1 X85.6 Y85.6 E66.75876
G1 X104.4 Y85.6 E67.38405
G1 X104.4 Y104.4 E68.00934
G0 F5400 X104.8 Y104.8
;TYPE:WALL-OUTER
G1 F1200 X85.2 Y104.8 E68.66124
G1 X85.2 Y85.2 E69.31314
G1 X104.8 Y85.2 E69.96504
G1 X104.8 Y104.8 E70.61694
G0 F5400 X104.6 Y104.8
G0 X104.01 Y104.01
;TYPE:SKIN
G1 F1200 X85.99 Y104.01 E71.21629
G1 X85.99 Y85.99 E71.81563
G1 X104.01 Y85.99 E72.41498
G1 X104.01 Y104.01 E73.01433
G0 F5400 X103.211 Y103.829
G1 F1200 X103.829 Y103.211 E73.0434
G0 F5400 X103.829 Y102.645
G1 F1200 X102.645 Y103.829 E73.09909
G0 F5400 X102.08 Y103.829
G1 F1200 X103.829 Y102.08 E73.18136
G0 F5400 X103.829 Y101.514
G1 F1200 X101.514 Y103.829 E73.29025
G0 F5400 X100.948 Y103.829
G1 F1200 X103.829 Y100.948 E73.42576
G0 F5400 X103.829 Y100.382
G1 F1200 X100.382 Y103.829 E73.5879
G0 F5400 X99.817 Y103.829
G1 F1200 X103.829 Y99.817 E73.77661
G0 F5400 X103.829 Y99.251
G1 F1200 X99.251 Y103.829 E73.99195
G0 F5400 X98.685 Y103.829
G1 F1200 X103.829 Y98.685 E74.2339
G0 F5400 X103.829 Y98.12
G1 F1200 X98.12 Y103.829 E74.50244
G0 F5400 X97.554 Y103.829
G1 F1200 X103.829 Y97.554 E74.79759
G0 F5400 X103.829 Y96.988
G1 F1200 X96.988 Y103.829 E75.11937
G0 F5400 X96.423 Y103.829
G1 F1200 X103.829 Y96.423 E75.46773
G0 F5400 X103.829 Y95.857
G1 F1200 X95.857 Y103.829 E75.84271
G0 F5400 X95.291 Y103.829
G1 F1200 X103.829 Y95.291 E76.24431
G0 F5400 X103.829 Y94.726
G1 F1200 X94.726 Y103.829 E76.67249
G0 F5400 X94.16 Y103.829
G1 F1200 X103.829 Y94.16 E77.12729
G0 F5400 X103.829 Y93.594
G1 F1200 X93.594 Y103.829 E77.60871
G0 F5400 X93.029 Y103.829
G1 F1200 X103.829 Y93.029 E78.11671
G0 F5400 X103.829 Y92.463
G1 F1200 X92.463 Y103.829 E78.65133
G0 F5400 X91.897 Y103.829
G1 F1200 X103.829 Y91.897 E79.21257
G0 F5400 X103.829 Y91.332
G1 F1200 X91.332 Y103.829 E79.8004
G0 F5400 X90.766 Y103.829
G1 F1200 X103.829 Y90.766 E80.41484
G0 F5400 X103.829 Y90.2
G1 F1200 X90.2 Y103.829 E81.0559
G0 F5400 X89.634 Y103.829
G1 F1200 X103.829 Y89.634 E81.72359
G0 F5400 X103.829 Y89.069
G1 F1200 X89.069 Y103.829 E82.41786
G0 F5400 X88.503 Y103.829
G1 F1200 X103.829 Y88.503 E83.13875
G0 F5400 X103.829 Y87.937
G1 F1200 X87.937 Y103.829 E83.88626
G0 F5400 X87.372 Y103.829
G1 F1200 X103.829 Y87.372 E84.66035
G0 F5400 X103.829 Y86.806
G1 F1200 X86.806 Y103.829 E85.46105
G0 F5400 X86.24 Y103.829
G1 F1200 X103.829 Y86.24 E86.28839
G0 F5400 X103.335 Y86.169
G1 F1200 X86.17 Y103.334 E87.09578
G0 F5400 X86.17 Y102.768
G1 F1200 X102.769 Y86.169 E87.87654
G0 F5400 X102.203 Y86.169
G1 F1200 X86.17 Y102.203 E88.63071
G0 F5400 X86.17 Y101.637
G1 F1200 X101.638 Y86.169 E89.35828
G0 F5400 X101.072 Y86.169
G1 F1200 X86.17 Y101.071 E90.05922
G0 F5400 X86.17 Y100.506
G1 F1200 X100.506 Y86.169 E90.73357
G0 F5400 X99.941 Y86.169
G1 F1200 X86.17 Y99.94 E91.38131
G0 F5400 X86.17 Y99.374
G1 F1200 X99.375 Y86.169 E92.00243
G0 F5400 X98.809 Y86.169
G1 F1200 X86.17 Y98.808 E92.59693
G0 F5400 X86.17 Y98.243
G1 F1200 X98.244 Y86.169 E93.16486
G0 F5400 X97.678 Y86.169
G1 F1200 X86.17 Y97.677 E93.70616
G0 F5400 X86.17 Y97.111
G1 F1200 X97.112 Y86.169 E94.22084
G0 F5400 X96.546 Y86.169
G1 F1200 X86.17 Y96.546 E94.70892
G0 F5400 X86.17 Y95.98
G1 F1200 X95.981 Y86.169 E95.1704
G0 F5400 X95.415 Y86.169
G1 F1200 X86.17 Y95.414 E95.60525
G0 F5400 X86.17 Y94.849
G1 F1200 X94.849 Y86.169 E96.01351
G0 F5400 X94.284 Y86.169
G1 F1200 X86.17 Y94.283 E96.39517
G0 F5400 X86.17 Y93.717
G1 F1200 X93.718 Y86.169 E96.7502
G0 F5400 X93.152 Y86.169
G1 F1200 X86.17 Y93.152 E97.07864
G0 F5400 X86.17 Y92.586
G1 F1200 X92.587 Y86.169 E97.38047
G0 F5400 X92.021 Y86.169
G1 F1200 X86.17 Y92.02 E97.65569
G0 F5400 X86.17 Y91.455
G1 F1200 X91.455 Y86.169 E97.9043
G0 F5400 X90.89 Y86.169
G1 F1200 X86.17 Y90.889 E98.12631
G0 F5400 X86.17 Y90.323
G1 F1200 X90.324 Y86.169 E98.32171
G0 F5400 X89.758 Y86.169
G1 F1200 X86.17 Y89.758 E98.4905
G0 F5400 X86.17 Y89.192
G1 F1200 X89.193 Y86.169 E98.63269
G0 F5400 X88.627 Y86.169
G1 F1200 X86.17 Y88.626 E98.74826
G0 F5400 X86.17 Y88.06
G1 F1200 X88.061 Y86.169 E98.83721
G0 F5400 X87.495 Y86.169
G1 F1200 X86.17 Y87.495 E98.89955
G0 F5400 X86.17 Y86.929
G1 F1200 X86.93 Y86.169 E98.9353
G0 F5400 X86.364 Y86.169
G1 F1200 X86.17 Y86.363 E98.94443
;MESH:NONMESH
G0 F600 X86.17 Y86.363 Z0.7
G0 F5400 X104.33 Y104.33
G0 X104.4 Y104.4
;TIME_ELAPSED:123.310249
;LAYER:2
;TYPE:WALL-INNER
;MESH:xyzCalibration_cube.stl
G1 F2400 X85.6 Y104.4 E99.56972
G1 X85.6 Y85.6 E100.19501
G1 X104.4 Y85.6 E100.8203
G1 X104.4 Y104.4 E101.44559
G0 F7200 X104.8 Y104.8
;TYPE:WALL-OUTER
G1 F1200 X85.2 Y104.8 E102.09749
G1 X85.2 Y85.2 E102.74939
G1 X104.8 Y85.2 E103.40129
G1 X104.8 Y104.8 E104.05318
G0 F7200 X104.6 Y104.8
G0 X104.01 Y104.01
;TYPE:SKIN
G1 F1200 X85.99 Y104.01 E104.65253
G1 X85.99 Y85.99 E105.25188
G1 X104.01 Y85.99 E105.85123
G1 X104.01 Y104.01 E106.45057
G0 F7200 X103.829 Y86.293
G1 F1200 X103.706 Y86.17 E106.45636
G0 F7200 X103.14 Y86.17
G1 F1200 X103.829 Y86.858 E106.48875
G0 F7200 X103.829 Y87.424
G1 F1200 X102.575 Y86.17 E106.54773
G0 F7200 X102.009 Y86.17
G1 F1200 X103.829 Y87.99 E106.63334
G0 F7200 X103.829 Y88.555
G1 F1200 X101.443 Y86.17 E106.74554
G0 F7200 X100.877 Y86.17
G1 F1200 X103.829 Y89.121 E106.88437
G0 F7200 X103.829 Y89.687
G1 F1200 X100.312 Y86.17 E107.0498
G0 F7200 X99.746 Y86.17
G1 F1200 X103.829 Y90.252 E107.24183
G0 F7200 X103.829 Y90.818
G1 F1200 X99.18 Y86.17 E107.46048
G0 F7200 X98.615 Y86.17
G1 F1200 X103.829 Y91.384 E107.70573
G0 F7200 X103.829 Y91.95
G1 F1200 X98.049 Y86.17 E107.97761
G0 F7200 X97.483 Y86.17
G1 F1200 X103.829 Y92.515 E108.27608
G0 F7200 X103.829 Y93.081
G1 F1200 X96.918 Y86.17 E108.60115
G0 F7200 X96.352 Y86.17
G1 F1200 X103.829 Y93.647 E108.95285
G0 F7200 X103.829 Y94.212
G1 F1200 X95.786 Y86.17 E109.33114
G0 F7200 X95.221 Y86.17
G1 F1200 X103.829 Y94.778 E109.73603
G0 F7200 X103.829 Y95.344
G1 F1200 X94.655 Y86.17 E110.16755
G0 F7200 X94.089 Y86.17
G1 F1200 X103.829 Y95.909 E110.62567
G0 F7200 X103.829 Y96.475
G1 F1200 X93.524 Y86.17 E111.11038
G0 F7200 X92.958 Y86.17
G1 F1200 X103.829 Y97.041 E111.62172
G0 F7200 X103.829 Y97.606
G1 F1200 X92.392 Y86.17 E112.15966
G0 F7200 X91.827 Y86.17
G1 F1200 X103.829 Y98.172 E112.7242
G0 F7200 X103.829 Y98.738
G1 F1200 X91.261 Y86.17 E113.31536
G0 F7200 X90.695 Y86.17
G1 F1200 X103.829 Y99.303 E113.93312
G0 F7200 X103.829 Y99.869
G1 F1200 X90.129 Y86.17 E114.5775
G0 F7200 X89.564 Y86.17
G1 F1200 X103.829 Y100.435 E115.24848
G0 F7200 X103.829 Y101.001
G1 F1200 X88.998 Y86.17 E115.94609
